; G-Code generated by Simplify3D(R) Version 4.1.2
; Aug 25, 2020 at 10:41:27 PM
; Settings Summary
;   processName,p1
;   applyToModels,p1
;   profileName,Fanuc (modified)
;   profileVersion,2020-08-25 22:15:11
;   baseProfile,Raise3D Pro2
;   printMaterial,PLA
;   printQuality,High
;   printExtruders,Right Extruder Only
;   extruderName,Right Extruder,Left Extruder
;   extruderToolheadNumber,3,2
;   extruderDiameter,0.6,0.4
;   extruderAutoWidth,1,0
;   extruderWidth,0.72,0.4
;   extrusionMultiplier,0.95,0.9
;   extruderUseRetract,1,1
;   extruderRetractionDistance,3,3
;   extruderExtraRestartDistance,0,0
;   extruderRetractionZLift,0,0
;   extruderRetractionSpeed,2400,2400
;   extruderUseCoasting,1,1
;   extruderCoastingDistance,0.2,0.2
;   extruderUseWipe,0,0
;   extruderWipeDistance,5,5
;   primaryExtruder,0
;   layerHeight,0.4
;   topSolidLayers,2
;   bottomSolidLayers,2
;   perimeterOutlines,1000
;   printPerimetersInsideOut,0
;   startPointOption,2
;   startPointOriginX,0
;   startPointOriginY,0
;   sequentialIslands,0
;   spiralVaseMode,0
;   firstLayerHeightPercentage,100
;   firstLayerWidthPercentage,100
;   firstLayerUnderspeed,0.5
;   useRaft,1
;   raftExtruder,0
;   raftTopLayers,2
;   raftBaseLayers,2
;   raftOffset,3
;   raftSeparationDistance,0.17
;   raftTopInfill,50
;   aboveRaftSpeedMultiplier,0.3
;   useSkirt,0
;   skirtExtruder,0
;   skirtLayers,1
;   skirtOutlines,2
;   skirtOffset,4
;   usePrimePillar,0
;   primePillarExtruder,999
;   primePillarWidth,7
;   primePillarLocation,5
;   primePillarSpeedMultiplier,1
;   useOozeShield,0
;   oozeShieldExtruder,999
;   oozeShieldOffset,3
;   oozeShieldOutlines,1
;   oozeShieldSidewallShape,1
;   oozeShieldSidewallAngle,30
;   oozeShieldSpeedMultiplier,1
;   infillExtruder,0
;   internalInfillPattern,Rectilinear
;   externalInfillPattern,Rectilinear
;   infillPercentage,100
;   outlineOverlapPercentage,40
;   infillExtrusionWidthPercentage,100
;   minInfillLength,0
;   infillLayerInterval,1
;   internalInfillAngles,0
;   overlapInternalInfillAngles,1
;   externalInfillAngles,0
;   generateSupport,1
;   supportExtruder,0
;   supportInfillPercentage,15
;   supportExtraInflation,0
;   supportBaseLayers,1
;   denseSupportExtruder,0
;   denseSupportLayers,0
;   denseSupportInfillPercentage,70
;   supportLayerInterval,1
;   supportHorizontalPartOffset,0.1
;   supportUpperSeparationLayers,0
;   supportLowerSeparationLayers,0
;   supportType,1
;   supportGridSpacing,4
;   maxOverhangAngle,25
;   supportAngles,45,-45
;   temperatureName,Right Extruder,Left Extruder
;   temperatureNumber,3,2
;   temperatureSetpointCount,1,1
;   temperatureSetpointLayers,1,1
;   temperatureSetpointTemperatures,210,0
;   temperatureStabilizeAtStartup,0,0
;   temperatureHeatedBed,0,0
;   fanLayers,1,2
;   fanSpeeds,0,100
;   blipFanToFullPower,1
;   adjustSpeedForCooling,1
;   minSpeedLayerTime,15
;   minCoolingSpeedSlowdown,20
;   increaseFanForCooling,0
;   minFanLayerTime,45
;   maxCoolingFanSpeed,100
;   increaseFanForBridging,0
;   bridgingFanSpeed,100
;   use5D,1
;   relativeEdistances,0
;   allowEaxisZeroing,1
;   independentExtruderAxes,0
;   includeM10123,0
;   stickySupport,1
;   applyToolheadOffsets,0
;   gcodeXoffset,0
;   gcodeYoffset,0
;   gcodeZoffset,0
;   overrideMachineDefinition,1
;   machineTypeOverride,0
;   strokeXoverride,450
;   strokeYoverride,450
;   strokeZoverride,600
;   originOffsetXoverride,0
;   originOffsetYoverride,0
;   originOffsetZoverride,0
;   homeXdirOverride,-1
;   homeYdirOverride,-1
;   homeZdirOverride,-1
;   flipXoverride,1
;   flipYoverride,-1
;   flipZoverride,1
;   toolheadOffsets,0,0|0,0|0,0|0,0|0,0|0,0
;   overrideFirmwareConfiguration,1
;   firmwareTypeOverride,RepRap (Marlin/Repetier/Sprinter)
;   GPXconfigOverride,r2
;   baudRateOverride,230400
;   overridePrinterModels,1
;   printerModelsOverride
;   startingGcode,G28 X0 Y0 ; Move to origin (Home),;G28 Z0 ; Move to origin (Home),;T3  ; Selecting Right Extruder,;G92 E0 ; Set position
;   layerChangeGcode,
;   retractionGcode,
;   toolChangeGcode,
;   endingGcode,M107 ; Fan off,M104 S0 T3 ; Set Right Extruder T to zero,M104 S0 T2 ; Set Left Extruder T to zero,G28 X0 Y0 ; Move to Origin (Home),;G91 ; Set to Relative Positioning,;G90 ; Set to Absolute Positioning
;   exportFileFormat,gcode
;   celebration,0
;   celebrationSong,Random Song
;   postProcessing,
;   defaultSpeed,4800
;   outlineUnderspeed,1
;   solidInfillUnderspeed,1
;   supportUnderspeed,0.8
;   rapidXYspeed,6000
;   rapidZspeed,972
;   minBridgingArea,50
;   bridgingExtraInflation,0
;   bridgingExtrusionMultiplier,1
;   bridgingSpeedMultiplier,1
;   useFixedBridgingAngle,1
;   fixedBridgingAngle,0
;   applyBridgingToPerimeters,1
;   filamentDiameters,1.75|1.75|1.75|1.75|1.75|1.75
;   filamentPricesPerKg,46|46|46|46|46|46
;   filamentDensities,1.25|1.25|1.25|1.25|1.25|1.25
;   useMinPrintHeight,0
;   minPrintHeight,1
;   useMaxPrintHeight,0
;   maxPrintHeight,28.5
;   useDiaphragm,0
;   diaphragmLayerInterval,20
;   robustSlicing,1
;   mergeAllIntoSolid,0
;   onlyRetractWhenCrossingOutline,0
;   retractBetweenLayers,1
;   useRetractionMinTravel,0
;   retractionMinTravel,3
;   retractWhileWiping,0
;   onlyWipeOutlines,1
;   avoidCrossingOutline,0
;   maxMovementDetourFactor,3
;   toolChangeRetractionDistance,12
;   toolChangeExtraRestartDistance,-0.5
;   toolChangeRetractionSpeed,600
;   externalThinWallType,0
;   internalThinWallType,1
;   thinWallAllowedOverlapPercentage,0
;   singleExtrusionMinLength,0
;   singleExtrusionMinPrintingWidthPercentage,50
;   singleExtrusionMaxPrintingWidthPercentage,200
;   singleExtrusionEndpointExtension,0.2
;   horizontalSizeCompensation,0
G90
M82
M106 S0
M104 S0 T2
M104 S210 T3
G28 X0 Y0 ; Move to origin (Home)
;G28 Z0 ; Move to origin (Home)
;T3  ; Selecting Right Extruder
;G92 E0 ; Set position
; process p1
; layer 1, Z = 0.750
T3
G92 E0.0000
G1 E-3.0000 F2400
; feature raft
; tool H0.750 W1.200
G1 X18.9440 Y6.3096 Z0.9634 I-0.0948 J0.0000 K0.9955 F1000
G1 X37.7055 Y12.6193 Z3.7166 I-0.1886 J0.0000 K0.9820
G1 X56.1158 Y18.9289 Z8.2337 I-0.2808 J0.0000 K0.9598
G1 X74.0095 Y25.2385 Z14.4728 I-0.3705 J0.0000 K0.9288
G1 X91.2261 Y31.5482 Z22.3768 I-0.4569 J0.0000 K0.8895
G1 X107.6111 Y37.8578 Z31.8734 I-0.5391 J0.0000 K0.8422
G1 X123.0176 Y44.1674 Z42.8764 I-0.6165 J0.0000 K0.7874
G1 X137.3076 Y50.4771 Z55.2856 I-0.6883 J0.0000 K0.7254
G1 X150.3534 Y56.7867 Z68.9886 I-0.7539 J0.0000 K0.6569
G1 X162.0384 Y63.0963 Z83.8613 I-0.8128 J0.0000 K0.5826
G1 X172.2583 Y69.4060 Z99.7691 I-0.8643 J0.0000 K0.5029
G1 X178.7330 Y74.0060 Z111.9370 I-0.8970 J0.0000 K0.4420
G1 X18.9440 Y6.3096 Z0.9634 I-0.0948 J0.0000 K0.9955 F1000
G1 X37.7055 Y12.6193 Z3.7166 I-0.1886 J0.0000 K0.9820
G1 X56.1158 Y18.9289 Z8.2337 I-0.2808 J0.0000 K0.9598
G1 X74.0095 Y25.2385 Z14.4728 I-0.3705 J0.0000 K0.9288
G1 X91.2261 Y31.5482 Z22.3768 I-0.4569 J0.0000 K0.8895
G1 X107.6111 Y37.8578 Z31.8734 I-0.5391 J0.0000 K0.8422
G1 X123.0176 Y44.1674 Z42.8764 I-0.6165 J0.0000 K0.7874
G1 X137.3076 Y50.4771 Z55.2856 I-0.6883 J0.0000 K0.7254
G1 X150.3534 Y56.7867 Z68.9886 I-0.7539 J0.0000 K0.6569
G1 X162.0384 Y63.0963 Z83.8613 I-0.8128 J0.0000 K0.5826
G1 X172.2583 Y69.4060 Z99.7691 I-0.8643 J0.0000 K0.5029
G1 X178.7330 Y74.0060 Z111.9370 I-0.8970 J0.0000 K0.4420
G1 E0.0000 F2400
G92 E0.0000
G1 X179.3476 Y72.6000 Z113.1957 I-0.9001 J0.0000 K0.4357 E0.7054 F600
G1 X181.1171 Y72.6000 Z116.9509 I-0.9090 J0.0000 K0.4168 E2.1809
G1 X181.2084 Y72.3800 Z117.1502 I-0.9095 J0.0000 K0.4158 E2.2913
G1 X188.0627 Y72.3800 Z134.1746 I-0.9439 J0.0000 K0.3304 E8.8151
G1 X188.5208 Y73.7860 Z135.4983 I-0.9462 J0.0000 K0.3237 E9.5205
G1 X188.5208 Y93.7860 Z135.4983 I-0.9462 J0.0000 K0.3237 E16.6299
G1 X188.5208 Y113.7860 Z135.4983 I-0.9462 J0.0000 K0.3237 E23.7392
G1 X188.5208 Y133.7860 Z135.4983 I-0.9462 J0.0000 K0.3237 E30.8486
G1 X188.5208 Y153.7860 Z135.4983 I-0.9462 J0.0000 K0.3237 E37.9579
G1 X188.5208 Y173.7860 Z135.4983 I-0.9462 J0.0000 K0.3237 E45.0673
G1 X188.5208 Y193.7860 Z135.4983 I-0.9462 J0.0000 K0.3237 E52.1767
G1 X188.5208 Y213.7860 Z135.4983 I-0.9462 J0.0000 K0.3237 E59.2860
G1 X188.5208 Y233.7860 Z135.4983 I-0.9462 J0.0000 K0.3237 E66.3954
G1 X188.5208 Y253.7860 Z135.4983 I-0.9462 J0.0000 K0.3237 E73.5047
G1 X188.5208 Y273.7860 Z135.4983 I-0.9462 J0.0000 K0.3237 E80.6141
G1 X188.5208 Y293.7860 Z135.4983 I-0.9462 J0.0000 K0.3237 E87.7235
G1 X188.5208 Y313.7860 Z135.4983 I-0.9462 J0.0000 K0.3237 E94.8328
G1 X188.5208 Y333.7860 Z135.4983 I-0.9462 J0.0000 K0.3237 E101.9422
G1 X188.5208 Y353.7860 Z135.4983 I-0.9462 J0.0000 K0.3237 E109.0516
G1 X188.5208 Y373.7860 Z135.4983 I-0.9462 J0.0000 K0.3237 E116.1609
G1 X188.5208 Y376.2140 Z135.4983 I-0.9462 J0.0000 K0.3237 E117.0240
G1 X188.0627 Y377.6200 Z134.1746 I-0.9439 J0.0000 K0.3304 E117.7294
G1 X181.2084 Y377.6200 Z117.1502 I-0.9095 J0.0000 K0.4158 E124.2532
G1 X181.1171 Y377.4000 Z116.9509 I-0.9090 J0.0000 K0.4168 E124.3636
G1 X179.3476 Y377.4000 Z113.1957 I-0.9001 J0.0000 K0.4357 E125.8391
G1 X178.7330 Y375.9940 Z111.9370 I-0.8970 J0.0000 K0.4420 E126.5445
G1 X178.7330 Y355.9940 Z111.9370 I-0.8970 J0.0000 K0.4420 E133.6538
G1 X178.7330 Y335.9940 Z111.9370 I-0.8970 J0.0000 K0.4420 E140.7632
G1 X178.7330 Y315.9940 Z111.9370 I-0.8970 J0.0000 K0.4420 E147.8726
G1 X178.7330 Y295.9940 Z111.9370 I-0.8970 J0.0000 K0.4420 E154.9819
G1 X178.7330 Y275.9940 Z111.9370 I-0.8970 J0.0000 K0.4420 E162.0913
G1 X178.7330 Y255.9940 Z111.9370 I-0.8970 J0.0000 K0.4420 E169.2006
G1 X178.7330 Y235.9940 Z111.9370 I-0.8970 J0.0000 K0.4420 E176.3100
G1 X178.7330 Y215.9940 Z111.9370 I-0.8970 J0.0000 K0.4420 E183.4194
G1 X178.7330 Y195.9940 Z111.9370 I-0.8970 J0.0000 K0.4420 E190.5287
G1 X178.7330 Y175.9940 Z111.9370 I-0.8970 J0.0000 K0.4420 E197.6381
G1 X178.7330 Y155.9940 Z111.9370 I-0.8970 J0.0000 K0.4420 E204.7475
G1 X178.7330 Y135.9940 Z111.9370 I-0.8970 J0.0000 K0.4420 E211.8568
G1 X178.7330 Y115.9940 Z111.9370 I-0.8970 J0.0000 K0.4420 E218.9662
G1 X178.7330 Y95.9940 Z111.9370 I-0.8970 J0.0000 K0.4420 E226.0755
G1 X178.7330 Y75.9940 Z111.9370 I-0.8970 J0.0000 K0.4420 E233.1849
G1 X178.7330 Y74.2060 Z111.9370 I-0.8970 J0.0000 K0.4420 E233.8205
G1 X178.7330 Y74.0060 Z111.9370 I-0.8970 J0.0000 K0.4420 F600
G92 E0.0000
G1 E-3.0000 F2400
G1 X179.1191 Y74.1430 Z112.7252 I-0.8990 J0.0000 K0.4380 F6000
G1 E0.0000 F2400
G92 E0.0000
G1 X186.9372 Y74.1430 Z131.0433 I-0.9382 J0.0000 K0.3461 E7.0795 F600
G1 X188.2874 Y74.1430 Z134.8200 I-0.9450 J0.0000 K0.3271 E8.5052
G1 X188.2874 Y77.5710 Z134.8200 I-0.9450 J0.0000 K0.3271 E9.7240
G1 X180.8396 Y77.5710 Z116.3483 I-0.9076 J0.0000 K0.4198 E16.8037
G1 X179.0488 Y77.5710 Z112.5810 I-0.8986 J0.0000 K0.4387 E18.2864
G1 X179.0488 Y81.0000 Z112.5810 I-0.8986 J0.0000 K0.4387 E19.5051
G1 X186.8817 Y81.0000 Z130.8928 I-0.9379 J0.0000 K0.3468 E26.5847
G1 X188.2874 Y81.0000 Z134.8200 I-0.9450 J0.0000 K0.3271 E28.0675
G1 X188.2874 Y84.4290 Z134.8200 I-0.9450 J0.0000 K0.3271 E29.2862
G1 X180.8396 Y84.4290 Z116.3483 I-0.9076 J0.0000 K0.4198 E36.3658
G1 X179.0488 Y84.4290 Z112.5810 I-0.8986 J0.0000 K0.4387 E37.8485
G1 X179.0488 Y87.8570 Z112.5810 I-0.8986 J0.0000 K0.4387 E39.0672
G1 X186.8817 Y87.8570 Z130.8928 I-0.9379 J0.0000 K0.3468 E46.1469
G1 X188.2874 Y87.8570 Z134.8200 I-0.9450 J0.0000 K0.3271 E47.6296
G1 X188.2874 Y91.2860 Z134.8200 I-0.9450 J0.0000 K0.3271 E48.8483
G1 X180.8396 Y91.2860 Z116.3483 I-0.9076 J0.0000 K0.4198 E55.9280
G1 X179.0488 Y91.2860 Z112.5810 I-0.8986 J0.0000 K0.4387 E57.4107
G1 X179.0488 Y94.7140 Z112.5810 I-0.8986 J0.0000 K0.4387 E58.6294
G1 X186.8817 Y94.7140 Z130.8928 I-0.9379 J0.0000 K0.3468 E65.7091
G1 X188.2874 Y94.7140 Z134.8200 I-0.9450 J0.0000 K0.3271 E67.1918
G1 X188.2874 Y98.1430 Z134.8200 I-0.9450 J0.0000 K0.3271 E68.4105
G1 X180.8396 Y98.1430 Z116.3483 I-0.9076 J0.0000 K0.4198 E75.4901
G1 X179.0488 Y98.1430 Z112.5810 I-0.8986 J0.0000 K0.4387 E76.9729
G1 X179.0488 Y101.5710 Z112.5810 I-0.8986 J0.0000 K0.4387 E78.1917
G1 X186.8817 Y101.5710 Z130.8928 I-0.9379 J0.0000 K0.3468 E85.2712
G1 X188.2874 Y101.5710 Z134.8200 I-0.9450 J0.0000 K0.3271 E86.7539
G1 X188.2874 Y105.0000 Z134.8200 I-0.9450 J0.0000 K0.3271 E87.9727
G1 X180.8396 Y105.0000 Z116.3483 I-0.9076 J0.0000 K0.4198 E95.0523
G1 X179.0488 Y105.0000 Z112.5810 I-0.8986 J0.0000 K0.4387 E96.5350
G1 X179.0488 Y108.4290 Z112.5810 I-0.8986 J0.0000 K0.4387 E97.7538
G1 X186.8817 Y108.4290 Z130.8928 I-0.9379 J0.0000 K0.3468 E104.8334
G1 X188.2874 Y108.4290 Z134.8200 I-0.9450 J0.0000 K0.3271 E106.3161
G1 X188.2874 Y111.8570 Z134.8200 I-0.9450 J0.0000 K0.3271 E107.5349
G1 X180.8396 Y111.8570 Z116.3483 I-0.9076 J0.0000 K0.4198 E114.6145
G1 X179.0488 Y111.8570 Z112.5810 I-0.8986 J0.0000 K0.4387 E116.0972
G1 X179.0488 Y115.2860 Z112.5810 I-0.8986 J0.0000 K0.4387 E117.3160
G1 X186.8817 Y115.2860 Z130.8928 I-0.9379 J0.0000 K0.3468 E124.3956
G1 X188.2874 Y115.2860 Z134.8200 I-0.9450 J0.0000 K0.3271 E125.8783
G1 X188.2874 Y118.7140 Z134.8200 I-0.9450 J0.0000 K0.3271 E127.0971
G1 X180.8396 Y118.7140 Z116.3483 I-0.9076 J0.0000 K0.4198 E134.1767
G1 X179.0488 Y118.7140 Z112.5810 I-0.8986 J0.0000 K0.4387 E135.6595
G1 X179.0488 Y122.1430 Z112.5810 I-0.8986 J0.0000 K0.4387 E136.8782
G1 X186.8817 Y122.1430 Z130.8928 I-0.9379 J0.0000 K0.3468 E143.9578
G1 X188.2874 Y122.1430 Z134.8200 I-0.9450 J0.0000 K0.3271 E145.4405
G1 X188.2874 Y125.5710 Z134.8200 I-0.9450 J0.0000 K0.3271 E146.6592
G1 X180.8396 Y125.5710 Z116.3483 I-0.9076 J0.0000 K0.4198 E153.7389
G1 X179.0488 Y125.5710 Z112.5810 I-0.8986 J0.0000 K0.4387 E155.2216
G1 X179.0488 Y129.0000 Z112.5810 I-0.8986 J0.0000 K0.4387 E156.4403
G1 X186.8817 Y129.0000 Z130.8928 I-0.9379 J0.0000 K0.3468 E163.5200
G1 X188.2874 Y129.0000 Z134.8200 I-0.9450 J0.0000 K0.3271 E165.0027
G1 X188.2874 Y132.4290 Z134.8200 I-0.9450 J0.0000 K0.3271 E166.2214
G1 X180.8396 Y132.4290 Z116.3483 I-0.9076 J0.0000 K0.4198 E173.3011
G1 X179.0488 Y132.4290 Z112.5810 I-0.8986 J0.0000 K0.4387 E174.7838
G1 X179.0488 Y135.8570 Z112.5810 I-0.8986 J0.0000 K0.4387 E176.0025
G1 X186.8817 Y135.8570 Z130.8928 I-0.9379 J0.0000 K0.3468 E183.0821
G1 X188.2874 Y135.8570 Z134.8200 I-0.9450 J0.0000 K0.3271 E184.5649
G1 X188.2874 Y139.2860 Z134.8200 I-0.9450 J0.0000 K0.3271 E185.7836
G1 X180.8396 Y139.2860 Z116.3483 I-0.9076 J0.0000 K0.4198 E192.8632
G1 X179.0488 Y139.2860 Z112.5810 I-0.8986 J0.0000 K0.4387 E194.3459
G1 X179.0488 Y142.7140 Z112.5810 I-0.8986 J0.0000 K0.4387 E195.5647
G1 X186.8817 Y142.7140 Z130.8928 I-0.9379 J0.0000 K0.3468 E202.6443
G1 X188.2874 Y142.7140 Z134.8200 I-0.9450 J0.0000 K0.3271 E204.1270
G1 X188.2874 Y146.1430 Z134.8200 I-0.9450 J0.0000 K0.3271 E205.3458
G1 X180.8396 Y146.1430 Z116.3483 I-0.9076 J0.0000 K0.4198 E212.4254
G1 X179.0488 Y146.1430 Z112.5810 I-0.8986 J0.0000 K0.4387 E213.9081
G1 X179.0488 Y149.5710 Z112.5810 I-0.8986 J0.0000 K0.4387 E215.1269
G1 X186.8817 Y149.5710 Z130.8928 I-0.9379 J0.0000 K0.3468 E222.2065
G1 X188.2874 Y149.5710 Z134.8200 I-0.9450 J0.0000 K0.3271 E223.6892
G1 X188.2874 Y153.0000 Z134.8200 I-0.9450 J0.0000 K0.3271 E224.9080
G1 X180.8396 Y153.0000 Z116.3483 I-0.9076 J0.0000 K0.4198 E231.9876
G1 X179.0488 Y153.0000 Z112.5810 I-0.8986 J0.0000 K0.4387 E233.4703
G1 X179.0488 Y156.4290 Z112.5810 I-0.8986 J0.0000 K0.4387 E234.6891
G1 X186.8817 Y156.4290 Z130.8928 I-0.9379 J0.0000 K0.3468 E241.7687
G1 X188.2874 Y156.4290 Z134.8200 I-0.9450 J0.0000 K0.3271 E243.2514
G1 X188.2874 Y159.8570 Z134.8200 I-0.9450 J0.0000 K0.3271 E244.4702
G1 X180.8396 Y159.8570 Z116.3483 I-0.9076 J0.0000 K0.4198 E251.5498
G1 X179.0488 Y159.8570 Z112.5810 I-0.8986 J0.0000 K0.4387 E253.0325
G1 X179.0488 Y163.2860 Z112.5810 I-0.8986 J0.0000 K0.4387 E254.2512
G1 X186.8817 Y163.2860 Z130.8928 I-0.9379 J0.0000 K0.3468 E261.3309
G1 X188.2874 Y163.2860 Z134.8200 I-0.9450 J0.0000 K0.3271 E262.8136
G1 X188.2874 Y166.7140 Z134.8200 I-0.9450 J0.0000 K0.3271 E264.0323
G1 X180.8396 Y166.7140 Z116.3483 I-0.9076 J0.0000 K0.4198 E271.1120
G1 X179.0488 Y166.7140 Z112.5810 I-0.8986 J0.0000 K0.4387 E272.5947
G1 X179.0488 Y170.1430 Z112.5810 I-0.8986 J0.0000 K0.4387 E273.8134
