; G-Code generated by Simplify3D(R) Version 4.1.2
; Aug 25, 2020 at 10:41:27 PM
; Settings Summary
;   processName,p1
;   applyToModels,p1
;   profileName,Fanuc (modified)
;   profileVersion,2020-08-25 22:15:11
;   baseProfile,Raise3D Pro2
;   printMaterial,PLA
;   printQuality,High
;   printExtruders,Right Extruder Only
;   extruderName,Right Extruder,Left Extruder
;   extruderToolheadNumber,3,2
;   extruderDiameter,0.6,0.4
;   extruderAutoWidth,1,0
;   extruderWidth,0.72,0.4
;   extrusionMultiplier,0.95,0.9
;   extruderUseRetract,1,1
;   extruderRetractionDistance,3,3
;   extruderExtraRestartDistance,0,0
;   extruderRetractionZLift,0,0
;   extruderRetractionSpeed,2400,2400
;   extruderUseCoasting,1,1
;   extruderCoastingDistance,0.2,0.2
;   extruderUseWipe,0,0
;   extruderWipeDistance,5,5
;   primaryExtruder,0
;   layerHeight,0.4
;   topSolidLayers,2
;   bottomSolidLayers,2
;   perimeterOutlines,1000
;   printPerimetersInsideOut,0
;   startPointOption,2
;   startPointOriginX,0
;   startPointOriginY,0
;   sequentialIslands,0
;   spiralVaseMode,0
;   firstLayerHeightPercentage,100
;   firstLayerWidthPercentage,100
;   firstLayerUnderspeed,0.5
;   useRaft,1
;   raftExtruder,0
;   raftTopLayers,2
;   raftBaseLayers,2
;   raftOffset,3
;   raftSeparationDistance,0.17
;   raftTopInfill,50
;   aboveRaftSpeedMultiplier,0.3
;   useSkirt,0
;   skirtExtruder,0
;   skirtLayers,1
;   skirtOutlines,2
;   skirtOffset,4
;   usePrimePillar,0
;   primePillarExtruder,999
;   primePillarWidth,7
;   primePillarLocation,5
;   primePillarSpeedMultiplier,1
;   useOozeShield,0
;   oozeShieldExtruder,999
;   oozeShieldOffset,3
;   oozeShieldOutlines,1
;   oozeShieldSidewallShape,1
;   oozeShieldSidewallAngle,30
;   oozeShieldSpeedMultiplier,1
;   infillExtruder,0
;   internalInfillPattern,Rectilinear
;   externalInfillPattern,Rectilinear
;   infillPercentage,100
;   outlineOverlapPercentage,40
;   infillExtrusionWidthPercentage,100
;   minInfillLength,0
;   infillLayerInterval,1
;   internalInfillAngles,0
;   overlapInternalInfillAngles,1
;   externalInfillAngles,0
;   generateSupport,1
;   supportExtruder,0
;   supportInfillPercentage,15
;   supportExtraInflation,0
;   supportBaseLayers,1
;   denseSupportExtruder,0
;   denseSupportLayers,0
;   denseSupportInfillPercentage,70
;   supportLayerInterval,1
;   supportHorizontalPartOffset,0.1
;   supportUpperSeparationLayers,0
;   supportLowerSeparationLayers,0
;   supportType,1
;   supportGridSpacing,4
;   maxOverhangAngle,25
;   supportAngles,45,-45
;   temperatureName,Right Extruder,Left Extruder
;   temperatureNumber,3,2
;   temperatureSetpointCount,1,1
;   temperatureSetpointLayers,1,1
;   temperatureSetpointTemperatures,210,0
;   temperatureStabilizeAtStartup,0,0
;   temperatureHeatedBed,0,0
;   fanLayers,1,2
;   fanSpeeds,0,100
;   blipFanToFullPower,1
;   adjustSpeedForCooling,1
;   minSpeedLayerTime,15
;   minCoolingSpeedSlowdown,20
;   increaseFanForCooling,0
;   minFanLayerTime,45
;   maxCoolingFanSpeed,100
;   increaseFanForBridging,0
;   bridgingFanSpeed,100
;   use5D,1
;   relativeEdistances,0
;   allowEaxisZeroing,1
;   independentExtruderAxes,0
;   includeM10123,0
;   stickySupport,1
;   applyToolheadOffsets,0
;   gcodeXoffset,0
;   gcodeYoffset,0
;   gcodeZoffset,0
;   overrideMachineDefinition,1
;   machineTypeOverride,0
;   strokeXoverride,450
;   strokeYoverride,450
;   strokeZoverride,600
;   originOffsetXoverride,0
;   originOffsetYoverride,0
;   originOffsetZoverride,0
;   homeXdirOverride,-1
;   homeYdirOverride,-1
;   homeZdirOverride,-1
;   flipXoverride,1
;   flipYoverride,-1
;   flipZoverride,1
;   toolheadOffsets,0,0|0,0|0,0|0,0|0,0|0,0
;   overrideFirmwareConfiguration,1
;   firmwareTypeOverride,RepRap (Marlin/Repetier/Sprinter)
;   GPXconfigOverride,r2
;   baudRateOverride,230400
;   overridePrinterModels,1
;   printerModelsOverride
;   startingGcode,G28 X0 Y0 ; Move to origin (Home),;G28 Z0 ; Move to origin (Home),;T3  ; Selecting Right Extruder,;G92 E0 ; Set position
;   layerChangeGcode,
;   retractionGcode,
;   toolChangeGcode,
;   endingGcode,M107 ; Fan off,M104 S0 T3 ; Set Right Extruder T to zero,M104 S0 T2 ; Set Left Extruder T to zero,G28 X0 Y0 ; Move to Origin (Home),;G91 ; Set to Relative Positioning,;G90 ; Set to Absolute Positioning
;   exportFileFormat,gcode
;   celebration,0
;   celebrationSong,Random Song
;   postProcessing,
;   defaultSpeed,4800
;   outlineUnderspeed,1
;   solidInfillUnderspeed,1
;   supportUnderspeed,0.8
;   rapidXYspeed,6000
;   rapidZspeed,972
;   minBridgingArea,50
;   bridgingExtraInflation,0
;   bridgingExtrusionMultiplier,1
;   bridgingSpeedMultiplier,1
;   useFixedBridgingAngle,1
;   fixedBridgingAngle,0
;   applyBridgingToPerimeters,1
;   filamentDiameters,1.75|1.75|1.75|1.75|1.75|1.75
;   filamentPricesPerKg,46|46|46|46|46|46
;   filamentDensities,1.25|1.25|1.25|1.25|1.25|1.25
;   useMinPrintHeight,0
;   minPrintHeight,1
;   useMaxPrintHeight,0
;   maxPrintHeight,28.5
;   useDiaphragm,0
;   diaphragmLayerInterval,20
;   robustSlicing,1
;   mergeAllIntoSolid,0
;   onlyRetractWhenCrossingOutline,0
;   retractBetweenLayers,1
;   useRetractionMinTravel,0
;   retractionMinTravel,3
;   retractWhileWiping,0
;   onlyWipeOutlines,1
;   avoidCrossingOutline,0
;   maxMovementDetourFactor,3
;   toolChangeRetractionDistance,12
;   toolChangeExtraRestartDistance,-0.5
;   toolChangeRetractionSpeed,600
;   externalThinWallType,0
;   internalThinWallType,1
;   thinWallAllowedOverlapPercentage,0
;   singleExtrusionMinLength,0
;   singleExtrusionMinPrintingWidthPercentage,50
;   singleExtrusionMaxPrintingWidthPercentage,200
;   singleExtrusionEndpointExtension,0.2
;   horizontalSizeCompensation,0
G90
M82
M106 S0
M104 S0 T2
M104 S210 T3
G28 X0 Y0 ; Move to origin (Home)
;G28 Z0 ; Move to origin (Home)
;T3  ; Selecting Right Extruder
;G92 E0 ; Set position
; process p1
; layer 1, Z = 0.750
T3
G92 E0.0000
G1 E-3.0000 F2400
; feature raft
; tool H0.750 W1.200
G1 X222.600 Y74.006 Z0.750 F1000
G1 X222.600 Y74.006 Z0.750 F6000
G1 E0.0000 F2400
G92 E0.0000
G1 X224.006 Y72.600 Z0.750 E0.7067 F600
G1 X228.173 Y72.600 Z0.750 E2.1878
G1 X228.393 Y72.380 Z0.750 E2.2984
G1 X246.821 Y72.380 Z0.750 E8.8491
G1 X248.227 Y73.786 Z0.750 E9.5558
G1 X248.227 Y376.214 Z0.750 E117.0593
G1 X246.821 Y377.620 Z0.750 E117.7660
G1 X228.393 Y377.620 Z0.750 E124.3167
G1 X228.173 Y377.400 Z0.750 E124.4273
G1 X224.006 Y377.400 Z0.750 E125.9084
G1 X222.600 Y375.994 Z0.750 E126.6151
G1 X222.600 Y74.206 Z0.750 E233.8911
G1 X222.600 Y74.006 Z0.750 F600
G92 E0.0000
G1 E-3.0000 F2400
G1 X223.481 Y74.143 Z0.750 F6000
G1 E0.0000 F2400
G92 E0.0000
G1 X247.507 Y74.143 Z0.750 E8.5402 F600
G1 X247.507 Y77.571 Z0.750 E9.7590
G1 X223.320 Y77.571 Z0.750 E18.3566
G1 X223.320 Y81.000 Z0.750 E19.5753
G1 X247.507 Y81.000 Z0.750 E28.1729
G1 X247.507 Y84.429 Z0.750 E29.3916
G1 X223.320 Y84.429 Z0.750 E37.9892
G1 X223.320 Y87.857 Z0.750 E39.2079
G1 X247.507 Y87.857 Z0.750 E47.8055
G1 X247.507 Y91.286 Z0.750 E49.0242
G1 X223.320 Y91.286 Z0.750 E57.6218
G1 X223.320 Y94.714 Z0.750 E58.8405
G1 X247.507 Y94.714 Z0.750 E67.4381
G1 X247.507 Y98.143 Z0.750 E68.6568
G1 X223.320 Y98.143 Z0.750 E77.2544
G1 X223.320 Y101.571 Z0.750 E78.4732
G1 X247.507 Y101.571 Z0.750 E87.0707
G1 X247.507 Y105.000 Z0.750 E88.2895
G1 X223.320 Y105.000 Z0.750 E96.8870
G1 X223.320 Y108.429 Z0.750 E98.1058
G1 X247.507 Y108.429 Z0.750 E106.7033
G1 X247.507 Y111.857 Z0.750 E107.9221
G1 X223.320 Y111.857 Z0.750 E116.5196
G1 X223.320 Y115.286 Z0.750 E117.7384
G1 X247.507 Y115.286 Z0.750 E126.3359
G1 X247.507 Y118.714 Z0.750 E127.5547
G1 X223.320 Y118.714 Z0.750 E136.1523
G1 X223.320 Y122.143 Z0.750 E137.3710
G1 X247.507 Y122.143 Z0.750 E145.9686
G1 X247.507 Y125.571 Z0.750 E147.1873
G1 X223.320 Y125.571 Z0.750 E155.7849
G1 X223.320 Y129.000 Z0.750 E157.0036
G1 X247.507 Y129.000 Z0.750 E165.6012
G1 X247.507 Y132.429 Z0.750 E166.8199
G1 X223.320 Y132.429 Z0.750 E175.4175
G1 X223.320 Y135.857 Z0.750 E176.6362
G1 X247.507 Y135.857 Z0.750 E185.2338
G1 X247.507 Y139.286 Z0.750 E186.4525
G1 X223.320 Y139.286 Z0.750 E195.0501
G1 X223.320 Y142.714 Z0.750 E196.2689
G1 X247.507 Y142.714 Z0.750 E204.8664
G1 X247.507 Y146.143 Z0.750 E206.0852
G1 X223.320 Y146.143 Z0.750 E214.6827
G1 X223.320 Y149.571 Z0.750 E215.9015
G1 X247.507 Y149.571 Z0.750 E224.4990
G1 X247.507 Y153.000 Z0.750 E225.7178
G1 X223.320 Y153.000 Z0.750 E234.3153
G1 X223.320 Y156.429 Z0.750 E235.5341
G1 X247.507 Y156.429 Z0.750 E244.1316
G1 X247.507 Y159.857 Z0.750 E245.3504
G1 X223.320 Y159.857 Z0.750 E253.9480
G1 X223.320 Y163.286 Z0.750 E255.1667
G1 X247.507 Y163.286 Z0.750 E263.7643
G1 X247.507 Y166.714 Z0.750 E264.9830
G1 X223.320 Y166.714 Z0.750 E273.5806
G1 X223.320 Y170.143 Z0.750 E274.7993
G1 X247.507 Y170.143 Z0.750 E283.3969
G1 X247.507 Y173.571 Z0.750 E284.6156
G1 X223.320 Y173.571 Z0.750 E293.2132
G1 X223.320 Y177.000 Z0.750 E294.4319
G1 X247.507 Y177.000 Z0.750 E303.0295
G1 X247.507 Y180.429 Z0.750 E304.2482
G1 X223.320 Y180.429 Z0.750 E312.8458
G1 X223.320 Y183.857 Z0.750 E314.0646
G1 X247.507 Y183.857 Z0.750 E322.6621
G1 X247.507 Y187.286 Z0.750 E323.8809
G1 X223.320 Y187.286 Z0.750 E332.4784
G1 X223.320 Y190.714 Z0.750 E333.6972
G1 X247.507 Y190.714 Z0.750 E342.2947
G1 X247.507 Y194.143 Z0.750 E343.5135
G1 X223.320 Y194.143 Z0.750 E352.1110
G1 X223.320 Y197.571 Z0.750 E353.3298
G1 X247.507 Y197.571 Z0.750 E361.9273
G1 X247.507 Y201.000 Z0.750 E363.1461
G1 X223.320 Y201.000 Z0.750 E371.7437
G1 X223.320 Y204.429 Z0.750 E372.9624
G1 X247.507 Y204.429 Z0.750 E381.5600
G1 X247.507 Y207.857 Z0.750 E382.7787
G1 X223.320 Y207.857 Z0.750 E391.3763
G1 X223.320 Y211.286 Z0.750 E392.5950
G1 X247.507 Y211.286 Z0.750 E401.1926
G1 X247.507 Y214.714 Z0.750 E402.4113
G1 X223.320 Y214.714 Z0.750 E411.0089
G1 X223.320 Y218.143 Z0.750 E412.2276
G1 X247.507 Y218.143 Z0.750 E420.8252
G1 X247.507 Y221.571 Z0.750 E422.0439
G1 X223.320 Y221.571 Z0.750 E430.6415
G1 X223.320 Y225.000 Z0.750 E431.8603
G1 X247.507 Y225.000 Z0.750 E440.4578
G1 X247.507 Y228.429 Z0.750 E441.6766
G1 X223.320 Y228.429 Z0.750 E450.2741
G1 X223.320 Y231.857 Z0.750 E451.4929
G1 X247.507 Y231.857 Z0.750 E460.0904
G1 X247.507 Y235.286 Z0.750 E461.3092
G1 X223.320 Y235.286 Z0.750 E469.9067
G1 X223.320 Y238.714 Z0.750 E471.1255
G1 X247.507 Y238.714 Z0.750 E479.7230
G1 X247.507 Y242.143 Z0.750 E480.9418
G1 X223.320 Y242.143 Z0.750 E489.5394
G1 X223.320 Y245.571 Z0.750 E490.7581
G1 X247.507 Y245.571 Z0.750 E499.3557
G1 X247.507 Y249.000 Z0.750 E500.5744
G1 X223.320 Y249.000 Z0.750 E509.1720
G1 X223.320 Y252.429 Z0.750 E510.3907
G1 X247.507 Y252.429 Z0.750 E518.9883
G1 X247.507 Y255.857 Z0.750 E520.2070
G1 X223.320 Y255.857 Z0.750 E528.8046
G1 X223.320 Y259.286 Z0.750 E530.0233
G1 X247.507 Y259.286 Z0.750 E538.6209
G1 X247.507 Y262.714 Z0.750 E539.8396
G1 X223.320 Y262.714 Z0.750 E548.4372
G1 X223.320 Y266.143 Z0.750 E549.6560
G1 X247.507 Y266.143 Z0.750 E558.2535
G1 X247.507 Y269.571 Z0.750 E559.4723
G1 X223.320 Y269.571 Z0.750 E568.0698
G1 X223.320 Y273.000 Z0.750 E569.2886
G1 X247.507 Y273.000 Z0.750 E577.8861
G1 X247.507 Y276.429 Z0.750 E579.1049
G1 X223.320 Y276.429 Z0.750 E587.7024
G1 X223.320 Y279.857 Z0.750 E588.9212
G1 X247.507 Y279.857 Z0.750 E597.5187
G1 X247.507 Y283.286 Z0.750 E598.7375
G1 X223.320 Y283.286 Z0.750 E607.3351
G1 X223.320 Y286.714 Z0.750 E608.5538
G1 X247.507 Y286.714 Z0.750 E617.1514
G1 X247.507 Y290.143 Z0.750 E618.3701
G1 X223.320 Y290.143 Z0.750 E626.9677
G1 X223.320 Y293.571 Z0.750 E628.1864
G1 X247.507 Y293.571 Z0.750 E636.7840
G1 X247.507 Y297.000 Z0.750 E638.0027
G1 X223.320 Y297.000 Z0.750 E646.6003
G1 X223.320 Y300.429 Z0.750 E647.8190
G1 X247.507 Y300.429 Z0.750 E656.4166
G1 X247.507 Y303.857 Z0.750 E657.6353
G1 X223.320 Y303.857 Z0.750 E666.2329
G1 X223.320 Y307.286 Z0.750 E667.4517
G1 X247.507 Y307.286 Z0.750 E676.0492
G1 X247.507 Y310.714 Z0.750 E677.2680
G1 X223.320 Y310.714 Z0.750 E685.8655
G1 X223.320 Y314.143 Z0.750 E687.0843
G1 X247.507 Y314.143 Z0.750 E695.6818
G1 X247.507 Y317.571 Z0.750 E696.9006
G1 X223.320 Y317.571 Z0.750 E705.4981
G1 X223.320 Y321.000 Z0.750 E706.7169
G1 X247.507 Y321.000 Z0.750 E715.3145
G1 X247.507 Y324.429 Z0.750 E716.5332
G1 X223.320 Y324.429 Z0.750 E725.1308
G1 X223.320 Y327.857 Z0.750 E726.3495
G1 X247.507 Y327.857 Z0.750 E734.9471
G1 X247.507 Y331.286 Z0.750 E736.1658
G1 X223.320 Y331.286 Z0.750 E744.7634
G1 X223.320 Y334.714 Z0.750 E745.9821
G1 X247.507 Y334.714 Z0.750 E754.5797
G1 X247.507 Y338.143 Z0.750 E755.7984
G1 X223.320 Y338.143 Z0.750 E764.3960
G1 X223.320 Y341.571 Z0.750 E765.6147
G1 X247.507 Y341.571 Z0.750 E774.2123
G1 X247.507 Y345.000 Z0.750 E775.4310
G1 X223.320 Y345.000 Z0.750 E784.0286
G1 X223.320 Y348.429 Z0.750 E785.2474
G1 X247.507 Y348.429 Z0.750 E793.8449
G1 X247.507 Y351.857 Z0.750 E795.0637
G1 X223.320 Y351.857 Z0.750 E803.6612
G1 X223.320 Y355.286 Z0.750 E804.8800
G1 X247.507 Y355.286 Z0.750 E813.4775
G1 X247.507 Y358.714 Z0.750 E814.6963
G1 X223.320 Y358.714 Z0.750 E823.2938
G1 X223.320 Y362.143 Z0.750 E824.5126
G1 X247.507 Y362.143 Z0.750 E833.1102
G1 X247.507 Y365.571 Z0.750 E834.3289
G1 X223.320 Y365.571 Z0.750 E842.9265
G1 X223.320 Y369.000 Z0.750 E844.1452
G1 X247.507 Y369.000 Z0.750 E852.7428
G1 X247.507 Y372.429 Z0.750 E853.9615
G1 X223.320 Y372.429 Z0.750 E862.5591
G1 X223.320 Y375.696 Z0.750 E863.7205
G1 X223.481 Y375.857 Z0.750 E863.8016
G1 X247.307 Y375.857 Z0.750 E872.2707
G1 X247.507 Y375.857 Z0.750 F600
G92 E0.0000
G1 E-3.0000 F2400
; layer 2, Z = 1.500
M106 S255
G1 X247.507 Y375.857 Z1.500 F1000
G1 X248.227 Y376.214 Z1.500 F6000
G1 E0.0000 F2400
G92 E0.0000
G1 X246.821 Y377.620 Z1.500 E0.7067 F1200
G1 X228.393 Y377.620 Z1.500 E7.2574
G1 X228.173 Y377.400 Z1.500 E7.3680
G1 X224.006 Y377.400 Z1.500 E8.8491
G1 X222.600 Y375.994 Z1.500 E9.5558
G1 X222.600 Y74.006 Z1.500 E116.9029
G1 X224.006 Y72.600 Z1.500 E117.6096
G1 X228.173 Y72.600 Z1.500 E119.0907
G1 X228.393 Y72.380 Z1.500 E119.2013
G1 X246.821 Y72.380 Z1.500 E125.7520
G1 X248.227 Y73.786 Z1.500 E126.4587
G1 X248.227 Y376.014 Z1.500 E233.8911
G1 X248.227 Y376.214 Z1.500 F1200
G92 E0.0000
G1 E-3.0000 F2400
G1 X247.507 Y375.857 Z1.500 F6000
G1 E0.0000 F2400
G92 E0.0000
G1 X223.481 Y375.857 Z1.500 E8.5402 F1200
G1 X223.320 Y375.696 Z1.500 E8.6213
G1 X223.320 Y372.429 Z1.500 E9.7827
G1 X247.507 Y372.429 Z1.500 E18.3803
G1 X247.507 Y369.000 Z1.500 E19.5990
G1 X223.320 Y369.000 Z1.500 E28.1966
G1 X223.320 Y365.571 Z1.500 E29.4153
G1 X247.507 Y365.571 Z1.500 E38.0129
G1 X247.507 Y362.143 Z1.500 E39.2317
G1 X223.320 Y362.143 Z1.500 E47.8292
G1 X223.320 Y358.714 Z1.500 E49.0480
G1 X247.507 Y358.714 Z1.500 E57.6455
G1 X247.507 Y355.286 Z1.500 E58.8643
G1 X223.320 Y355.286 Z1.500 E67.4618
G1 X223.320 Y351.857 Z1.500 E68.6806
G1 X247.507 Y351.857 Z1.500 E77.2781
G1 X247.507 Y348.429 Z1.500 E78.4969
G1 X223.320 Y348.429 Z1.500 E87.0945
G1 X223.320 Y345.000 Z1.500 E88.3132
G1 X247.507 Y345.000 Z1.500 E96.9108
G1 X247.507 Y341.571 Z1.500 E98.1295
G1 X223.320 Y341.571 Z1.500 E106.7271
G1 X223.320 Y338.143 Z1.500 E107.9458
G1 X247.507 Y338.143 Z1.500 E116.5434
G1 X247.507 Y334.714 Z1.500 E117.7621
G1 X223.320 Y334.714 Z1.500 E126.3597
G1 X223.320 Y331.286 Z1.500 E127.5784
G1 X247.507 Y331.286 Z1.500 E136.1760
G1 X247.507 Y327.857 Z1.500 E137.3947
G1 X223.320 Y327.857 Z1.500 E145.9923
G1 X223.320 Y324.429 Z1.500 E147.2110
G1 X247.507 Y324.429 Z1.500 E155.8086
G1 X247.507 Y321.000 Z1.500 E157.0274
G1 X223.320 Y321.000 Z1.500 E165.6249
G1 X223.320 Y317.571 Z1.500 E166.8437
G1 X247.507 Y317.571 Z1.500 E175.4412
G1 X247.507 Y314.143 Z1.500 E176.6600
G1 X223.320 Y314.143 Z1.500 E185.2575
G1 X223.320 Y310.714 Z1.500 E186.4763
G1 X247.507 Y310.714 Z1.500 E195.0738
G1 X247.507 Y307.286 Z1.500 E196.2926
G1 X223.320 Y307.286 Z1.500 E204.8902
G1 X223.320 Y303.857 Z1.500 E206.1089
G1 X247.507 Y303.857 Z1.500 E214.7065
G1 X247.507 Y300.429 Z1.500 E215.9252
G1 X223.320 Y300.429 Z1.500 E224.5228
G1 X223.320 Y297.000 Z1.500 E225.7415
G1 X247.507 Y297.000 Z1.500 E234.3391
G1 X247.507 Y293.571 Z1.500 E235.5578
G1 X223.320 Y293.571 Z1.500 E244.1554
