; G-Code generated by Simplify3D(R) Version 4.1.2
; Aug 25, 2020 at 10:41:27 PM
; Settings Summary
;   processName,p1
;   applyToModels,p1
;   profileName,Fanuc (modified)
;   profileVersion,2020-08-25 22:15:11
;   baseProfile,Raise3D Pro2
;   printMaterial,PLA
;   printQuality,High
;   printExtruders,Right Extruder Only
;   extruderName,Right Extruder,Left Extruder
;   extruderToolheadNumber,3,2
;   extruderDiameter,0.6,0.4
;   extruderAutoWidth,1,0
;   extruderWidth,0.72,0.4
;   extrusionMultiplier,0.95,0.9
;   extruderUseRetract,1,1
;   extruderRetractionDistance,3,3
;   extruderExtraRestartDistance,0,0
;   extruderRetractionZLift,0,0
;   extruderRetractionSpeed,2400,2400
;   extruderUseCoasting,1,1
;   extruderCoastingDistance,0.2,0.2
;   extruderUseWipe,0,0
;   extruderWipeDistance,5,5
;   primaryExtruder,0
;   layerHeight,0.4
;   topSolidLayers,2
;   bottomSolidLayers,2
;   perimeterOutlines,1000
;   printPerimetersInsideOut,0
;   startPointOption,2
;   startPointOriginX,0
;   startPointOriginY,0
;   sequentialIslands,0
;   spiralVaseMode,0
;   firstLayerHeightPercentage,100
;   firstLayerWidthPercentage,100
;   firstLayerUnderspeed,0.5
;   useRaft,1
;   raftExtruder,0
;   raftTopLayers,2
;   raftBaseLayers,2
;   raftOffset,3
;   raftSeparationDistance,0.17
;   raftTopInfill,50
;   aboveRaftSpeedMultiplier,0.3
;   useSkirt,0
;   skirtExtruder,0
;   skirtLayers,1
;   skirtOutlines,2
;   skirtOffset,4
;   usePrimePillar,0
;   primePillarExtruder,999
;   primePillarWidth,7
;   primePillarLocation,5
;   primePillarSpeedMultiplier,1
;   useOozeShield,0
;   oozeShieldExtruder,999
;   oozeShieldOffset,3
;   oozeShieldOutlines,1
;   oozeShieldSidewallShape,1
;   oozeShieldSidewallAngle,30
;   oozeShieldSpeedMultiplier,1
;   infillExtruder,0
;   internalInfillPattern,Rectilinear
;   externalInfillPattern,Rectilinear
;   infillPercentage,100
;   outlineOverlapPercentage,40
;   infillExtrusionWidthPercentage,100
;   minInfillLength,0
;   infillLayerInterval,1
;   internalInfillAngles,0
;   overlapInternalInfillAngles,1
;   externalInfillAngles,0
;   generateSupport,1
;   supportExtruder,0
;   supportInfillPercentage,15
;   supportExtraInflation,0
;   supportBaseLayers,1
;   denseSupportExtruder,0
;   denseSupportLayers,0
;   denseSupportInfillPercentage,70
;   supportLayerInterval,1
;   supportHorizontalPartOffset,0.1
;   supportUpperSeparationLayers,0
;   supportLowerSeparationLayers,0
;   supportType,1
;   supportGridSpacing,4
;   maxOverhangAngle,25
;   supportAngles,45,-45
;   temperatureName,Right Extruder,Left Extruder
;   temperatureNumber,3,2
;   temperatureSetpointCount,1,1
;   temperatureSetpointLayers,1,1
;   temperatureSetpointTemperatures,210,0
;   temperatureStabilizeAtStartup,0,0
;   temperatureHeatedBed,0,0
;   fanLayers,1,2
;   fanSpeeds,0,100
;   blipFanToFullPower,1
;   adjustSpeedForCooling,1
;   minSpeedLayerTime,15
;   minCoolingSpeedSlowdown,20
;   increaseFanForCooling,0
;   minFanLayerTime,45
;   maxCoolingFanSpeed,100
;   increaseFanForBridging,0
;   bridgingFanSpeed,100
;   use5D,1
;   relativeEdistances,0
;   allowEaxisZeroing,1
;   independentExtruderAxes,0
;   includeM10123,0
;   stickySupport,1
;   applyToolheadOffsets,0
;   gcodeXoffset,0
;   gcodeYoffset,0
;   gcodeZoffset,0
;   overrideMachineDefinition,1
;   machineTypeOverride,0
;   strokeXoverride,450
;   strokeYoverride,450
;   strokeZoverride,600
;   originOffsetXoverride,0
;   originOffsetYoverride,0
;   originOffsetZoverride,0
;   homeXdirOverride,-1
;   homeYdirOverride,-1
;   homeZdirOverride,-1
;   flipXoverride,1
;   flipYoverride,-1
;   flipZoverride,1
;   toolheadOffsets,0,0|0,0|0,0|0,0|0,0|0,0
;   overrideFirmwareConfiguration,1
;   firmwareTypeOverride,RepRap (Marlin/Repetier/Sprinter)
;   GPXconfigOverride,r2
;   baudRateOverride,230400
;   overridePrinterModels,1
;   printerModelsOverride
;   startingGcode,G28 X0 Y0 ; Move to origin (Home),;G28 Z0 ; Move to origin (Home),;T3  ; Selecting Right Extruder,;G92 E0 ; Set position
;   layerChangeGcode,
;   retractionGcode,
;   toolChangeGcode,
;   endingGcode,M107 ; Fan off,M104 S0 T3 ; Set Right Extruder T to zero,M104 S0 T2 ; Set Left Extruder T to zero,G28 X0 Y0 ; Move to Origin (Home),;G91 ; Set to Relative Positioning,;G90 ; Set to Absolute Positioning
;   exportFileFormat,gcode
;   celebration,0
;   celebrationSong,Random Song
;   postProcessing,
;   defaultSpeed,4800
;   outlineUnderspeed,1
;   solidInfillUnderspeed,1
;   supportUnderspeed,0.8
;   rapidXYspeed,6000
;   rapidZspeed,972
;   minBridgingArea,50
;   bridgingExtraInflation,0
;   bridgingExtrusionMultiplier,1
;   bridgingSpeedMultiplier,1
;   useFixedBridgingAngle,1
;   fixedBridgingAngle,0
;   applyBridgingToPerimeters,1
;   filamentDiameters,1.75|1.75|1.75|1.75|1.75|1.75
;   filamentPricesPerKg,46|46|46|46|46|46
;   filamentDensities,1.25|1.25|1.25|1.25|1.25|1.25
;   useMinPrintHeight,0
;   minPrintHeight,1
;   useMaxPrintHeight,0
;   maxPrintHeight,28.5
;   useDiaphragm,0
;   diaphragmLayerInterval,20
;   robustSlicing,1
;   mergeAllIntoSolid,0
;   onlyRetractWhenCrossingOutline,0
;   retractBetweenLayers,1
;   useRetractionMinTravel,0
;   retractionMinTravel,3
;   retractWhileWiping,0
;   onlyWipeOutlines,1
;   avoidCrossingOutline,0
;   maxMovementDetourFactor,3
;   toolChangeRetractionDistance,12
;   toolChangeExtraRestartDistance,-0.5
;   toolChangeRetractionSpeed,600
;   externalThinWallType,0
;   internalThinWallType,1
;   thinWallAllowedOverlapPercentage,0
;   singleExtrusionMinLength,0
;   singleExtrusionMinPrintingWidthPercentage,50
;   singleExtrusionMaxPrintingWidthPercentage,200
;   singleExtrusionEndpointExtension,0.2
;   horizontalSizeCompensation,0
G90
M82
M106 S0
M104 S0 T2
M104 S210 T3
G28 X0 Y0 ; Move to origin (Home)
;G28 Z0 ; Move to origin (Home)
;T3  ; Selecting Right Extruder
;G92 E0 ; Set position
; process p1
; layer 1, Z = 0.750
T3
G92 E0.0000
G1 E-3.0000 F2400
; feature raft
; tool H0.750 W1.200
G1 X9.4893 Y3.1552 Z0.0071 I0.0000 J0.0158 K0.9999 F1000
G1 X18.9785 Y6.3106 Z-0.0356 I0.0000 J0.0315 K0.9995
G1 X28.4678 Y9.4655 Z-0.1281 I0.0000 J0.0473 K0.9989
G1 X37.9571 Y12.6190 Z-0.2703 I0.0000 J0.0631 K0.9980
G1 X47.4463 Y15.7703 Z-0.4624 I0.0000 J0.0788 K0.9969
G1 X56.9356 Y18.9188 Z-0.7041 I0.0000 J0.0945 K0.9955
G1 X66.4248 Y22.0635 Z-0.9955 I0.0000 J0.1102 K0.9939
G1 X75.9141 Y25.2038 Z-1.3366 I0.0000 J0.1259 K0.9920
G1 X85.4034 Y28.3388 Z-1.7272 I0.0000 J0.1415 K0.9899
G1 X94.8926 Y31.4677 Z-2.1673 I0.0000 J0.1571 K0.9876
G1 X104.3819 Y34.5898 Z-2.6568 I0.0000 J0.1726 K0.9850
G1 X113.8712 Y37.7043 Z-3.1955 I0.0000 J0.1882 K0.9821
G1 X123.3604 Y40.8104 Z-3.7834 I0.0000 J0.2036 K0.9790
G1 X132.8497 Y43.9074 Z-4.4204 I0.0000 J0.2190 K0.9757
G1 X142.3389 Y46.9944 Z-5.1062 I0.0000 J0.2344 K0.9721
G1 X151.8282 Y50.0706 Z-5.8408 I0.0000 J0.2497 K0.9683
G1 X161.3175 Y53.1354 Z-6.6239 I0.0000 J0.2650 K0.9643
G1 X170.8067 Y56.1880 Z-7.4554 I0.0000 J0.2801 K0.9600
G1 X180.2960 Y59.2275 Z-8.3350 I0.0000 J0.2952 K0.9554
G1 X189.7853 Y62.2533 Z-9.2627 I0.0000 J0.3103 K0.9506
G1 X199.2745 Y65.2645 Z-10.2382 I0.0000 J0.3252 K0.9456
G1 X208.7638 Y68.2605 Z-11.2611 I0.0000 J0.3401 K0.9404
G1 X218.2530 Y71.2404 Z-12.3314 I0.0000 J0.3549 K0.9349
G1 X222.6000 Y72.5999 Z-12.8375 I0.0000 J0.3616 K0.9323
G1 X9.4893 Y3.1552 Z0.0071 I0.0000 J0.0158 K0.9999 F1000
G1 X18.9785 Y6.3106 Z-0.0356 I0.0000 J0.0315 K0.9995
G1 X28.4678 Y9.4655 Z-0.1281 I0.0000 J0.0473 K0.9989
G1 X37.9571 Y12.6190 Z-0.2703 I0.0000 J0.0631 K0.9980
G1 X47.4463 Y15.7703 Z-0.4624 I0.0000 J0.0788 K0.9969
G1 X56.9356 Y18.9188 Z-0.7041 I0.0000 J0.0945 K0.9955
G1 X66.4248 Y22.0635 Z-0.9955 I0.0000 J0.1102 K0.9939
G1 X75.9141 Y25.2038 Z-1.3366 I0.0000 J0.1259 K0.9920
G1 X85.4034 Y28.3388 Z-1.7272 I0.0000 J0.1415 K0.9899
G1 X94.8926 Y31.4677 Z-2.1673 I0.0000 J0.1571 K0.9876
G1 X104.3819 Y34.5898 Z-2.6568 I0.0000 J0.1726 K0.9850
G1 X113.8712 Y37.7043 Z-3.1955 I0.0000 J0.1882 K0.9821
G1 X123.3604 Y40.8104 Z-3.7834 I0.0000 J0.2036 K0.9790
G1 X132.8497 Y43.9074 Z-4.4204 I0.0000 J0.2190 K0.9757
G1 X142.3389 Y46.9944 Z-5.1062 I0.0000 J0.2344 K0.9721
G1 X151.8282 Y50.0706 Z-5.8408 I0.0000 J0.2497 K0.9683
G1 X161.3175 Y53.1354 Z-6.6239 I0.0000 J0.2650 K0.9643
G1 X170.8067 Y56.1880 Z-7.4554 I0.0000 J0.2801 K0.9600
G1 X180.2960 Y59.2275 Z-8.3350 I0.0000 J0.2952 K0.9554
G1 X189.7853 Y62.2533 Z-9.2627 I0.0000 J0.3103 K0.9506
G1 X199.2745 Y65.2645 Z-10.2382 I0.0000 J0.3252 K0.9456
G1 X208.7638 Y68.2605 Z-11.2611 I0.0000 J0.3401 K0.9404
G1 X218.2530 Y71.2404 Z-12.3314 I0.0000 J0.3549 K0.9349
G1 X222.6000 Y72.5999 Z-12.8375 I0.0000 J0.3616 K0.9323
G1 E0.0000 F2400
G92 E0.0000
G1 X224.0060 Y71.2824 Z-12.3317 I0.0000 J0.3551 K0.9348 E0.7080 F600
G1 X228.1730 Y71.2824 Z-12.3317 I0.0000 J0.3551 K0.9348 E2.1891
G1 X228.3930 Y71.0759 Z-12.2534 I0.0000 J0.3541 K0.9352 E2.2999
G1 X238.3930 Y71.0759 Z-12.2534 I0.0000 J0.3541 K0.9352 E5.8547
G1 X246.8210 Y71.0759 Z-12.2534 I0.0000 J0.3541 K0.9352 E8.8506
G1 X248.2270 Y72.3940 Z-12.7577 I0.0000 J0.3606 K0.9327 E9.5587
G1 X248.2270 Y81.6617 Z-16.6099 I0.0000 J0.4068 K0.9135 E13.1263
G1 X248.2270 Y90.7254 Z-20.9205 I0.0000 J0.4519 K0.8921 E16.6939
G1 X248.2270 Y99.5622 Z-25.6787 I0.0000 J0.4960 K0.8684 E20.2616
G1 X248.2270 Y108.1502 Z-30.8726 I0.0000 J0.5387 K0.8425 E23.8292
G1 X248.2270 Y116.4679 Z-36.4892 I0.0000 J0.5802 K0.8145 E27.3969
G1 X248.2270 Y124.4945 Z-42.5145 I0.0000 J0.6201 K0.7845 E30.9645
G1 X248.2270 Y132.2099 Z-48.9334 I0.0000 J0.6586 K0.7525 E34.5321
G1 X248.2270 Y139.5949 Z-55.7300 I0.0000 J0.6954 K0.7187 E38.0998
G1 X248.2270 Y146.6309 Z-62.8871 I0.0000 J0.7304 K0.6830 E41.6674
G1 X248.2270 Y153.3004 Z-70.3870 I0.0000 J0.7636 K0.6456 E45.2351
G1 X248.2270 Y159.5868 Z-78.2108 I0.0000 J0.7950 K0.6067 E48.8027
G1 X248.2270 Y165.4743 Z-86.3390 I0.0000 J0.8243 K0.5662 E52.3703
G1 X248.2270 Y170.9482 Z-94.7513 I0.0000 J0.8515 K0.5243 E55.9380
G1 X248.2270 Y175.9948 Z-103.4267 I0.0000 J0.8767 K0.4811 E59.5056
G1 X248.2270 Y180.6015 Z-112.3435 I0.0000 J0.8996 K0.4366 E63.0732
G1 X248.2270 Y184.7568 Z-121.4793 I0.0000 J0.9203 K0.3911 E66.6409
G1 X248.2270 Y188.4503 Z-130.8114 I0.0000 J0.9387 K0.3447 E70.2085
G1 X248.2270 Y191.6727 Z-140.3165 I0.0000 J0.9548 K0.2973 E73.7762
G1 X248.2270 Y194.4161 Z-149.9707 I0.0000 J0.9684 K0.2492 E77.3438
G1 X248.2270 Y196.6736 Z-159.7500 I0.0000 J0.9797 K0.2005 E80.9114
G1 X248.2270 Y198.4395 Z-169.6299 I0.0000 J0.9885 K0.1513 E84.4791
G1 X248.2270 Y199.7093 Z-179.5857 I0.0000 J0.9948 K0.1017 E88.0467
G1 X248.2270 Y200.4800 Z-189.5925 I0.0000 J0.9987 K0.0518 E91.6144
G1 X248.2270 Y200.7497 Z-199.6253 I0.0000 J1.0000 K0.0019 E95.1820
G1 X248.2270 Y-200.5175 Z-190.3409 I0.0000 J-0.9988 K0.0481 E237.8578
G1 X248.2270 Y-199.7841 Z-180.3313 I0.0000 J-0.9952 K0.0980 E241.4255
G1 X248.2270 Y-198.5514 Z-170.3708 I0.0000 J-0.9890 K0.1476 E244.9931
G1 X248.2270 Y-196.8225 Z-160.4844 I0.0000 J-0.9804 K0.1968 E248.5608
G1 X248.2270 Y-194.6015 Z-150.6968 I0.0000 J-0.9694 K0.2456 E252.1284
G1 X248.2270 Y-191.8942 Z-141.0324 I0.0000 J-0.9559 K0.2937 E255.6960
G1 X248.2270 Y-191.1642 Z-138.7072 I0.0000 J-0.9523 K0.3053 E256.5623
G1 X246.8210 Y-190.7286 Z-137.3648 I0.0000 J-0.9501 K0.3120 E257.2704
G1 X236.8210 Y-190.7286 Z-137.3648 I0.0000 J-0.9501 K0.3120 E260.8251
G1 X228.3930 Y-190.7286 Z-137.3648 I0.0000 J-0.9501 K0.3120 E263.8211
G1 X228.1730 Y-190.7974 Z-137.5746 I0.0000 J-0.9504 K0.3110 E263.9319
G1 X224.0060 Y-190.7974 Z-137.5746 I0.0000 J-0.9504 K0.3110 E265.4130
G1 X222.6000 Y-191.2315 Z-138.9175 I0.0000 J-0.9526 K0.3043 E266.1210
G1 X222.6000 Y-194.0454 Z-148.5514 I0.0000 J-0.9666 K0.2563 E269.6886
G1 X222.6000 Y-196.3742 Z-158.3139 I0.0000 J-0.9782 K0.2077 E273.2563
G1 X222.6000 Y-198.2122 Z-168.1806 I0.0000 J-0.9874 K0.1585 E276.8239
G1 X222.6000 Y-199.5548 Z-178.1269 I0.0000 J-0.9940 K0.1090 E280.3916
G1 X222.6000 Y-200.3986 Z-188.1278 I0.0000 J-0.9982 K0.0591 E283.9592
G1 X222.6000 Y-200.7416 Z-198.1584 I0.0000 J-1.0000 K0.0092 E287.5268
G1 X222.6000 Y200.5827 Z-191.8064 I0.0000 J0.9992 K0.0408 E430.2027
G1 X222.6000 Y199.9225 Z-181.7917 I0.0000 J0.9959 K0.0907 E433.7703
G1 X222.6000 Y198.7626 Z-171.8225 I0.0000 J0.9901 K0.1404 E437.3379
G1 X222.6000 Y197.1060 Z-161.9237 I0.0000 J0.9818 K0.1897 E440.9056
G1 X222.6000 Y194.9566 Z-152.1201 I0.0000 J0.9711 K0.2385 E444.4732
G1 X222.6000 Y192.3200 Z-142.4362 I0.0000 J0.9580 K0.2867 E448.0409
G1 X222.6000 Y189.2026 Z-132.8961 I0.0000 J0.9425 K0.3343 E451.6085
G1 X222.6000 Y185.6124 Z-123.5238 I0.0000 J0.9246 K0.3810 E455.1761
G1 X222.6000 Y181.5582 Z-114.3426 I0.0000 J0.9044 K0.4267 E458.7438
G1 X222.6000 Y177.0502 Z-105.3755 I0.0000 J0.8819 K0.4714 E462.3114
G1 X222.6000 Y172.0997 Z-96.6450 I0.0000 J0.8573 K0.5148 E465.8791
G1 X222.6000 Y166.7190 Z-88.1727 I0.0000 J0.8305 K0.5570 E469.4467
G1 X222.6000 Y160.9216 Z-79.9800 I0.0000 J0.8016 K0.5979 E473.0143
G1 X222.6000 Y154.7220 Z-72.0873 I0.0000 J0.7707 K0.6372 E476.5820
G1 X222.6000 Y148.1357 Z-64.5142 I0.0000 J0.7379 K0.6749 E480.1496
G1 X222.6000 Y141.1791 Z-57.2799 I0.0000 J0.7033 K0.7109 E483.7173
G1 X222.6000 Y133.8696 Z-50.4022 I0.0000 J0.6668 K0.7452 E487.2849
G1 X222.6000 Y126.2255 Z-43.8985 I0.0000 J0.6288 K0.7776 E490.8525
G1 X222.6000 Y118.2659 Z-37.7849 I0.0000 J0.5891 K0.8080 E494.4202
G1 X222.6000 Y110.0108 Z-32.0768 I0.0000 J0.5480 K0.8365 E497.9878
G1 X222.6000 Y101.4806 Z-26.7884 I0.0000 J0.5055 K0.8628 E501.5555
G1 X222.6000 Y92.6968 Z-21.9330 I0.0000 J0.4618 K0.8870 E505.1231
G1 X222.6000 Y83.6813 Z-17.5226 I0.0000 J0.4168 K0.9090 E508.6907
G1 X222.6000 Y74.4567 Z-13.5683 I0.0000 J0.3709 K0.9287 E512.2584
G1 X222.6000 Y72.7870 Z-12.9102 I0.0000 J0.3626 K0.9320 E512.8963
G1 X222.6000 Y72.5999 Z-12.8375 I0.0000 J0.3616 K0.9323 F600
G92 E0.0000
G1 E-3.0000 F2400
G1 X223.4810 Y72.7281 Z-12.8872 I0.0000 J0.3623 K0.9321 F6000
G1 E0.0000 F2400
G92 E0.0000
G1 X233.4810 Y72.7281 Z-12.8872 I0.0000 J0.3623 K0.9321 E3.5546 F600
G1 X243.4810 Y72.7281 Z-12.8872 I0.0000 J0.3623 K0.9321 E7.1091
G1 X247.5070 Y72.7281 Z-12.8872 I0.0000 J0.3623 K0.9321 E8.5402
G1 X247.5070 Y75.9244 Z-14.1612 I0.0000 J0.3782 K0.9257 E9.7636
G1 X237.5070 Y75.9244 Z-14.1612 I0.0000 J0.3782 K0.9257 E13.3182
G1 X227.5070 Y75.9244 Z-14.1612 I0.0000 J0.3782 K0.9257 E16.8728
G1 X223.3200 Y75.9244 Z-14.1612 I0.0000 J0.3782 K0.9257 E18.3612
G1 X223.3200 Y79.0993 Z-15.4902 I0.0000 J0.3940 K0.9191 E19.5844
G1 X233.3200 Y79.0993 Z-15.4902 I0.0000 J0.3940 K0.9191 E23.1390
G1 X243.3200 Y79.0993 Z-15.4902 I0.0000 J0.3940 K0.9191 E26.6937
G1 X247.5070 Y79.0993 Z-15.4902 I0.0000 J0.3940 K0.9191 E28.1820
G1 X247.5070 Y82.2509 Z-16.8734 I0.0000 J0.4097 K0.9122 E29.4053
G1 X237.5070 Y82.2509 Z-16.8734 I0.0000 J0.4097 K0.9122 E32.9599
G1 X227.5070 Y82.2509 Z-16.8734 I0.0000 J0.4097 K0.9122 E36.5145
G1 X223.3200 Y82.2509 Z-16.8734 I0.0000 J0.4097 K0.9122 E38.0029
G1 X223.3200 Y85.3775 Z-18.3100 I0.0000 J0.4253 K0.9051 E39.2261
G1 X233.3200 Y85.3775 Z-18.3100 I0.0000 J0.4253 K0.9051 E42.7808
G1 X243.3200 Y85.3775 Z-18.3100 I0.0000 J0.4253 K0.9051 E46.3354
G1 X247.5070 Y85.3775 Z-18.3100 I0.0000 J0.4253 K0.9051 E47.8237
G1 X247.5070 Y88.4798 Z-19.8004 I0.0000 J0.4407 K0.8976 E49.0470
G1 X237.5070 Y88.4798 Z-19.8004 I0.0000 J0.4407 K0.8976 E52.6016
G1 X227.5070 Y88.4798 Z-19.8004 I0.0000 J0.4407 K0.8976 E56.1562
G1 X223.3200 Y88.4798 Z-19.8004 I0.0000 J0.4407 K0.8976 E57.6446
G1 X223.3200 Y91.5553 Z-21.3434 I0.0000 J0.4561 K0.8899 E58.8678
G1 X233.3200 Y91.5553 Z-21.3434 I0.0000 J0.4561 K0.8899 E62.4225
G1 X243.3200 Y91.5553 Z-21.3434 I0.0000 J0.4561 K0.8899 E65.9771
G1 X247.5070 Y91.5553 Z-21.3434 I0.0000 J0.4561 K0.8899 E67.4654
G1 X247.5070 Y94.6048 Z-22.9393 I0.0000 J0.4713 K0.8820 E68.6887
G1 X237.5070 Y94.6048 Z-22.9393 I0.0000 J0.4713 K0.8820 E72.2433
G1 X227.5070 Y94.6048 Z-22.9393 I0.0000 J0.4713 K0.8820 E75.7980
G1 X223.3200 Y94.6048 Z-22.9393 I0.0000 J0.4713 K0.8820 E77.2863
G1 X223.3200 Y97.6255 Z-24.5867 I0.0000 J0.4863 K0.8738 E78.5096
G1 X233.3200 Y97.6255 Z-24.5867 I0.0000 J0.4863 K0.8738 E82.0642
G1 X243.3200 Y97.6255 Z-24.5867 I0.0000 J0.4863 K0.8738 E85.6188
