; G-Code generated by Simplify3D(R) Version 4.1.2
; Aug 25, 2020 at 10:41:27 PM
; Settings Summary
;   processName,p1
;   applyToModels,p1
;   profileName,Fanuc (modified)
;   profileVersion,2020-08-25 22:15:11
;   baseProfile,Raise3D Pro2
;   printMaterial,PLA
;   printQuality,High
;   printExtruders,Right Extruder Only
;   extruderName,Right Extruder,Left Extruder
;   extruderToolheadNumber,3,2
;   extruderDiameter,0.6,0.4
;   extruderAutoWidth,1,0
;   extruderWidth,0.72,0.4
;   extrusionMultiplier,0.95,0.9
;   extruderUseRetract,1,1
;   extruderRetractionDistance,3,3
;   extruderExtraRestartDistance,0,0
;   extruderRetractionZLift,0,0
;   extruderRetractionSpeed,2400,2400
;   extruderUseCoasting,1,1
;   extruderCoastingDistance,0.2,0.2
;   extruderUseWipe,0,0
;   extruderWipeDistance,5,5
;   primaryExtruder,0
;   layerHeight,0.4
;   topSolidLayers,2
;   bottomSolidLayers,2
;   perimeterOutlines,1000
;   printPerimetersInsideOut,0
;   startPointOption,2
;   startPointOriginX,0
;   startPointOriginY,0
;   sequentialIslands,0
;   spiralVaseMode,0
;   firstLayerHeightPercentage,100
;   firstLayerWidthPercentage,100
;   firstLayerUnderspeed,0.5
;   useRaft,1
;   raftExtruder,0
;   raftTopLayers,2
;   raftBaseLayers,2
;   raftOffset,3
;   raftSeparationDistance,0.17
;   raftTopInfill,50
;   aboveRaftSpeedMultiplier,0.3
;   useSkirt,0
;   skirtExtruder,0
;   skirtLayers,1
;   skirtOutlines,2
;   skirtOffset,4
;   usePrimePillar,0
;   primePillarExtruder,999
;   primePillarWidth,7
;   primePillarLocation,5
;   primePillarSpeedMultiplier,1
;   useOozeShield,0
;   oozeShieldExtruder,999
;   oozeShieldOffset,3
;   oozeShieldOutlines,1
;   oozeShieldSidewallShape,1
;   oozeShieldSidewallAngle,30
;   oozeShieldSpeedMultiplier,1
;   infillExtruder,0
;   internalInfillPattern,Rectilinear
;   externalInfillPattern,Rectilinear
;   infillPercentage,100
;   outlineOverlapPercentage,40
;   infillExtrusionWidthPercentage,100
;   minInfillLength,0
;   infillLayerInterval,1
;   internalInfillAngles,0
;   overlapInternalInfillAngles,1
;   externalInfillAngles,0
;   generateSupport,1
;   supportExtruder,0
;   supportInfillPercentage,15
;   supportExtraInflation,0
;   supportBaseLayers,1
;   denseSupportExtruder,0
;   denseSupportLayers,0
;   denseSupportInfillPercentage,70
;   supportLayerInterval,1
;   supportHorizontalPartOffset,0.1
;   supportUpperSeparationLayers,0
;   supportLowerSeparationLayers,0
;   supportType,1
;   supportGridSpacing,4
;   maxOverhangAngle,25
;   supportAngles,45,-45
;   temperatureName,Right Extruder,Left Extruder
;   temperatureNumber,3,2
;   temperatureSetpointCount,1,1
;   temperatureSetpointLayers,1,1
;   temperatureSetpointTemperatures,210,0
;   temperatureStabilizeAtStartup,0,0
;   temperatureHeatedBed,0,0
;   fanLayers,1,2
;   fanSpeeds,0,100
;   blipFanToFullPower,1
;   adjustSpeedForCooling,1
;   minSpeedLayerTime,15
;   minCoolingSpeedSlowdown,20
;   increaseFanForCooling,0
;   minFanLayerTime,45
;   maxCoolingFanSpeed,100
;   increaseFanForBridging,0
;   bridgingFanSpeed,100
;   use5D,1
;   relativeEdistances,0
;   allowEaxisZeroing,1
;   independentExtruderAxes,0
;   includeM10123,0
;   stickySupport,1
;   applyToolheadOffsets,0
;   gcodeXoffset,0
;   gcodeYoffset,0
;   gcodeZoffset,0
;   overrideMachineDefinition,1
;   machineTypeOverride,0
;   strokeXoverride,450
;   strokeYoverride,450
;   strokeZoverride,600
;   originOffsetXoverride,0
;   originOffsetYoverride,0
;   originOffsetZoverride,0
;   homeXdirOverride,-1
;   homeYdirOverride,-1
;   homeZdirOverride,-1
;   flipXoverride,1
;   flipYoverride,-1
;   flipZoverride,1
;   toolheadOffsets,0,0|0,0|0,0|0,0|0,0|0,0
;   overrideFirmwareConfiguration,1
;   firmwareTypeOverride,RepRap (Marlin/Repetier/Sprinter)
;   GPXconfigOverride,r2
;   baudRateOverride,230400
;   overridePrinterModels,1
;   printerModelsOverride
;   startingGcode,G28 X0 Y0 ; Move to origin (Home),;G28 Z0 ; Move to origin (Home),;T3  ; Selecting Right Extruder,;G92 E0 ; Set position
;   layerChangeGcode,
;   retractionGcode,
;   toolChangeGcode,
;   endingGcode,M107 ; Fan off,M104 S0 T3 ; Set Right Extruder T to zero,M104 S0 T2 ; Set Left Extruder T to zero,G28 X0 Y0 ; Move to Origin (Home),;G91 ; Set to Relative Positioning,;G90 ; Set to Absolute Positioning
;   exportFileFormat,gcode
;   celebration,0
;   celebrationSong,Random Song
;   postProcessing,
;   defaultSpeed,4800
;   outlineUnderspeed,1
;   solidInfillUnderspeed,1
;   supportUnderspeed,0.8
;   rapidXYspeed,6000
;   rapidZspeed,972
;   minBridgingArea,50
;   bridgingExtraInflation,0
;   bridgingExtrusionMultiplier,1
;   bridgingSpeedMultiplier,1
;   useFixedBridgingAngle,1
;   fixedBridgingAngle,0
;   applyBridgingToPerimeters,1
;   filamentDiameters,1.75|1.75|1.75|1.75|1.75|1.75
;   filamentPricesPerKg,46|46|46|46|46|46
;   filamentDensities,1.25|1.25|1.25|1.25|1.25|1.25
;   useMinPrintHeight,0
;   minPrintHeight,1
;   useMaxPrintHeight,0
;   maxPrintHeight,28.5
;   useDiaphragm,0
;   diaphragmLayerInterval,20
;   robustSlicing,1
;   mergeAllIntoSolid,0
;   onlyRetractWhenCrossingOutline,0
;   retractBetweenLayers,1
;   useRetractionMinTravel,0
;   retractionMinTravel,3
;   retractWhileWiping,0
;   onlyWipeOutlines,1
;   avoidCrossingOutline,0
;   maxMovementDetourFactor,3
;   toolChangeRetractionDistance,12
;   toolChangeExtraRestartDistance,-0.5
;   toolChangeRetractionSpeed,600
;   externalThinWallType,0
;   internalThinWallType,1
;   thinWallAllowedOverlapPercentage,0
;   singleExtrusionMinLength,0
;   singleExtrusionMinPrintingWidthPercentage,50
;   singleExtrusionMaxPrintingWidthPercentage,200
;   singleExtrusionEndpointExtension,0.2
;   horizontalSizeCompensation,0
G90
M82
M106 S0
M104 S0 T2
M104 S210 T3
G28 X0 Y0 ; Move to origin (Home)
;G28 Z0 ; Move to origin (Home)
;T3  ; Selecting Right Extruder
;G92 E0 ; Set position
; process p1
; layer 1, Z = 0.750
T3
G92 E0.0000
G1 E-3.0000 F2400
; feature raft
; tool H0.750 W1.200
G1 X28.4678 Y11.5416 Z25.7787 I0.0000 J0.2372 K0.9715 F1000
G1 X56.9356 Y20.7683 Z23.6758 I0.0000 J0.2270 K0.9739
G1 X85.4034 Y30.0157 Z21.6702 I0.0000 J0.2167 K0.9762
G1 X113.8712 Y39.2827 Z19.7622 I0.0000 J0.2064 K0.9785
G1 X142.3389 Y48.5682 Z17.9519 I0.0000 J0.1961 K0.9806
G1 X170.8067 Y57.8713 Z16.2396 I0.0000 J0.1858 K0.9826
G1 X199.2745 Y67.1909 Z14.6254 I0.0000 J0.1755 K0.9845
G1 X222.6000 Y74.8386 Z13.3760 I0.0000 J0.1670 K0.9860
G1 X28.4678 Y11.5416 Z25.7787 I0.0000 J0.2372 K0.9715 F1000
G1 X56.9356 Y20.7683 Z23.6758 I0.0000 J0.2270 K0.9739
G1 X85.4034 Y30.0157 Z21.6702 I0.0000 J0.2167 K0.9762
G1 X113.8712 Y39.2827 Z19.7622 I0.0000 J0.2064 K0.9785
G1 X142.3389 Y48.5682 Z17.9519 I0.0000 J0.1961 K0.9806
G1 X170.8067 Y57.8713 Z16.2396 I0.0000 J0.1858 K0.9826
G1 X199.2745 Y67.1909 Z14.6254 I0.0000 J0.1755 K0.9845
G1 X222.6000 Y74.8386 Z13.3760 I0.0000 J0.1670 K0.9860
G1 E0.0000 F2400
G92 E0.0000
G1 X224.0060 Y73.4537 Z13.6117 I0.0000 J0.1685 K0.9857 E0.7064 F600
G1 X228.1730 Y73.4537 Z13.6117 I0.0000 J0.1685 K0.9857 E2.1875
G1 X228.3930 Y73.2370 Z13.6487 I0.0000 J0.1688 K0.9857 E2.2981
G1 X246.8210 Y73.2370 Z13.6487 I0.0000 J0.1688 K0.9857 E8.8488
G1 X248.2270 Y74.6219 Z13.4127 I0.0000 J0.1672 K0.9859 E9.5552
G1 X248.2270 Y104.2528 Z8.8936 I0.0000 J0.1343 K0.9909 E20.2098
G1 X248.2270 Y134.0180 Z5.3644 I0.0000 J0.1012 K0.9949 E30.8645
G1 X248.2270 Y163.8842 Z2.8292 I0.0000 J0.0680 K0.9977 E41.5192
G1 X248.2270 Y193.8183 Z1.2908 I0.0000 J0.0347 K0.9994 E52.1738
G1 X248.2270 Y223.7870 Z0.7508 I0.0000 J0.0013 K1.0000 E62.8285
G1 X248.2270 Y253.7571 Z1.2099 I0.0000 J-0.0320 K0.9995 E73.4831
G1 X248.2270 Y283.6953 Z2.6676 I0.0000 J-0.0653 K0.9979 E84.1378
G1 X248.2270 Y313.5682 Z5.1222 I0.0000 J-0.0985 K0.9951 E94.7925
G1 X248.2270 Y343.3427 Z8.5711 I0.0000 J-0.1316 K0.9913 E105.4471
G1 X248.2270 Y372.9858 Z13.0103 I0.0000 J-0.1646 K0.9864 E116.1018
G1 X248.2270 Y375.3781 Z13.4127 I0.0000 J-0.1672 K0.9859 E116.9641
G1 X246.8210 Y376.7630 Z13.6487 I0.0000 J-0.1688 K0.9857 E117.6706
G1 X228.3930 Y376.7630 Z13.6487 I0.0000 J-0.1688 K0.9857 E124.2213
G1 X228.1730 Y376.5463 Z13.6117 I0.0000 J-0.1685 K0.9857 E124.3318
G1 X224.0060 Y376.5463 Z13.6117 I0.0000 J-0.1685 K0.9857 E125.8129
G1 X222.6000 Y375.1614 Z13.3760 I0.0000 J-0.1670 K0.9860 E126.5193
G1 X222.6000 Y345.5293 Z8.8641 I0.0000 J-0.1340 K0.9910 E137.1740
G1 X222.6000 Y315.7634 Z5.3422 I0.0000 J-0.1009 K0.9949 E147.8286
G1 X222.6000 Y285.8965 Z2.8143 I0.0000 J-0.0677 K0.9977 E158.4833
G1 X222.6000 Y255.9621 Z1.2832 I0.0000 J-0.0344 K0.9994 E169.1380
G1 X222.6000 Y225.9932 Z0.7505 I0.0000 J-0.0011 K1.0000 E179.7926
G1 X222.6000 Y196.0232 Z1.2170 I0.0000 J0.0322 K0.9995 E190.4473
G1 X222.6000 Y166.0854 Z2.6820 I0.0000 J0.0655 K0.9979 E201.1019
G1 X222.6000 Y136.2131 Z5.1439 I0.0000 J0.0987 K0.9951 E211.7566
G1 X222.6000 Y106.4394 Z8.6000 I0.0000 J0.1318 K0.9913 E222.4113
G1 X222.6000 Y76.7974 Z13.0465 I0.0000 J0.1648 K0.9863 E233.0659
G1 X222.6000 Y75.0356 Z13.3427 I0.0000 J0.1668 K0.9860 E233.7010
G1 X222.6000 Y74.8386 Z13.3760 I0.0000 J0.1670 K0.9860 F600
G92 E0.0000
G1 E-3.0000 F2400
G1 X223.4810 Y74.9735 Z13.3532 I0.0000 J0.1668 K0.9860 F6000
G1 E0.0000 F2400
G92 E0.0000
G1 X247.5070 Y74.9735 Z13.3532 I0.0000 J0.1668 K0.9860 E8.5402 F600
G1 X247.5070 Y78.3518 Z12.7882 I0.0000 J0.1631 K0.9866 E9.7580
G1 X223.3200 Y78.3518 Z12.7882 I0.0000 J0.1631 K0.9866 E18.3556
G1 X223.3200 Y81.7331 Z12.2359 I0.0000 J0.1593 K0.9872 E19.5733
G1 X247.5070 Y81.7331 Z12.2359 I0.0000 J0.1593 K0.9872 E28.1709
G1 X247.5070 Y85.1165 Z11.6965 I0.0000 J0.1556 K0.9878 E29.3886
G1 X223.3200 Y85.1165 Z11.6965 I0.0000 J0.1556 K0.9878 E37.9862
G1 X223.3200 Y88.5010 Z11.1701 I0.0000 J0.1518 K0.9884 E39.2038
G1 X247.5070 Y88.5010 Z11.1701 I0.0000 J0.1518 K0.9884 E47.8014
G1 X247.5070 Y91.8884 Z10.6565 I0.0000 J0.1480 K0.9890 E49.0191
G1 X223.3200 Y91.8884 Z10.6565 I0.0000 J0.1480 K0.9890 E57.6167
G1 X223.3200 Y95.2768 Z10.1559 I0.0000 J0.1443 K0.9895 E58.8344
G1 X247.5070 Y95.2768 Z10.1559 I0.0000 J0.1443 K0.9895 E67.4320
G1 X247.5070 Y98.6680 Z9.6682 I0.0000 J0.1405 K0.9901 E68.6497
G1 X223.3200 Y98.6680 Z9.6682 I0.0000 J0.1405 K0.9901 E77.2473
G1 X223.3200 Y102.0601 Z9.1934 I0.0000 J0.1367 K0.9906 E78.4651
G1 X247.5070 Y102.0601 Z9.1934 I0.0000 J0.1367 K0.9906 E87.0626
G1 X247.5070 Y105.4549 Z8.7315 I0.0000 J0.1329 K0.9911 E88.2804
G1 X223.3200 Y105.4549 Z8.7315 I0.0000 J0.1329 K0.9911 E96.8779
G1 X223.3200 Y108.8515 Z8.2825 I0.0000 J0.1292 K0.9916 E98.0956
G1 X247.5070 Y108.8515 Z8.2825 I0.0000 J0.1292 K0.9916 E106.6931
G1 X247.5070 Y112.2488 Z7.8466 I0.0000 J0.1254 K0.9921 E107.9109
G1 X223.3200 Y112.2488 Z7.8466 I0.0000 J0.1254 K0.9921 E116.5084
G1 X223.3200 Y115.6487 Z7.4235 I0.0000 J0.1216 K0.9926 E117.7262
G1 X247.5070 Y115.6487 Z7.4235 I0.0000 J0.1216 K0.9926 E126.3237
G1 X247.5070 Y119.0492 Z7.0134 I0.0000 J0.1178 K0.9930 E127.5415
G1 X223.3200 Y119.0492 Z7.0134 I0.0000 J0.1178 K0.9930 E136.1391
G1 X223.3200 Y122.4523 Z6.6162 I0.0000 J0.1140 K0.9935 E137.3568
G1 X247.5070 Y122.4523 Z6.6162 I0.0000 J0.1140 K0.9935 E145.9544
G1 X247.5070 Y125.8558 Z6.2321 I0.0000 J0.1103 K0.9939 E147.1721
G1 X223.3200 Y125.8558 Z6.2321 I0.0000 J0.1103 K0.9939 E155.7697
G1 X223.3200 Y129.2618 Z5.8609 I0.0000 J0.1065 K0.9943 E156.9873
G1 X247.5070 Y129.2618 Z5.8609 I0.0000 J0.1065 K0.9943 E165.5849
G1 X247.5070 Y132.6691 Z5.5026 I0.0000 J0.1027 K0.9947 E166.8026
G1 X223.3200 Y132.6691 Z5.5026 I0.0000 J0.1027 K0.9947 E175.4002
G1 X223.3200 Y136.0768 Z5.1574 I0.0000 J0.0989 K0.9951 E176.6179
G1 X247.5070 Y136.0768 Z5.1574 I0.0000 J0.0989 K0.9951 E185.2155
G1 X247.5070 Y139.4868 Z4.8251 I0.0000 J0.0951 K0.9955 E186.4332
G1 X223.3200 Y139.4868 Z4.8251 I0.0000 J0.0951 K0.9955 E195.0308
G1 X223.3200 Y142.8971 Z4.5059 I0.0000 J0.0913 K0.9958 E196.2486
G1 X247.5070 Y142.8971 Z4.5059 I0.0000 J0.0913 K0.9958 E204.8461
G1 X247.5070 Y146.3095 Z4.1996 I0.0000 J0.0875 K0.9962 E206.0639
G1 X223.3200 Y146.3095 Z4.1996 I0.0000 J0.0875 K0.9962 E214.6614
G1 X223.3200 Y149.7221 Z3.9064 I0.0000 J0.0837 K0.9965 E215.8791
G1 X247.5070 Y149.7221 Z3.9064 I0.0000 J0.0837 K0.9965 E224.4766
G1 X247.5070 Y153.1367 Z3.6261 I0.0000 J0.0799 K0.9968 E225.6944
G1 X223.3200 Y153.1367 Z3.6261 I0.0000 J0.0799 K0.9968 E234.2919
G1 X223.3200 Y156.5524 Z3.3588 I0.0000 J0.0761 K0.9971 E235.5097
G1 X247.5070 Y156.5524 Z3.3588 I0.0000 J0.0761 K0.9971 E244.1072
G1 X247.5070 Y159.9681 Z3.1046 I0.0000 J0.0723 K0.9974 E245.3250
G1 X223.3200 Y159.9681 Z3.1046 I0.0000 J0.0723 K0.9974 E253.9226
G1 X223.3200 Y163.3857 Z2.8633 I0.0000 J0.0685 K0.9976 E255.1403
G1 X247.5070 Y163.3857 Z2.8633 I0.0000 J0.0685 K0.9976 E263.7379
G1 X247.5070 Y166.8033 Z2.6351 I0.0000 J0.0647 K0.9979 E264.9556
G1 X223.3200 Y166.8033 Z2.6351 I0.0000 J0.0647 K0.9979 E273.5532
G1 X223.3200 Y170.2226 Z2.4199 I0.0000 J0.0609 K0.9981 E274.7708
G1 X247.5070 Y170.2226 Z2.4199 I0.0000 J0.0609 K0.9981 E283.3684
G1 X247.5070 Y173.6418 Z2.2178 I0.0000 J0.0571 K0.9984 E284.5861
G1 X223.3200 Y173.6418 Z2.2178 I0.0000 J0.0571 K0.9984 E293.1837
G1 X223.3200 Y177.0627 Z2.0286 I0.0000 J0.0533 K0.9986 E294.4014
G1 X247.5070 Y177.0627 Z2.0286 I0.0000 J0.0533 K0.9986 E302.9990
G1 X247.5070 Y180.4843 Z1.8525 I0.0000 J0.0495 K0.9988 E304.2167
G1 X223.3200 Y180.4843 Z1.8525 I0.0000 J0.0495 K0.9988 E312.8143
G1 X223.3200 Y183.9056 Z1.6895 I0.0000 J0.0457 K0.9990 E314.0321
G1 X247.5070 Y183.9056 Z1.6895 I0.0000 J0.0457 K0.9990 E322.6296
G1 X247.5070 Y187.3285 Z1.5394 I0.0000 J0.0419 K0.9991 E323.8474
G1 X223.3200 Y187.3285 Z1.5394 I0.0000 J0.0419 K0.9991 E332.4449
G1 X223.3200 Y190.7509 Z1.4024 I0.0000 J0.0381 K0.9993 E333.6626
G1 X247.5070 Y190.7509 Z1.4024 I0.0000 J0.0381 K0.9993 E342.2601
G1 X247.5070 Y194.1748 Z1.2785 I0.0000 J0.0343 K0.9994 E343.4779
G1 X223.3200 Y194.1748 Z1.2785 I0.0000 J0.0343 K0.9994 E352.0754
G1 X223.3200 Y197.5981 Z1.1676 I0.0000 J0.0305 K0.9995 E353.2932
G1 X247.5070 Y197.5981 Z1.1676 I0.0000 J0.0305 K0.9995 E361.8907
G1 X247.5070 Y201.0228 Z1.0697 I0.0000 J0.0267 K0.9996 E363.1085
G1 X223.3200 Y201.0228 Z1.0697 I0.0000 J0.0267 K0.9996 E371.7061
G1 X223.3200 Y204.4479 Z0.9849 I0.0000 J0.0229 K0.9997 E372.9238
G1 X247.5070 Y204.4479 Z0.9849 I0.0000 J0.0229 K0.9997 E381.5214
G1 X247.5070 Y207.8723 Z0.9131 I0.0000 J0.0190 K0.9998 E382.7391
G1 X223.3200 Y207.8723 Z0.9131 I0.0000 J0.0190 K0.9998 E391.3367
G1 X223.3200 Y211.2980 Z0.8544 I0.0000 J0.0152 K0.9999 E392.5543
G1 X247.5070 Y211.2980 Z0.8544 I0.0000 J0.0152 K0.9999 E401.1519
G1 X247.5070 Y214.7228 Z0.8087 I0.0000 J0.0114 K0.9999 E402.3696
G1 X223.3200 Y214.7228 Z0.8087 I0.0000 J0.0114 K0.9999 E410.9672
G1 X223.3200 Y218.1488 Z0.7761 I0.0000 J0.0076 K1.0000 E412.1849
G1 X247.5070 Y218.1488 Z0.7761 I0.0000 J0.0076 K1.0000 E420.7825
G1 X247.5070 Y221.5739 Z0.7565 I0.0000 J0.0038 K1.0000 E422.0002
G1 X223.3200 Y221.5739 Z0.7565 I0.0000 J0.0038 K1.0000 E430.5978
G1 X223.3200 Y225.0000 Z0.7500 I0.0000 J0.0000 K1.0000 E431.8156
G1 X247.5070 Y225.0000 Z0.7500 I0.0000 J0.0000 K1.0000 E440.4131
G1 X247.5070 Y228.4261 Z0.7565 I0.0000 J-0.0038 K1.0000 E441.6309
G1 X223.3200 Y228.4261 Z0.7565 I0.0000 J-0.0038 K1.0000 E450.2284
G1 X223.3200 Y231.8512 Z0.7761 I0.0000 J-0.0076 K1.0000 E451.4461
G1 X247.5070 Y231.8512 Z0.7761 I0.0000 J-0.0076 K1.0000 E460.0436
G1 X247.5070 Y235.2772 Z0.8087 I0.0000 J-0.0114 K0.9999 E461.2614
G1 X223.3200 Y235.2772 Z0.8087 I0.0000 J-0.0114 K0.9999 E469.8589
G1 X223.3200 Y238.7020 Z0.8544 I0.0000 J-0.0152 K0.9999 E471.0767
G1 X247.5070 Y238.7020 Z0.8544 I0.0000 J-0.0152 K0.9999 E479.6742
G1 X247.5070 Y242.1277 Z0.9131 I0.0000 J-0.0190 K0.9998 E480.8920
G1 X223.3200 Y242.1277 Z0.9131 I0.0000 J-0.0190 K0.9998 E489.4896
G1 X223.3200 Y245.5521 Z0.9849 I0.0000 J-0.0229 K0.9997 E490.7073
G1 X247.5070 Y245.5521 Z0.9849 I0.0000 J-0.0229 K0.9997 E499.3049
G1 X247.5070 Y248.9772 Z1.0697 I0.0000 J-0.0267 K0.9996 E500.5226
G1 X223.3200 Y248.9772 Z1.0697 I0.0000 J-0.0267 K0.9996 E509.1202
G1 X223.3200 Y252.4019 Z1.1676 I0.0000 J-0.0305 K0.9995 E510.3378
G1 X247.5070 Y252.4019 Z1.1676 I0.0000 J-0.0305 K0.9995 E518.9354
