; G-Code generated by Simplify3D(R) Version 4.0.1
; Feb 28, 2019 at 1:46:49 PM
; Settings Summary
;   processName,Process1
;   applyToModels,ex01_r62_flatten
;   profileName,AON3D (modified)
;   profileVersion,2019-02-28 13:30:49
;   baseProfile,Generic Dual Extrusion Profile
;   printMaterial,PLA
;   printQuality,
;   printExtruders,T1/Right Extruder Only
;   extruderName,T0/Left Extruder,T1/Right Extruder
;   extruderToolheadNumber,0,1
;   extruderDiameter,0.4,0.4
;   extruderAutoWidth,1,0
;   extruderWidth,0.48,0.4
;   extrusionMultiplier,1,0.9
;   extruderUseRetract,1,1
;   extruderRetractionDistance,2,3
;   extruderExtraRestartDistance,0.2,0.2
;   extruderRetractionZLift,0,0
;   extruderRetractionSpeed,3000,3000
;   extruderUseCoasting,1,0
;   extruderCoastingDistance,0.2,0.2
;   extruderUseWipe,0,0
;   extruderWipeDistance,2,2
;   primaryExtruder,1
;   layerHeight,0.2
;   topSolidLayers,2
;   bottomSolidLayers,2
;   perimeterOutlines,2
;   printPerimetersInsideOut,0
;   startPointOption,1
;   startPointOriginX,0
;   startPointOriginY,0
;   sequentialIslands,0
;   spiralVaseMode,0
;   firstLayerHeightPercentage,200
;   firstLayerWidthPercentage,100
;   firstLayerUnderspeed,0.5
;   useRaft,0
;   raftExtruder,1
;   raftTopLayers,2
;   raftBaseLayers,1
;   raftOffset,2
;   raftSeparationDistance,0
;   raftTopInfill,100
;   aboveRaftSpeedMultiplier,0.3
;   useSkirt,0
;   skirtExtruder,1
;   skirtLayers,1
;   skirtOutlines,2
;   skirtOffset,4
;   usePrimePillar,0
;   primePillarExtruder,999
;   primePillarWidth,12
;   primePillarLocation,7
;   primePillarSpeedMultiplier,1
;   useOozeShield,0
;   oozeShieldExtruder,999
;   oozeShieldOffset,2
;   oozeShieldOutlines,1
;   oozeShieldSidewallShape,1
;   oozeShieldSidewallAngle,30
;   oozeShieldSpeedMultiplier,1
;   infillExtruder,1
;   internalInfillPattern,Grid
;   externalInfillPattern,Rectilinear
;   infillPercentage,10
;   outlineOverlapPercentage,25
;   infillExtrusionWidthPercentage,100
;   minInfillLength,5
;   infillLayerInterval,1
;   internalInfillAngles,45,-45
;   overlapInternalInfillAngles,0
;   externalInfillAngles,0
;   generateSupport,0
;   supportExtruder,1
;   supportInfillPercentage,20
;   supportExtraInflation,0.5
;   supportBaseLayers,0
;   denseSupportExtruder,1
;   denseSupportLayers,3
;   denseSupportInfillPercentage,75
;   supportLayerInterval,1
;   supportHorizontalPartOffset,0
;   supportUpperSeparationLayers,1
;   supportLowerSeparationLayers,0
;   supportType,1
;   supportGridSpacing,2
;   maxOverhangAngle,35
;   supportAngles,45,-45
;   temperatureName,T0/Left Extruder,T1/Right Extruder,T2/Heated Chamber,Heated Bed
;   temperatureNumber,0,1,2,0
;   temperatureSetpointCount,1,1,1,1
;   temperatureSetpointLayers,1,1,1,1
;   temperatureSetpointTemperatures,0,210,0,60
;   temperatureStabilizeAtStartup,0,0,0,0
;   temperatureHeatedBed,0,0,0,1
;   temperatureRelayBetweenLayers,0,0,0,0
;   temperatureRelayBetweenLoops,0,0,0,0
;   fanLayers,1
;   fanSpeeds,0
;   blipFanToFullPower,1
;   adjustSpeedForCooling,1
;   minSpeedLayerTime,15
;   minCoolingSpeedSlowdown,20
;   increaseFanForCooling,0
;   minFanLayerTime,45
;   maxCoolingFanSpeed,100
;   increaseFanForBridging,1
;   bridgingFanSpeed,100
;   use5D,1
;   relativeEdistances,0
;   allowEaxisZeroing,1
;   independentExtruderAxes,0
;   includeM10123,0
;   stickySupport,1
;   applyToolheadOffsets,0
;   gcodeXoffset,0
;   gcodeYoffset,0
;   gcodeZoffset,0
;   overrideMachineDefinition,1
;   machineTypeOverride,0
;   strokeXoverride,450
;   strokeYoverride,425
;   strokeZoverride,620
;   originOffsetXoverride,0
;   originOffsetYoverride,0
;   originOffsetZoverride,0
;   homeXdirOverride,-1
;   homeYdirOverride,-1
;   homeZdirOverride,-1
;   flipXoverride,1
;   flipYoverride,-1
;   flipZoverride,1
;   toolheadOffsets,0,0|0,0|0,0|0,0|0,0|0,0
;   overrideFirmwareConfiguration,1
;   firmwareTypeOverride,RepRap (Marlin/Repetier/Sprinter)
;   GPXconfigOverride,r2
;   baudRateOverride,115200
;   overridePrinterModels,1
;   printerModelsOverride
;   startingGcode,;start,T1 ;activate T1,G28 ;home all axes,G92 E0,G1 E10 F200 ;purge 10mm,G92 E0 ;reset extruder,
;   layerChangeGcode,
;   retractionGcode,
;   toolChangeGcode,
;   endingGcode,G28 X ;move toolheads,M104 T0 S0 ;turn off T0 heater,M104 T1 S0 ;turn off T1 heater,M104 T2 S0 ;turn off chamber heater,M140 S0 ;turn off bed,M84 ;disable motors
;   exportFileFormat,gcode
;   celebration,0
;   celebrationSong,Random Song
;   postProcessing,
;   defaultSpeed,3600
;   outlineUnderspeed,1
;   solidInfillUnderspeed,1
;   supportUnderspeed,0.5
;   rapidXYspeed,29940
;   rapidZspeed,600
;   minBridgingArea,50
;   bridgingExtraInflation,0.5
;   bridgingExtrusionMultiplier,1
;   bridgingSpeedMultiplier,1
;   useFixedBridgingAngle,0
;   fixedBridgingAngle,0
;   applyBridgingToPerimeters,0
;   filamentDiameters,1.75|1.75|1.75|1.75|1.75|1.75
;   filamentPricesPerKg,15|15|15|15|15|15
;   filamentDensities,1.25|1.25|1.25|1.25|1.25|1.25
;   useMinPrintHeight,0
;   minPrintHeight,0
;   useMaxPrintHeight,0
;   maxPrintHeight,0
;   useDiaphragm,0
;   diaphragmLayerInterval,20
;   robustSlicing,1
;   mergeAllIntoSolid,0
;   onlyRetractWhenCrossingOutline,0
;   retractBetweenLayers,0
;   useRetractionMinTravel,1
;   retractionMinTravel,3
;   retractWhileWiping,1
;   onlyWipeOutlines,1
;   avoidCrossingOutline,0
;   maxMovementDetourFactor,3
;   toolChangeRetractionDistance,0.2
;   toolChangeExtraRestartDistance,0.5
;   toolChangeRetractionSpeed,4200
;   externalThinWallType,1
;   internalThinWallType,2
;   thinWallAllowedOverlapPercentage,10
;   singleExtrusionMinLength,1.6
;   singleExtrusionMinPrintingWidthPercentage,50
;   singleExtrusionMaxPrintingWidthPercentage,200
;   singleExtrusionEndpointExtension,0.2
;   horizontalSizeCompensation,0
G90
M82
M106 S255
G4 P500
M106 S0
M140 S60
M104 S0 T0
M104 S210 T1
M104 S0 T2
;start
T1 ;activate T1
G28 ;home all axes
G92 E0
G1 E10 F200 ;purge 10mm
G92 E0 ;reset extruder
G92 E0
G1 E-3.0000 F3000
G1 Z0.400 F600
; process Process1
; layer 1, Z = 0.400
T1
; tool H0.400 W0.400
; outer perimeter
G1 X258.7144 Y172.7000 Z10.3336 F29940
G1 E0.2000 F900
G92 E0
G1 X258.7144 Y182.7000 Z10.3336 E0.5987
G1 X258.7144 Y192.7000 Z10.3336 E1.1974
G1 X258.7144 Y202.7000 Z10.3336 E1.7960
G1 X258.7144 Y212.7000 Z10.3336 E2.3947
G1 X258.7144 Y222.7000 Z10.3336 E2.9934
G1 X258.7144 Y232.7000 Z10.3336 E3.5921
G1 X258.7144 Y242.7000 Z10.3336 E4.1908
G1 X258.7144 Y252.3000 Z10.3336 E4.7655 F1800
G1 X247.8265 Y252.3000 Z4.7414 E5.4983
G1 X237.4378 Y252.3000 Z1.6567 E6.1471
G1 X227.3576 Y252.3000 Z0.4447 E6.7549
G1 X217.3378 Y252.3000 Z0.8739 E7.3553
G1 X207.1237 Y252.3000 Z3.0251 E7.9802
G1 X196.4871 Y252.3000 Z7.3227 E8.6670
G1 X191.2856 Y252.3000 Z10.3336 E9.0269
G1 X191.2856 Y242.3000 Z10.3336 E9.6255
G1 X191.2856 Y232.3000 Z10.3336 E10.2242
G1 X191.2856 Y222.3000 Z10.3336 E10.8229
G1 X191.2856 Y212.3000 Z10.3336 E11.4216
G1 X191.2856 Y202.3000 Z10.3336 E12.0203
G1 X191.2856 Y192.3000 Z10.3336 E12.6189
G1 X191.2856 Y182.3000 Z10.3336 E13.2176
G1 X191.2856 Y172.7000 Z10.3336 E13.7924
G1 X202.1735 Y172.7000 Z4.7414 E14.5251
G1 X212.5622 Y172.7000 Z1.6567 E15.1739
G1 X222.6424 Y172.7000 Z0.4447 E15.7818
G1 X232.6622 Y172.7000 Z0.8739 E16.3822
G1 X242.8763 Y172.7000 Z3.0251 E17.0071
G1 X253.5129 Y172.7000 Z7.3227 E17.6939
G1 X258.7144 Y172.7000 Z10.3336 E18.0537
; inner perimeter
G1 X258.2684 Y173.1000 Z10.0484 F29940
G92 E0
G1 X258.2684 Y183.1000 Z10.0484 E0.5987
G1 X258.2684 Y193.1000 Z10.0484 E1.1974
G1 X258.2684 Y203.1000 Z10.0484 E1.7960
G1 X258.2684 Y213.1000 Z10.0484 E2.3947
G1 X258.2684 Y223.1000 Z10.0484 E2.9934
G1 X258.2684 Y233.1000 Z10.0484 E3.5921
G1 X258.2684 Y243.1000 Z10.0484 E4.1908
G1 X258.2684 Y251.9000 Z10.0484 E4.7176 F1800
G1 X247.4022 Y251.9000 Z4.5758 E5.4460
G1 X237.0302 Y251.9000 Z1.5749 E6.0924
G1 X226.9573 Y251.9000 Z0.4308 E6.6993
G1 X216.9346 Y251.9000 Z0.9253 E7.3001
G1 X206.7076 Y251.9000 Z3.1515 E7.9267
G1 X196.0505 Y251.9000 Z7.5502 E8.6169
G1 X191.7316 Y251.9000 Z10.0484 E8.9156
G1 X191.7316 Y241.9000 Z10.0484 E9.5143
G1 X191.7316 Y231.9000 Z10.0484 E10.1130
G1 X191.7316 Y221.9000 Z10.0484 E10.7117
G1 X191.7316 Y211.9000 Z10.0484 E11.3104
G1 X191.7316 Y201.9000 Z10.0484 E11.9090
G1 X191.7316 Y191.9000 Z10.0484 E12.5077
G1 X191.7316 Y181.9000 Z10.0484 E13.1064
G1 X191.7316 Y173.1000 Z10.0484 E13.6332
G1 X202.5978 Y173.1000 Z4.5758 E14.3616
G1 X212.9698 Y173.1000 Z1.5749 E15.0080
G1 X223.0427 Y173.1000 Z0.4308 E15.6150
G1 X233.0654 Y173.1000 Z0.9253 E16.2157
G1 X243.2924 Y173.1000 Z3.1515 E16.8423
G1 X253.9495 Y173.1000 Z7.5502 E17.5326
G1 X258.2684 Y173.1000 Z10.0484 E17.8313
G92 E0
G1 E-3.0000 F3000
; solid layer
G1 X247.4027 Y173.1943 Z4.5759
G1 X237.0312 Y173.2886 Z1.5751
G1 X226.9587 Y173.3829 Z0.4309
G1 X216.9364 Y173.4773 Z0.9251
G1 X206.7099 Y173.5716 Z3.1508
G1 X196.0534 Y173.6659 Z7.5487
G1 X192.0656 Y173.7000 Z9.8384 F29940
G1 E0.2000 F3000
G92 E0
G1 X202.9154 Y173.7000 Z4.4541 E0.7251
G1 X213.2751 Y173.7000 Z1.5155 E1.3698
G1 X223.3428 Y173.7000 Z0.4221 E1.9761
G1 X233.3680 Y173.7000 Z0.9656 E2.5772
G1 X243.6049 Y173.7000 Z3.2486 E3.2051
G1 X254.2775 Y173.7000 Z7.7240 E3.8980
G1 X257.9344 Y173.7000 Z9.8384 E4.1509 F1800
G1 X257.9344 Y174.1000 Z9.8384 E4.1748
G1 X247.0846 Y174.1000 Z4.4541 E4.8999
G1 X236.7249 Y174.1000 Z1.5155 E5.5446
G1 X226.6572 Y174.1000 Z0.4221 E6.1509
G1 X216.6320 Y174.1000 Z0.9656 E6.7519
G1 X206.3951 Y174.1000 Z3.2486 E7.3799
G1 X195.7225 Y174.1000 Z7.7240 E8.0727
G1 X192.0656 Y174.1000 Z9.8384 E8.3256
G1 X192.0656 Y174.5000 Z9.8384 E8.3496
G1 X202.9154 Y174.5000 Z4.4541 E9.0747
G1 X213.2751 Y174.5000 Z1.5155 E9.7194
G1 X223.3428 Y174.5000 Z0.4221 E10.3257
G1 X233.3680 Y174.5000 Z0.9656 E10.9267
G1 X243.6049 Y174.5000 Z3.2486 E11.5546
G1 X254.2775 Y174.5000 Z7.7240 E12.2475
G1 X257.9344 Y174.5000 Z9.8384 E12.5003
G1 X257.9344 Y174.9000 Z9.8384 E12.5243
G1 X247.0846 Y174.9000 Z4.4541 E13.2495
G1 X236.7249 Y174.9000 Z1.5155 E13.8942
G1 X226.6572 Y174.9000 Z0.4221 E14.5005
G1 X216.6320 Y174.9000 Z0.9656 E15.1015
G1 X206.3951 Y174.9000 Z3.2486 E15.7294
G1 X195.7225 Y174.9000 Z7.7240 E16.4223
G1 X192.0656 Y174.9000 Z9.8384 E16.6752
G1 X192.0656 Y175.3000 Z9.8384 E16.6991
G1 X202.9154 Y175.3000 Z4.4541 E17.4242
G1 X213.2751 Y175.3000 Z1.5155 E18.0689
G1 X223.3428 Y175.3000 Z0.4221 E18.6752
G1 X233.3680 Y175.3000 Z0.9656 E19.2763
G1 X243.6049 Y175.3000 Z3.2486 E19.9042
G1 X254.2775 Y175.3000 Z7.7240 E20.5971
G1 X257.9344 Y175.3000 Z9.8384 E20.8499
G1 X257.9344 Y175.7000 Z9.8384 E20.8739
G1 X247.0846 Y175.7000 Z4.4541 E21.5991
G1 X236.7249 Y175.7000 Z1.5155 E22.2437
G1 X226.6572 Y175.7000 Z0.4221 E22.8500
G1 X216.6320 Y175.7000 Z0.9656 E23.4511
G1 X206.3951 Y175.7000 Z3.2486 E24.0790
G1 X195.7225 Y175.7000 Z7.7240 E24.7718
G1 X192.0656 Y175.7000 Z9.8384 E25.0247
G1 X192.0656 Y176.1000 Z9.8384 E25.0487
G1 X202.9154 Y176.1000 Z4.4541 E25.7738
G1 X213.2751 Y176.1000 Z1.5155 E26.4185
G1 X223.3428 Y176.1000 Z0.4221 E27.0248
G1 X233.3680 Y176.1000 Z0.9656 E27.6259
G1 X243.6049 Y176.1000 Z3.2486 E28.2538
G1 X254.2775 Y176.1000 Z7.7240 E28.9467
G1 X257.9344 Y176.1000 Z9.8384 E29.1995
G1 X257.9344 Y176.5000 Z9.8384 E29.2234
G1 X247.0846 Y176.5000 Z4.4541 E29.9486
G1 X236.7249 Y176.5000 Z1.5155 E30.5933
G1 X226.6572 Y176.5000 Z0.4221 E31.1996
G1 X216.6320 Y176.5000 Z0.9656 E31.8006
G1 X206.3951 Y176.5000 Z3.2486 E32.4285
G1 X195.7225 Y176.5000 Z7.7240 E33.1214
G1 X192.0656 Y176.5000 Z9.8384 E33.3743
G1 X192.0656 Y176.9000 Z9.8384 E33.3982
G1 X202.9154 Y176.9000 Z4.4541 E34.1233
G1 X213.2751 Y176.9000 Z1.5155 E34.7680
G1 X223.3428 Y176.9000 Z0.4221 E35.3743
G1 X233.3680 Y176.9000 Z0.9656 E35.9754
G1 X243.6049 Y176.9000 Z3.2486 E36.6033
G1 X254.2775 Y176.9000 Z7.7240 E37.2962
G1 X257.9344 Y176.9000 Z9.8384 E37.5490
G1 X257.9344 Y177.3000 Z9.8384 E37.5730
G1 X247.0846 Y177.3000 Z4.4541 E38.2982
G1 X236.7249 Y177.3000 Z1.5155 E38.9429
G1 X226.6572 Y177.3000 Z0.4221 E39.5492
G1 X216.6320 Y177.3000 Z0.9656 E40.1502
G1 X206.3951 Y177.3000 Z3.2486 E40.7781
G1 X195.7225 Y177.3000 Z7.7240 E41.4710
G1 X192.0656 Y177.3000 Z9.8384 E41.7239
G1 X192.0656 Y177.7000 Z9.8384 E41.7478
G1 X202.9154 Y177.7000 Z4.4541 E42.4729
G1 X213.2751 Y177.7000 Z1.5155 E43.1176
G1 X223.3428 Y177.7000 Z0.4221 E43.7239
G1 X233.3680 Y177.7000 Z0.9656 E44.3250
G1 X243.6049 Y177.7000 Z3.2486 E44.9529
G1 X254.2775 Y177.7000 Z7.7240 E45.6458
G1 X257.9344 Y177.7000 Z9.8384 E45.8986
G1 X257.9344 Y178.1000 Z9.8384 E45.9225
G1 X247.0846 Y178.1000 Z4.4541 E46.6477
G1 X236.7249 Y178.1000 Z1.5155 E47.2924
G1 X226.6572 Y178.1000 Z0.4221 E47.8987
G1 X216.6320 Y178.1000 Z0.9656 E48.4997
G1 X206.3951 Y178.1000 Z3.2486 E49.1277
G1 X195.7225 Y178.1000 Z7.7240 E49.8205
G1 X192.0656 Y178.1000 Z9.8384 E50.0734
G1 X192.0656 Y178.5000 Z9.8384 E50.0974
G1 X202.9154 Y178.5000 Z4.4541 E50.8225
G1 X213.2751 Y178.5000 Z1.5155 E51.4672
G1 X223.3428 Y178.5000 Z0.4221 E52.0735
G1 X233.3680 Y178.5000 Z0.9656 E52.6746
G1 X243.6049 Y178.5000 Z3.2486 E53.3025
G1 X254.2775 Y178.5000 Z7.7240 E53.9954
G1 X257.9344 Y178.5000 Z9.8384 E54.2483
G1 X257.9344 Y178.9000 Z9.8384 E54.2722
G1 X247.0846 Y178.9000 Z4.4541 E54.9973
G1 X236.7249 Y178.9000 Z1.5155 E55.6420
G1 X226.6572 Y178.9000 Z0.4221 E56.2483
G1 X216.6320 Y178.9000 Z0.9656 E56.8493
G1 X206.3951 Y178.9000 Z3.2486 E57.4773
G1 X195.7225 Y178.9000 Z7.7240 E58.1701
G1 X192.0656 Y178.9000 Z9.8384 E58.4230
G1 X192.0656 Y179.3000 Z9.8384 E58.4469
G1 X202.9154 Y179.3000 Z4.4541 E59.1720
G1 X213.2751 Y179.3000 Z1.5155 E59.8167
G1 X223.3428 Y179.3000 Z0.4221 E60.4230
G1 X233.3680 Y179.3000 Z0.9656 E61.0241
G1 X243.6049 Y179.3000 Z3.2486 E61.6520
G1 X254.2775 Y179.3000 Z7.7240 E62.3449
G1 X257.9344 Y179.3000 Z9.8384 E62.5978
G1 X257.9344 Y179.7000 Z9.8384 E62.6218
G1 X247.0846 Y179.7000 Z4.4541 E63.3469
G1 X236.7249 Y179.7000 Z1.5155 E63.9916
G1 X226.6572 Y179.7000 Z0.4221 E64.5978
G1 X216.6320 Y179.7000 Z0.9656 E65.1989
G1 X206.3951 Y179.7000 Z3.2486 E65.8268
G1 X195.7225 Y179.7000 Z7.7240 E66.5196
G1 X192.0656 Y179.7000 Z9.8384 E66.7725
G1 X192.0656 Y180.1000 Z9.8384 E66.7965
G1 X202.9154 Y180.1000 Z4.4541 E67.5216
G1 X213.2751 Y180.1000 Z1.5155 E68.1663
G1 X223.3428 Y180.1000 Z0.4221 E68.7726
G1 X233.3680 Y180.1000 Z0.9656 E69.3737
G1 X243.6049 Y180.1000 Z3.2486 E70.0016
G1 X254.2775 Y180.1000 Z7.7240 E70.6945
G1 X257.9344 Y180.1000 Z9.8384 E70.9473
G1 X257.9344 Y180.5000 Z9.8384 E70.9712
G1 X247.0846 Y180.5000 Z4.4541 E71.6964
G1 X236.7249 Y180.5000 Z1.5155 E72.3411
G1 X226.6572 Y180.5000 Z0.4221 E72.9474
G1 X216.6320 Y180.5000 Z0.9656 E73.5484
G1 X206.3951 Y180.5000 Z3.2486 E74.1764
G1 X195.7225 Y180.5000 Z7.7240 E74.8692
G1 X192.0656 Y180.5000 Z9.8384 E75.1221
G1 X192.0656 Y180.9000 Z9.8384 E75.1461
G1 X202.9154 Y180.9000 Z4.4541 E75.8712
G1 X213.2751 Y180.9000 Z1.5155 E76.5159
G1 X223.3428 Y180.9000 Z0.4221 E77.1222
G1 X233.3680 Y180.9000 Z0.9656 E77.7232
G1 X243.6049 Y180.9000 Z3.2486 E78.3511
G1 X254.2775 Y180.9000 Z7.7240 E79.0440
G1 X257.9344 Y180.9000 Z9.8384 E79.2968
G1 X257.9344 Y181.3000 Z9.8384 E79.3208
G1 X247.0846 Y181.3000 Z4.4541 E80.0460
G1 X236.7249 Y181.3000 Z1.5155 E80.6907
G1 X226.6572 Y181.3000 Z0.4221 E81.2970
G1 X216.6320 Y181.3000 Z0.9656 E81.8980
G1 X206.3951 Y181.3000 Z3.2486 E82.5259
G1 X195.7225 Y181.3000 Z7.7240 E83.2188
G1 X192.0656 Y181.3000 Z9.8384 E83.4717
G1 X192.0656 Y181.7000 Z9.8384 E83.4956
G1 X202.9154 Y181.7000 Z4.4541 E84.2207
G1 X213.2751 Y181.7000 Z1.5155 E84.8654
G1 X223.3428 Y181.7000 Z0.4221 E85.4717
G1 X233.3680 Y181.7000 Z0.9656 E86.0728
G1 X243.6049 Y181.7000 Z3.2486 E86.7007
G1 X254.2775 Y181.7000 Z7.7240 E87.3936
G1 X257.9344 Y181.7000 Z9.8384 E87.6464
G1 X257.9344 Y182.1000 Z9.8384 E87.6703
G1 X247.0846 Y182.1000 Z4.4541 E88.3955
G1 X236.7249 Y182.1000 Z1.5155 E89.0402
G1 X226.6572 Y182.1000 Z0.4221 E89.6465
G1 X216.6320 Y182.1000 Z0.9656 E90.2475
G1 X206.3951 Y182.1000 Z3.2486 E90.8754
G1 X195.7225 Y182.1000 Z7.7240 E91.5683
G1 X192.0656 Y182.1000 Z9.8384 E91.8212
G1 X192.0656 Y182.5000 Z9.8384 E91.8452
G1 X202.9154 Y182.5000 Z4.4541 E92.5703
