; G-Code generated by Simplify3D(R) Version 4.0.1
; Feb 28, 2019 at 1:46:49 PM
; Settings Summary
;   processName,Process1
;   applyToModels,ex01_r62_flatten
;   profileName,AON3D (modified)
;   profileVersion,2019-02-28 13:30:49
;   baseProfile,Generic Dual Extrusion Profile
;   printMaterial,PLA
;   printQuality,
;   printExtruders,T1/Right Extruder Only
;   extruderName,T0/Left Extruder,T1/Right Extruder
;   extruderToolheadNumber,0,1
;   extruderDiameter,0.4,0.4
;   extruderAutoWidth,1,0
;   extruderWidth,0.48,0.4
;   extrusionMultiplier,1,0.9
;   extruderUseRetract,1,1
;   extruderRetractionDistance,2,3
;   extruderExtraRestartDistance,0.2,0.2
;   extruderRetractionZLift,0,0
;   extruderRetractionSpeed,3000,3000
;   extruderUseCoasting,1,0
;   extruderCoastingDistance,0.2,0.2
;   extruderUseWipe,0,0
;   extruderWipeDistance,2,2
;   primaryExtruder,1
;   layerHeight,0.2
;   topSolidLayers,2
;   bottomSolidLayers,2
;   perimeterOutlines,2
;   printPerimetersInsideOut,0
;   startPointOption,1
;   startPointOriginX,0
;   startPointOriginY,0
;   sequentialIslands,0
;   spiralVaseMode,0
;   firstLayerHeightPercentage,200
;   firstLayerWidthPercentage,100
;   firstLayerUnderspeed,0.5
;   useRaft,0
;   raftExtruder,1
;   raftTopLayers,2
;   raftBaseLayers,1
;   raftOffset,2
;   raftSeparationDistance,0
;   raftTopInfill,100
;   aboveRaftSpeedMultiplier,0.3
;   useSkirt,0
;   skirtExtruder,1
;   skirtLayers,1
;   skirtOutlines,2
;   skirtOffset,4
;   usePrimePillar,0
;   primePillarExtruder,999
;   primePillarWidth,12
;   primePillarLocation,7
;   primePillarSpeedMultiplier,1
;   useOozeShield,0
;   oozeShieldExtruder,999
;   oozeShieldOffset,2
;   oozeShieldOutlines,1
;   oozeShieldSidewallShape,1
;   oozeShieldSidewallAngle,30
;   oozeShieldSpeedMultiplier,1
;   infillExtruder,1
;   internalInfillPattern,Grid
;   externalInfillPattern,Rectilinear
;   infillPercentage,10
;   outlineOverlapPercentage,25
;   infillExtrusionWidthPercentage,100
;   minInfillLength,5
;   infillLayerInterval,1
;   internalInfillAngles,45,-45
;   overlapInternalInfillAngles,0
;   externalInfillAngles,0
;   generateSupport,0
;   supportExtruder,1
;   supportInfillPercentage,20
;   supportExtraInflation,0.5
;   supportBaseLayers,0
;   denseSupportExtruder,1
;   denseSupportLayers,3
;   denseSupportInfillPercentage,75
;   supportLayerInterval,1
;   supportHorizontalPartOffset,0
;   supportUpperSeparationLayers,1
;   supportLowerSeparationLayers,0
;   supportType,1
;   supportGridSpacing,2
;   maxOverhangAngle,35
;   supportAngles,45,-45
;   temperatureName,T0/Left Extruder,T1/Right Extruder,T2/Heated Chamber,Heated Bed
;   temperatureNumber,0,1,2,0
;   temperatureSetpointCount,1,1,1,1
;   temperatureSetpointLayers,1,1,1,1
;   temperatureSetpointTemperatures,0,210,0,60
;   temperatureStabilizeAtStartup,0,0,0,0
;   temperatureHeatedBed,0,0,0,1
;   temperatureRelayBetweenLayers,0,0,0,0
;   temperatureRelayBetweenLoops,0,0,0,0
;   fanLayers,1
;   fanSpeeds,0
;   blipFanToFullPower,1
;   adjustSpeedForCooling,1
;   minSpeedLayerTime,15
;   minCoolingSpeedSlowdown,20
;   increaseFanForCooling,0
;   minFanLayerTime,45
;   maxCoolingFanSpeed,100
;   increaseFanForBridging,1
;   bridgingFanSpeed,100
;   use5D,1
;   relativeEdistances,0
;   allowEaxisZeroing,1
;   independentExtruderAxes,0
;   includeM10123,0
;   stickySupport,1
;   applyToolheadOffsets,0
;   gcodeXoffset,0
;   gcodeYoffset,0
;   gcodeZoffset,0
;   overrideMachineDefinition,1
;   machineTypeOverride,0
;   strokeXoverride,450
;   strokeYoverride,425
;   strokeZoverride,620
;   originOffsetXoverride,0
;   originOffsetYoverride,0
;   originOffsetZoverride,0
;   homeXdirOverride,-1
;   homeYdirOverride,-1
;   homeZdirOverride,-1
;   flipXoverride,1
;   flipYoverride,-1
;   flipZoverride,1
;   toolheadOffsets,0,0|0,0|0,0|0,0|0,0|0,0
;   overrideFirmwareConfiguration,1
;   firmwareTypeOverride,RepRap (Marlin/Repetier/Sprinter)
;   GPXconfigOverride,r2
;   baudRateOverride,115200
;   overridePrinterModels,1
;   printerModelsOverride
;   startingGcode,;start,T1 ;activate T1,G28 ;home all axes,G92 E0,G1 E10 F200 ;purge 10mm,G92 E0 ;reset extruder,
;   layerChangeGcode,
;   retractionGcode,
;   toolChangeGcode,
;   endingGcode,G28 X ;move toolheads,M104 T0 S0 ;turn off T0 heater,M104 T1 S0 ;turn off T1 heater,M104 T2 S0 ;turn off chamber heater,M140 S0 ;turn off bed,M84 ;disable motors
;   exportFileFormat,gcode
;   celebration,0
;   celebrationSong,Random Song
;   postProcessing,
;   defaultSpeed,3600
;   outlineUnderspeed,1
;   solidInfillUnderspeed,1
;   supportUnderspeed,0.5
;   rapidXYspeed,29940
;   rapidZspeed,600
;   minBridgingArea,50
;   bridgingExtraInflation,0.5
;   bridgingExtrusionMultiplier,1
;   bridgingSpeedMultiplier,1
;   useFixedBridgingAngle,0
;   fixedBridgingAngle,0
;   applyBridgingToPerimeters,0
;   filamentDiameters,1.75|1.75|1.75|1.75|1.75|1.75
;   filamentPricesPerKg,15|15|15|15|15|15
;   filamentDensities,1.25|1.25|1.25|1.25|1.25|1.25
;   useMinPrintHeight,0
;   minPrintHeight,0
;   useMaxPrintHeight,0
;   maxPrintHeight,0
;   useDiaphragm,0
;   diaphragmLayerInterval,20
;   robustSlicing,1
;   mergeAllIntoSolid,0
;   onlyRetractWhenCrossingOutline,0
;   retractBetweenLayers,0
;   useRetractionMinTravel,1
;   retractionMinTravel,3
;   retractWhileWiping,1
;   onlyWipeOutlines,1
;   avoidCrossingOutline,0
;   maxMovementDetourFactor,3
;   toolChangeRetractionDistance,0.2
;   toolChangeExtraRestartDistance,0.5
;   toolChangeRetractionSpeed,4200
;   externalThinWallType,1
;   internalThinWallType,2
;   thinWallAllowedOverlapPercentage,10
;   singleExtrusionMinLength,1.6
;   singleExtrusionMinPrintingWidthPercentage,50
;   singleExtrusionMaxPrintingWidthPercentage,200
;   singleExtrusionEndpointExtension,0.2
;   horizontalSizeCompensation,0
G90
M82
M106 S255
G4 P500
M106 S0
M140 S60
M104 S0 T0
M104 S210 T1
M104 S0 T2
;start
T1 ;activate T1
G28 ;home all axes
G92 E0
G1 E10 F200 ;purge 10mm
G92 E0 ;reset extruder
G92 E0
G1 E-3.0000 F3000
G1 Z0.400 F600
; process Process1
; layer 1, Z = 0.400
T1
; tool H0.400 W0.400
; outer perimeter
G1 X257.357 Y172.700 F29940
G1 E0.2000 F900
G92 E0
G1 X257.357 Y252.300 E4.7655 F1800
G1 X192.643 Y252.300 E8.6398
G1 X192.643 Y172.700 E13.4053
G1 X257.357 Y172.700 E17.2796
; inner perimeter
G1 X256.957 Y173.100 F29940
G92 E0
G1 X256.957 Y251.900 E4.7176 F1800
G1 X193.043 Y251.900 E8.5440
G1 X193.043 Y173.100 E13.2616
G1 X256.957 Y173.100 E17.0880
G92 E0
G1 E-3.0000 F3000
; solid layer
G1 X193.343 Y173.700 F29940
G1 E0.2000 F3000
G92 E0
G1 X256.657 Y173.700 E3.7905 F1800
G1 X256.657 Y174.100 E3.8144
G1 X193.343 Y174.100 E7.6049
G1 X193.343 Y174.500 E7.6289
G1 X256.657 Y174.500 E11.4193
G1 X256.657 Y174.900 E11.4433
G1 X193.343 Y174.900 E15.2338
G1 X193.343 Y175.300 E15.2577
G1 X256.657 Y175.300 E19.0482
G1 X256.657 Y175.700 E19.0722
G1 X193.343 Y175.700 E22.8626
G1 X193.343 Y176.100 E22.8866
G1 X256.657 Y176.100 E26.6771
G1 X256.657 Y176.500 E26.7010
G1 X193.343 Y176.500 E30.4915
G1 X193.343 Y176.900 E30.5154
G1 X256.657 Y176.900 E34.3059
G1 X256.657 Y177.300 E34.3299
G1 X193.343 Y177.300 E38.1204
G1 X193.343 Y177.700 E38.1443
G1 X256.657 Y177.700 E41.9348
G1 X256.657 Y178.100 E41.9587
G1 X193.343 Y178.100 E45.7492
G1 X193.343 Y178.500 E45.7732
G1 X256.657 Y178.500 E49.5637
G1 X256.657 Y178.900 E49.5876
G1 X193.343 Y178.900 E53.3781
G1 X193.343 Y179.300 E53.4020
G1 X256.657 Y179.300 E57.1925
G1 X256.657 Y179.700 E57.2165
G1 X193.343 Y179.700 E61.0069
G1 X193.343 Y180.100 E61.0309
G1 X256.657 Y180.100 E64.8214
G1 X256.657 Y180.500 E64.8453
G1 X193.343 Y180.500 E68.6358
G1 X193.343 Y180.900 E68.6598
G1 X256.657 Y180.900 E72.4502
G1 X256.657 Y181.300 E72.4742
G1 X193.343 Y181.300 E76.2647
G1 X193.343 Y181.700 E76.2886
G1 X256.657 Y181.700 E80.0791
G1 X256.657 Y182.100 E80.1030
G1 X193.343 Y182.100 E83.8935
G1 X193.343 Y182.500 E83.9175
G1 X256.657 Y182.500 E87.7080
G1 X256.657 Y182.900 E87.7319
G1 X193.343 Y182.900 E91.5224
G1 X193.343 Y183.300 E91.5463
G1 X256.657 Y183.300 E95.3368
G1 X256.657 Y183.700 E95.3608
G1 X193.343 Y183.700 E99.1513
G1 X193.343 Y184.100 E99.1752
G1 X256.657 Y184.100 E102.9657
G1 X256.657 Y184.500 E102.9896
G1 X193.343 Y184.500 E106.7801
G1 X193.343 Y184.900 E106.8041
G1 X256.657 Y184.900 E110.5945
G1 X256.657 Y185.300 E110.6185
G1 X193.343 Y185.300 E114.4090
G1 X193.343 Y185.700 E114.4329
G1 X256.657 Y185.700 E118.2234
G1 X256.657 Y186.100 E118.2474
G1 X193.343 Y186.100 E122.0378
G1 X193.343 Y186.500 E122.0618
G1 X256.657 Y186.500 E125.8523
G1 X256.657 Y186.900 E125.8762
G1 X193.343 Y186.900 E129.6667
G1 X193.343 Y187.300 E129.6906
G1 X256.657 Y187.300 E133.4811
G1 X256.657 Y187.700 E133.5051
G1 X193.343 Y187.700 E137.2956
G1 X193.343 Y188.100 E137.3195
G1 X256.657 Y188.100 E141.1100
G1 X256.657 Y188.500 E141.1339
G1 X193.343 Y188.500 E144.9244
G1 X193.343 Y188.900 E144.9484
G1 X256.657 Y188.900 E148.7389
G1 X256.657 Y189.300 E148.7628
G1 X193.343 Y189.300 E152.5533
G1 X193.343 Y189.700 E152.5772
G1 X256.657 Y189.700 E156.3677
G1 X256.657 Y190.100 E156.3917
G1 X193.343 Y190.100 E160.1821
G1 X193.343 Y190.500 E160.2061
G1 X256.657 Y190.500 E163.9966
G1 X256.657 Y190.900 E164.0205
G1 X193.343 Y190.900 E167.8110
G1 X193.343 Y191.300 E167.8350
G1 X256.657 Y191.300 E171.6254
G1 X256.657 Y191.700 E171.6494
G1 X193.343 Y191.700 E175.4399
G1 X193.343 Y192.100 E175.4638
G1 X256.657 Y192.100 E179.2543
G1 X256.657 Y192.500 E179.2783
G1 X193.343 Y192.500 E183.0687
G1 X193.343 Y192.900 E183.0927
G1 X256.657 Y192.900 E186.8832
G1 X256.657 Y193.300 E186.9071
G1 X193.343 Y193.300 E190.6976
G1 X193.343 Y193.700 E190.7215
G1 X256.657 Y193.700 E194.5120
G1 X256.657 Y194.100 E194.5360
G1 X193.343 Y194.100 E198.3265
G1 X193.343 Y194.500 E198.3504
G1 X256.657 Y194.500 E202.1409
G1 X256.657 Y194.900 E202.1648
G1 X193.343 Y194.900 E205.9553
G1 X193.343 Y195.300 E205.9793
G1 X256.657 Y195.300 E209.7698
G1 X256.657 Y195.700 E209.7937
G1 X193.343 Y195.700 E213.5842
G1 X193.343 Y196.100 E213.6081
G1 X256.657 Y196.100 E217.3986
G1 X256.657 Y196.500 E217.4226
G1 X193.343 Y196.500 E221.2130
G1 X193.343 Y196.900 E221.2370
G1 X256.657 Y196.900 E225.0275
G1 X256.657 Y197.300 E225.0514
G1 X193.343 Y197.300 E228.8419
G1 X193.343 Y197.700 E228.8659
G1 X256.657 Y197.700 E232.6563
G1 X256.657 Y198.100 E232.6803
G1 X193.343 Y198.100 E236.4708
G1 X193.343 Y198.500 E236.4947
G1 X256.657 Y198.500 E240.2852
G1 X256.657 Y198.900 E240.3091
G1 X193.343 Y198.900 E244.0996
G1 X193.343 Y199.300 E244.1236
G1 X256.657 Y199.300 E247.9141
G1 X256.657 Y199.700 E247.9380
G1 X193.343 Y199.700 E251.7285
G1 X193.343 Y200.100 E251.7524
G1 X256.657 Y200.100 E255.5429
G1 X256.657 Y200.500 E255.5669
G1 X193.343 Y200.500 E259.3574
G1 X193.343 Y200.900 E259.3813
G1 X256.657 Y200.900 E263.1718
G1 X256.657 Y201.300 E263.1957
G1 X193.343 Y201.300 E266.9862
G1 X193.343 Y201.700 E267.0102
G1 X256.657 Y201.700 E270.8006
G1 X256.657 Y202.100 E270.8246
G1 X193.343 Y202.100 E274.6151
G1 X193.343 Y202.500 E274.6390
G1 X256.657 Y202.500 E278.4295
G1 X256.657 Y202.900 E278.4535
G1 X193.343 Y202.900 E282.2439
G1 X193.343 Y203.300 E282.2679
G1 X256.657 Y203.300 E286.0584
G1 X256.657 Y203.700 E286.0823
G1 X193.343 Y203.700 E289.8728
G1 X193.343 Y204.100 E289.8967
G1 X256.657 Y204.100 E293.6872
G1 X256.657 Y204.500 E293.7112
G1 X193.343 Y204.500 E297.5017
G1 X193.343 Y204.900 E297.5256
G1 X256.657 Y204.900 E301.3161
G1 X256.657 Y205.300 E301.3400
G1 X193.343 Y205.300 E305.1305
G1 X193.343 Y205.700 E305.1545
G1 X256.657 Y205.700 E308.9450
G1 X256.657 Y206.100 E308.9689
G1 X193.343 Y206.100 E312.7594
G1 X193.343 Y206.500 E312.7833
G1 X256.657 Y206.500 E316.5738
G1 X256.657 Y206.900 E316.5978
G1 X193.343 Y206.900 E320.3882
G1 X193.343 Y207.300 E320.4122
G1 X256.657 Y207.300 E324.2027
G1 X256.657 Y207.700 E324.2266
G1 X193.343 Y207.700 E328.0171
G1 X193.343 Y208.100 E328.0411
G1 X256.657 Y208.100 E331.8315
G1 X256.657 Y208.500 E331.8555
G1 X193.343 Y208.500 E335.6460
G1 X193.343 Y208.900 E335.6699
G1 X256.657 Y208.900 E339.4604
G1 X256.657 Y209.300 E339.4843
G1 X193.343 Y209.300 E343.2748
G1 X193.343 Y209.700 E343.2988
G1 X256.657 Y209.700 E347.0893
G1 X256.657 Y210.100 E347.1132
G1 X193.343 Y210.100 E350.9037
G1 X193.343 Y210.500 E350.9276
G1 X256.657 Y210.500 E354.7181
G1 X256.657 Y210.900 E354.7421
G1 X193.343 Y210.900 E358.5326
G1 X193.343 Y211.300 E358.5565
G1 X256.657 Y211.300 E362.3470
G1 X256.657 Y211.700 E362.3709
G1 X193.343 Y211.700 E366.1614
G1 X193.343 Y212.100 E366.1854
G1 X256.657 Y212.100 E369.9758
G1 X256.657 Y212.500 E369.9998
G1 X193.343 Y212.500 E373.7903
G1 X193.343 Y212.900 E373.8142
G1 X256.657 Y212.900 E377.6047
G1 X256.657 Y213.300 E377.6287
G1 X193.343 Y213.300 E381.4191
G1 X193.343 Y213.700 E381.4431
G1 X256.657 Y213.700 E385.2336
G1 X256.657 Y214.100 E385.2575
G1 X193.343 Y214.100 E389.0480
G1 X193.343 Y214.500 E389.0719
G1 X256.657 Y214.500 E392.8624
G1 X256.657 Y214.900 E392.8864
G1 X193.343 Y214.900 E396.6769
G1 X193.343 Y215.300 E396.7008
G1 X256.657 Y215.300 E400.4913
G1 X256.657 Y215.700 E400.5152
G1 X193.343 Y215.700 E404.3057
G1 X193.343 Y216.100 E404.3297
G1 X256.657 Y216.100 E408.1202
G1 X256.657 Y216.500 E408.1441
G1 X193.343 Y216.500 E411.9346
G1 X193.343 Y216.900 E411.9585
G1 X256.657 Y216.900 E415.7490
G1 X256.657 Y217.300 E415.7730
G1 X193.343 Y217.300 E419.5634
G1 X193.343 Y217.700 E419.5874
G1 X256.657 Y217.700 E423.3779
G1 X256.657 Y218.100 E423.4018
G1 X193.343 Y218.100 E427.1923
G1 X193.343 Y218.500 E427.2163
G1 X256.657 Y218.500 E431.0067
G1 X256.657 Y218.900 E431.0307
G1 X193.343 Y218.900 E434.8212
G1 X193.343 Y219.300 E434.8451
G1 X256.657 Y219.300 E438.6356
G1 X256.657 Y219.700 E438.6596
G1 X193.343 Y219.700 E442.4500
G1 X193.343 Y220.100 E442.4740
G1 X256.657 Y220.100 E446.2645
G1 X256.657 Y220.500 E446.2884
G1 X193.343 Y220.500 E450.0789
G1 X193.343 Y220.900 E450.1028
G1 X256.657 Y220.900 E453.8933
G1 X256.657 Y221.300 E453.9173
G1 X193.343 Y221.300 E457.7078
G1 X193.343 Y221.700 E457.7317
G1 X256.657 Y221.700 E461.5222
G1 X256.657 Y222.100 E461.5461
G1 X193.343 Y222.100 E465.3366
G1 X193.343 Y222.500 E465.3606
G1 X256.657 Y222.500 E469.1510
G1 X256.657 Y222.900 E469.1750
G1 X193.343 Y222.900 E472.9655
G1 X193.343 Y223.300 E472.9894
G1 X256.657 Y223.300 E476.7799
G1 X256.657 Y223.700 E476.8039
G1 X193.343 Y223.700 E480.5943
G1 X193.343 Y224.100 E480.6183
G1 X256.657 Y224.100 E484.4088
G1 X256.657 Y224.500 E484.4327
G1 X193.343 Y224.500 E488.2232
G1 X193.343 Y224.900 E488.2472
G1 X256.657 Y224.900 E492.0376
G1 X256.657 Y225.300 E492.0616
G1 X193.343 Y225.300 E495.8521
G1 X193.343 Y225.700 E495.8760
G1 X256.657 Y225.700 E499.6665
G1 X256.657 Y226.100 E499.6904
G1 X193.343 Y226.100 E503.4809
G1 X193.343 Y226.500 E503.5049
G1 X256.657 Y226.500 E507.2954
G1 X256.657 Y226.900 E507.3193
G1 X193.343 Y226.900 E511.1098
G1 X193.343 Y227.300 E511.1337
G1 X256.657 Y227.300 E514.9242
G1 X256.657 Y227.700 E514.9482
G1 X193.343 Y227.700 E518.7387
G1 X193.343 Y228.100 E518.7626
G1 X256.657 Y228.100 E522.5531
G1 X256.657 Y228.500 E522.5770
G1 X193.343 Y228.500 E526.3675
G1 X193.343 Y228.900 E526.3915
G1 X256.657 Y228.900 E530.1819
G1 X256.657 Y229.300 E530.2059
G1 X193.343 Y229.300 E533.9964
G1 X193.343 Y229.700 E534.0203
G1 X256.657 Y229.700 E537.8108
G1 X256.657 Y230.100 E537.8348
G1 X193.343 Y230.100 E541.6252
G1 X193.343 Y230.500 E541.6492
G1 X256.657 Y230.500 E545.4397
G1 X256.657 Y230.900 E545.4636
G1 X193.343 Y230.900 E549.2541
G1 X193.343 Y231.300 E549.2780
G1 X256.657 Y231.300 E553.0685
G1 X256.657 Y231.700 E553.0925
G1 X193.343 Y231.700 E556.8830
G1 X193.343 Y232.100 E556.9069
G1 X256.657 Y232.100 E560.6974
G1 X256.657 Y232.500 E560.7213
G1 X193.343 Y232.500 E564.5118
G1 X193.343 Y232.900 E564.5358
G1 X256.657 Y232.900 E568.3263
G1 X256.657 Y233.300 E568.3502
G1 X193.343 Y233.300 E572.1407
G1 X193.343 Y233.700 E572.1646
G1 X256.657 Y233.700 E575.9551
G1 X256.657 Y234.100 E575.9791
G1 X193.343 Y234.100 E579.7695
G1 X193.343 Y234.500 E579.7935
G1 X256.657 Y234.500 E583.5840
G1 X256.657 Y234.900 E583.6079
G1 X193.343 Y234.900 E587.3984
