; G-Code generated by Simplify3D(R) Version 4.0.1
; Feb 28, 2019 at 1:47:46 PM
; Settings Summary
;   processName,Process1
;   applyToModels,ex02_r454_flatten
;   profileName,AON3D (modified)
;   profileVersion,2019-02-28 13:30:49
;   baseProfile,Generic Dual Extrusion Profile
;   printMaterial,PLA
;   printQuality,
;   printExtruders,T1/Right Extruder Only
;   extruderName,T0/Left Extruder,T1/Right Extruder
;   extruderToolheadNumber,0,1
;   extruderDiameter,0.4,0.4
;   extruderAutoWidth,1,0
;   extruderWidth,0.48,0.4
;   extrusionMultiplier,1,0.9
;   extruderUseRetract,1,1
;   extruderRetractionDistance,2,3
;   extruderExtraRestartDistance,0.2,0.2
;   extruderRetractionZLift,0,0
;   extruderRetractionSpeed,3000,3000
;   extruderUseCoasting,1,0
;   extruderCoastingDistance,0.2,0.2
;   extruderUseWipe,0,0
;   extruderWipeDistance,2,2
;   primaryExtruder,1
;   layerHeight,0.2
;   topSolidLayers,2
;   bottomSolidLayers,2
;   perimeterOutlines,2
;   printPerimetersInsideOut,0
;   startPointOption,1
;   startPointOriginX,0
;   startPointOriginY,0
;   sequentialIslands,0
;   spiralVaseMode,0
;   firstLayerHeightPercentage,200
;   firstLayerWidthPercentage,100
;   firstLayerUnderspeed,0.5
;   useRaft,0
;   raftExtruder,1
;   raftTopLayers,2
;   raftBaseLayers,1
;   raftOffset,2
;   raftSeparationDistance,0
;   raftTopInfill,100
;   aboveRaftSpeedMultiplier,0.3
;   useSkirt,0
;   skirtExtruder,1
;   skirtLayers,1
;   skirtOutlines,2
;   skirtOffset,4
;   usePrimePillar,0
;   primePillarExtruder,999
;   primePillarWidth,12
;   primePillarLocation,7
;   primePillarSpeedMultiplier,1
;   useOozeShield,0
;   oozeShieldExtruder,999
;   oozeShieldOffset,2
;   oozeShieldOutlines,1
;   oozeShieldSidewallShape,1
;   oozeShieldSidewallAngle,30
;   oozeShieldSpeedMultiplier,1
;   infillExtruder,1
;   internalInfillPattern,Grid
;   externalInfillPattern,Rectilinear
;   infillPercentage,10
;   outlineOverlapPercentage,25
;   infillExtrusionWidthPercentage,100
;   minInfillLength,5
;   infillLayerInterval,1
;   internalInfillAngles,45,-45
;   overlapInternalInfillAngles,0
;   externalInfillAngles,0
;   generateSupport,0
;   supportExtruder,1
;   supportInfillPercentage,20
;   supportExtraInflation,0.5
;   supportBaseLayers,0
;   denseSupportExtruder,1
;   denseSupportLayers,3
;   denseSupportInfillPercentage,75
;   supportLayerInterval,1
;   supportHorizontalPartOffset,0
;   supportUpperSeparationLayers,1
;   supportLowerSeparationLayers,0
;   supportType,1
;   supportGridSpacing,2
;   maxOverhangAngle,35
;   supportAngles,45,-45
;   temperatureName,T0/Left Extruder,T1/Right Extruder,T2/Heated Chamber,Heated Bed
;   temperatureNumber,0,1,2,0
;   temperatureSetpointCount,1,1,1,1
;   temperatureSetpointLayers,1,1,1,1
;   temperatureSetpointTemperatures,0,210,0,60
;   temperatureStabilizeAtStartup,0,0,0,0
;   temperatureHeatedBed,0,0,0,1
;   temperatureRelayBetweenLayers,0,0,0,0
;   temperatureRelayBetweenLoops,0,0,0,0
;   fanLayers,1
;   fanSpeeds,0
;   blipFanToFullPower,1
;   adjustSpeedForCooling,1
;   minSpeedLayerTime,15
;   minCoolingSpeedSlowdown,20
;   increaseFanForCooling,0
;   minFanLayerTime,45
;   maxCoolingFanSpeed,100
;   increaseFanForBridging,1
;   bridgingFanSpeed,100
;   use5D,1
;   relativeEdistances,0
;   allowEaxisZeroing,1
;   independentExtruderAxes,0
;   includeM10123,0
;   stickySupport,1
;   applyToolheadOffsets,0
;   gcodeXoffset,0
;   gcodeYoffset,0
;   gcodeZoffset,0
;   overrideMachineDefinition,1
;   machineTypeOverride,0
;   strokeXoverride,450
;   strokeYoverride,425
;   strokeZoverride,620
;   originOffsetXoverride,0
;   originOffsetYoverride,0
;   originOffsetZoverride,0
;   homeXdirOverride,-1
;   homeYdirOverride,-1
;   homeZdirOverride,-1
;   flipXoverride,1
;   flipYoverride,-1
;   flipZoverride,1
;   toolheadOffsets,0,0|0,0|0,0|0,0|0,0|0,0
;   overrideFirmwareConfiguration,1
;   firmwareTypeOverride,RepRap (Marlin/Repetier/Sprinter)
;   GPXconfigOverride,r2
;   baudRateOverride,115200
;   overridePrinterModels,1
;   printerModelsOverride
;   startingGcode,;start,T1 ;activate T1,G28 ;home all axes,G92 E0,G1 E10 F200 ;purge 10mm,G92 E0 ;reset extruder,
;   layerChangeGcode,
;   retractionGcode,
;   toolChangeGcode,
;   endingGcode,G28 X ;move toolheads,M104 T0 S0 ;turn off T0 heater,M104 T1 S0 ;turn off T1 heater,M104 T2 S0 ;turn off chamber heater,M140 S0 ;turn off bed,M84 ;disable motors
;   exportFileFormat,gcode
;   celebration,0
;   celebrationSong,Random Song
;   postProcessing,
;   defaultSpeed,3600
;   outlineUnderspeed,1
;   solidInfillUnderspeed,1
;   supportUnderspeed,0.5
;   rapidXYspeed,29940
;   rapidZspeed,600
;   minBridgingArea,50
;   bridgingExtraInflation,0.5
;   bridgingExtrusionMultiplier,1
;   bridgingSpeedMultiplier,1
;   useFixedBridgingAngle,0
;   fixedBridgingAngle,0
;   applyBridgingToPerimeters,0
;   filamentDiameters,1.75|1.75|1.75|1.75|1.75|1.75
;   filamentPricesPerKg,15|15|15|15|15|15
;   filamentDensities,1.25|1.25|1.25|1.25|1.25|1.25
;   useMinPrintHeight,0
;   minPrintHeight,0
;   useMaxPrintHeight,0
;   maxPrintHeight,0
;   useDiaphragm,0
;   diaphragmLayerInterval,20
;   robustSlicing,1
;   mergeAllIntoSolid,0
;   onlyRetractWhenCrossingOutline,0
;   retractBetweenLayers,0
;   useRetractionMinTravel,1
;   retractionMinTravel,3
;   retractWhileWiping,1
;   onlyWipeOutlines,1
;   avoidCrossingOutline,0
;   maxMovementDetourFactor,3
;   toolChangeRetractionDistance,0.2
;   toolChangeExtraRestartDistance,0.5
;   toolChangeRetractionSpeed,4200
;   externalThinWallType,1
;   internalThinWallType,2
;   thinWallAllowedOverlapPercentage,10
;   singleExtrusionMinLength,1.6
;   singleExtrusionMinPrintingWidthPercentage,50
;   singleExtrusionMaxPrintingWidthPercentage,200
;   singleExtrusionEndpointExtension,0.2
;   horizontalSizeCompensation,0
G90
M82
M106 S255
G4 P500
M106 S0
M140 S60
M104 S0 T0
M104 S210 T1
M104 S0 T2
;start
T1 ;activate T1
G28 ;home all axes
G92 E0
G1 E10 F200 ;purge 10mm
G92 E0 ;reset extruder
G92 E0
G1 E-3.0000 F3000
G1 Z0.400 F600
; process Process1
; layer 1, Z = 0.400
T1
; tool H0.400 W0.400
; outer perimeter
G1 X367.639 Y188.700 F29940
G1 E0.2000 F900
G92 E0
G1 X367.639 Y236.300 E2.8497 F1800
G1 X82.361 Y236.300 E19.9288
G1 X82.361 Y188.700 E22.7785
G1 X367.639 Y188.700 E39.8576
; inner perimeter
G1 X367.239 Y189.100 F29940
G92 E0
G1 X367.239 Y235.900 E2.8018 F1800
G1 X82.761 Y235.900 E19.8330
G1 X82.761 Y189.100 E22.6348
G1 X367.239 Y189.100 E39.6660
G92 E0
G1 E-3.0000 F3000
; solid layer
G1 X366.939 Y235.300 F29940
G1 E0.2000 F3000
G92 E0
G1 X83.061 Y235.300 E16.9953 F1800
G1 X83.061 Y234.900 E17.0192
G1 X366.939 Y234.900 E34.0145
G1 X366.939 Y234.500 E34.0384
G1 X83.061 Y234.500 E51.0337
G1 X83.061 Y234.100 E51.0576
G1 X366.939 Y234.100 E68.0529
G1 X366.939 Y233.700 E68.0768
G1 X83.061 Y233.700 E85.0721
G1 X83.061 Y233.300 E85.0960
G1 X366.939 Y233.300 E102.0913
G1 X366.939 Y232.900 E102.1152
G1 X83.061 Y232.900 E119.1105
G1 X83.061 Y232.500 E119.1344
G1 X366.939 Y232.500 E136.1297
G1 X366.939 Y232.100 E136.1536
G1 X83.061 Y232.100 E153.1489
G1 X83.061 Y231.700 E153.1728
G1 X366.939 Y231.700 E170.1681
G1 X366.939 Y231.300 E170.1920
G1 X83.061 Y231.300 E187.1873
G1 X83.061 Y230.900 E187.2112
G1 X366.939 Y230.900 E204.2065
G1 X366.939 Y230.500 E204.2304
G1 X83.061 Y230.500 E221.2257
G1 X83.061 Y230.100 E221.2496
G1 X366.939 Y230.100 E238.2449
G1 X366.939 Y229.700 E238.2688
G1 X83.061 Y229.700 E255.2641
G1 X83.061 Y229.300 E255.2880
G1 X366.939 Y229.300 E272.2833
G1 X366.939 Y228.900 E272.3072
G1 X83.061 Y228.900 E289.3025
G1 X83.061 Y228.500 E289.3264
G1 X366.939 Y228.500 E306.3217
G1 X366.939 Y228.100 E306.3456
G1 X83.061 Y228.100 E323.3409
G1 X83.061 Y227.700 E323.3648
G1 X366.939 Y227.700 E340.3601
G1 X366.939 Y227.300 E340.3840
G1 X83.061 Y227.300 E357.3793
G1 X83.061 Y226.900 E357.4032
G1 X366.939 Y226.900 E374.3985
G1 X366.939 Y226.500 E374.4224
G1 X83.061 Y226.500 E391.4177
G1 X83.061 Y226.100 E391.4416
G1 X366.939 Y226.100 E408.4369
G1 X366.939 Y225.700 E408.4608
G1 X83.061 Y225.700 E425.4561
G1 X83.061 Y225.300 E425.4800
G1 X366.939 Y225.300 E442.4753
G1 X366.939 Y224.900 E442.4992
G1 X83.061 Y224.900 E459.4945
G1 X83.061 Y224.500 E459.5184
G1 X366.939 Y224.500 E476.5137
G1 X366.939 Y224.100 E476.5376
G1 X83.061 Y224.100 E493.5329
G1 X83.061 Y223.700 E493.5568
G1 X366.939 Y223.700 E510.5521
G1 X366.939 Y223.300 E510.5760
G1 X83.061 Y223.300 E527.5713
G1 X83.061 Y222.900 E527.5952
G1 X366.939 Y222.900 E544.5905
G1 X366.939 Y222.500 E544.6144
G1 X83.061 Y222.500 E561.6097
G1 X83.061 Y222.100 E561.6336
G1 X366.939 Y222.100 E578.6289
G1 X366.939 Y221.700 E578.6528
G1 X83.061 Y221.700 E595.6481
G1 X83.061 Y221.300 E595.6720
G1 X366.939 Y221.300 E612.6673
G1 X366.939 Y220.900 E612.6912
G1 X83.061 Y220.900 E629.6865
G1 X83.061 Y220.500 E629.7104
G1 X366.939 Y220.500 E646.7057
G1 X366.939 Y220.100 E646.7296
G1 X83.061 Y220.100 E663.7249
G1 X83.061 Y219.700 E663.7488
G1 X366.939 Y219.700 E680.7441
G1 X366.939 Y219.300 E680.7680
G1 X83.061 Y219.300 E697.7633
G1 X83.061 Y218.900 E697.7872
G1 X366.939 Y218.900 E714.7825
G1 X366.939 Y218.500 E714.8064
G1 X83.061 Y218.500 E731.8017
G1 X83.061 Y218.100 E731.8256
G1 X366.939 Y218.100 E748.8209
G1 X366.939 Y217.700 E748.8448
G1 X83.061 Y217.700 E765.8401
G1 X83.061 Y217.300 E765.8640
G1 X366.939 Y217.300 E782.8593
G1 X366.939 Y216.900 E782.8832
G1 X83.061 Y216.900 E799.8785
G1 X83.061 Y216.500 E799.9024
G1 X366.939 Y216.500 E816.8977
G1 X366.939 Y216.100 E816.9217
G1 X83.061 Y216.100 E833.9169
G1 X83.061 Y215.700 E833.9409
G1 X366.939 Y215.700 E850.9361
G1 X366.939 Y215.300 E850.9601
G1 X83.061 Y215.300 E867.9553
G1 X83.061 Y214.900 E867.9793
G1 X366.939 Y214.900 E884.9745
G1 X366.939 Y214.500 E884.9985
G1 X83.061 Y214.500 E901.9937
G1 X83.061 Y214.100 E902.0177
G1 X366.939 Y214.100 E919.0129
G1 X366.939 Y213.700 E919.0369
G1 X83.061 Y213.700 E936.0321
G1 X83.061 Y213.300 E936.0561
G1 X366.939 Y213.300 E953.0513
G1 X366.939 Y212.900 E953.0753
G1 X83.061 Y212.900 E970.0705
G1 X83.061 Y212.500 E970.0945
G1 X366.939 Y212.500 E987.0897
G1 X366.939 Y212.100 E987.1137
G1 X83.061 Y212.100 E1004.1089
G1 X83.061 Y211.700 E1004.1329
G1 X366.939 Y211.700 E1021.1281
G1 X366.939 Y211.300 E1021.1521
G1 X83.061 Y211.300 E1038.1473
G1 X83.061 Y210.900 E1038.1713
G1 X366.939 Y210.900 E1055.1665
G1 X366.939 Y210.500 E1055.1905
G1 X83.061 Y210.500 E1072.1857
G1 X83.061 Y210.100 E1072.2097
G1 X366.939 Y210.100 E1089.2049
G1 X366.939 Y209.700 E1089.2289
G1 X83.061 Y209.700 E1106.2241
G1 X83.061 Y209.300 E1106.2481
G1 X366.939 Y209.300 E1123.2433
G1 X366.939 Y208.900 E1123.2673
G1 X83.061 Y208.900 E1140.2625
G1 X83.061 Y208.500 E1140.2865
G1 X366.939 Y208.500 E1157.2817
G1 X366.939 Y208.100 E1157.3057
G1 X83.061 Y208.100 E1174.3009
G1 X83.061 Y207.700 E1174.3249
G1 X366.939 Y207.700 E1191.3201
G1 X366.939 Y207.300 E1191.3441
G1 X83.061 Y207.300 E1208.3393
G1 X83.061 Y206.900 E1208.3633
G1 X366.939 Y206.900 E1225.3585
G1 X366.939 Y206.500 E1225.3825
G1 X83.061 Y206.500 E1242.3777
G1 X83.061 Y206.100 E1242.4017
G1 X366.939 Y206.100 E1259.3969
G1 X366.939 Y205.700 E1259.4209
G1 X83.061 Y205.700 E1276.4161
G1 X83.061 Y205.300 E1276.4401
G1 X366.939 Y205.300 E1293.4353
G1 X366.939 Y204.900 E1293.4593
G1 X83.061 Y204.900 E1310.4545
G1 X83.061 Y204.500 E1310.4785
G1 X366.939 Y204.500 E1327.4737
G1 X366.939 Y204.100 E1327.4977
G1 X83.061 Y204.100 E1344.4929
G1 X83.061 Y203.700 E1344.5169
G1 X366.939 Y203.700 E1361.5121
G1 X366.939 Y203.300 E1361.5361
G1 X83.061 Y203.300 E1378.5313
G1 X83.061 Y202.900 E1378.5553
G1 X366.939 Y202.900 E1395.5505
G1 X366.939 Y202.500 E1395.5745
G1 X83.061 Y202.500 E1412.5697
G1 X83.061 Y202.100 E1412.5937
G1 X366.939 Y202.100 E1429.5889
G1 X366.939 Y201.700 E1429.6129
G1 X83.061 Y201.700 E1446.6081
G1 X83.061 Y201.300 E1446.6321
G1 X366.939 Y201.300 E1463.6273
G1 X366.939 Y200.900 E1463.6513
G1 X83.061 Y200.900 E1480.6465
G1 X83.061 Y200.500 E1480.6705
G1 X366.939 Y200.500 E1497.6657
G1 X366.939 Y200.100 E1497.6897
G1 X83.061 Y200.100 E1514.6849
G1 X83.061 Y199.700 E1514.7089
G1 X366.939 Y199.700 E1531.7041
G1 X366.939 Y199.300 E1531.7281
G1 X83.061 Y199.300 E1548.7233
G1 X83.061 Y198.900 E1548.7473
G1 X366.939 Y198.900 E1565.7426
G1 X366.939 Y198.500 E1565.7665
G1 X83.061 Y198.500 E1582.7618
G1 X83.061 Y198.100 E1582.7857
G1 X366.939 Y198.100 E1599.7810
G1 X366.939 Y197.700 E1599.8049
G1 X83.061 Y197.700 E1616.8002
G1 X83.061 Y197.300 E1616.8241
G1 X366.939 Y197.300 E1633.8194
G1 X366.939 Y196.900 E1633.8433
G1 X83.061 Y196.900 E1650.8386
G1 X83.061 Y196.500 E1650.8625
G1 X366.939 Y196.500 E1667.8578
G1 X366.939 Y196.100 E1667.8817
G1 X83.061 Y196.100 E1684.8770
G1 X83.061 Y195.700 E1684.9009
G1 X366.939 Y195.700 E1701.8962
G1 X366.939 Y195.300 E1701.9201
G1 X83.061 Y195.300 E1718.9154
G1 X83.061 Y194.900 E1718.9393
G1 X366.939 Y194.900 E1735.9346
G1 X366.939 Y194.500 E1735.9585
G1 X83.061 Y194.500 E1752.9538
G1 X83.061 Y194.100 E1752.9777
G1 X366.939 Y194.100 E1769.9730
G1 X366.939 Y193.700 E1769.9969
G1 X83.061 Y193.700 E1786.9922
G1 X83.061 Y193.300 E1787.0161
G1 X366.939 Y193.300 E1804.0114
G1 X366.939 Y192.900 E1804.0353
G1 X83.061 Y192.900 E1821.0306
G1 X83.061 Y192.500 E1821.0545
G1 X366.939 Y192.500 E1838.0498
G1 X366.939 Y192.100 E1838.0737
G1 X83.061 Y192.100 E1855.0690
G1 X83.061 Y191.700 E1855.0929
G1 X366.939 Y191.700 E1872.0882
G1 X366.939 Y191.300 E1872.1121
G1 X83.061 Y191.300 E1889.1074
G1 X83.061 Y190.900 E1889.1313
G1 X366.939 Y190.900 E1906.1266
G1 X366.939 Y190.500 E1906.1505
G1 X83.061 Y190.500 E1923.1458
G1 X83.061 Y190.100 E1923.1697
G1 X366.939 Y190.100 E1940.1650
G1 X366.939 Y189.700 E1940.1889
G1 X83.061 Y189.700 E1957.1842
G92 E0
G1 E-3.0000 F3000
; layer 2, Z = 0.600
; tool H0.200 W0.400
; outer perimeter
G1 X367.639 Y236.300 F29940
G1 Z0.600 F600
G1 E0.2000 F3000
G92 E0
G1 X82.361 Y236.300 E8.5395 F3600
G1 X82.361 Y188.700 E9.9644
G1 X367.639 Y188.700 E18.5039
G1 X367.639 Y236.300 E19.9288
; inner perimeter
G1 X367.239 Y235.900 F29940
G92 E0
G1 X82.761 Y235.900 E8.5156 F3600
G1 X82.761 Y189.100 E9.9165
G1 X367.239 Y189.100 E18.4321
G1 X367.239 Y235.900 E19.8330
; solid layer
G1 X366.939 Y235.300 F29940
G92 E0
G1 X83.061 Y235.300 E8.4976 F3600
G1 X83.061 Y234.900 E8.5096
G1 X366.939 Y234.900 E17.0072
G1 X366.939 Y234.500 E17.0192
G1 X83.061 Y234.500 E25.5168
G1 X83.061 Y234.100 E25.5288
G1 X366.939 Y234.100 E34.0264
G1 X366.939 Y233.700 E34.0384
G1 X83.061 Y233.700 E42.5360
G1 X83.061 Y233.300 E42.5480
G1 X366.939 Y233.300 E51.0456
G1 X366.939 Y232.900 E51.0576
G1 X83.061 Y232.900 E59.5552
G1 X83.061 Y232.500 E59.5672
G1 X366.939 Y232.500 E68.0648
G1 X366.939 Y232.100 E68.0768
G1 X83.061 Y232.100 E76.5744
G1 X83.061 Y231.700 E76.5864
G1 X366.939 Y231.700 E85.0840
G1 X366.939 Y231.300 E85.0960
G1 X83.061 Y231.300 E93.5936
G1 X83.061 Y230.900 E93.6056
G1 X366.939 Y230.900 E102.1032
G1 X366.939 Y230.500 E102.1152
G1 X83.061 Y230.500 E110.6128
G1 X83.061 Y230.100 E110.6248
G1 X366.939 Y230.100 E119.1224
G1 X366.939 Y229.700 E119.1344
G1 X83.061 Y229.700 E127.6320
G1 X83.061 Y229.300 E127.6440
G1 X366.939 Y229.300 E136.1416
G1 X366.939 Y228.900 E136.1536
G1 X83.061 Y228.900 E144.6512
G1 X83.061 Y228.500 E144.6632
G1 X366.939 Y228.500 E153.1608
G1 X366.939 Y228.100 E153.1728
G1 X83.061 Y228.100 E161.6704
G1 X83.061 Y227.700 E161.6824
G1 X366.939 Y227.700 E170.1800
G1 X366.939 Y227.300 E170.1920
G1 X83.061 Y227.300 E178.6896
G1 X83.061 Y226.900 E178.7016
G1 X366.939 Y226.900 E187.1992
G1 X366.939 Y226.500 E187.2112
G1 X83.061 Y226.500 E195.7088
G1 X83.061 Y226.100 E195.7208
G1 X366.939 Y226.100 E204.2184
G1 X366.939 Y225.700 E204.2304
G1 X83.061 Y225.700 E212.7280
G1 X83.061 Y225.300 E212.7400
G1 X366.939 Y225.300 E221.2376
G1 X366.939 Y224.900 E221.2496
G1 X83.061 Y224.900 E229.7472
G1 X83.061 Y224.500 E229.7592
G1 X366.939 Y224.500 E238.2568
G1 X366.939 Y224.100 E238.2688
G1 X83.061 Y224.100 E246.7664
G1 X83.061 Y223.700 E246.7784
G1 X366.939 Y223.700 E255.2760
G1 X366.939 Y223.300 E255.2880
G1 X83.061 Y223.300 E263.7856
G1 X83.061 Y222.900 E263.7976
