; G-Code generated by Simplify3D(R) Version 4.0.1
; Feb 28, 2019 at 1:47:46 PM
; Settings Summary
;   processName,Process1
;   applyToModels,ex02_r454_flatten
;   profileName,AON3D (modified)
;   profileVersion,2019-02-28 13:30:49
;   baseProfile,Generic Dual Extrusion Profile
;   printMaterial,PLA
;   printQuality,
;   printExtruders,T1/Right Extruder Only
;   extruderName,T0/Left Extruder,T1/Right Extruder
;   extruderToolheadNumber,0,1
;   extruderDiameter,0.4,0.4
;   extruderAutoWidth,1,0
;   extruderWidth,0.48,0.4
;   extrusionMultiplier,1,0.9
;   extruderUseRetract,1,1
;   extruderRetractionDistance,2,3
;   extruderExtraRestartDistance,0.2,0.2
;   extruderRetractionZLift,0,0
;   extruderRetractionSpeed,3000,3000
;   extruderUseCoasting,1,0
;   extruderCoastingDistance,0.2,0.2
;   extruderUseWipe,0,0
;   extruderWipeDistance,2,2
;   primaryExtruder,1
;   layerHeight,0.2
;   topSolidLayers,2
;   bottomSolidLayers,2
;   perimeterOutlines,2
;   printPerimetersInsideOut,0
;   startPointOption,1
;   startPointOriginX,0
;   startPointOriginY,0
;   sequentialIslands,0
;   spiralVaseMode,0
;   firstLayerHeightPercentage,200
;   firstLayerWidthPercentage,100
;   firstLayerUnderspeed,0.5
;   useRaft,0
;   raftExtruder,1
;   raftTopLayers,2
;   raftBaseLayers,1
;   raftOffset,2
;   raftSeparationDistance,0
;   raftTopInfill,100
;   aboveRaftSpeedMultiplier,0.3
;   useSkirt,0
;   skirtExtruder,1
;   skirtLayers,1
;   skirtOutlines,2
;   skirtOffset,4
;   usePrimePillar,0
;   primePillarExtruder,999
;   primePillarWidth,12
;   primePillarLocation,7
;   primePillarSpeedMultiplier,1
;   useOozeShield,0
;   oozeShieldExtruder,999
;   oozeShieldOffset,2
;   oozeShieldOutlines,1
;   oozeShieldSidewallShape,1
;   oozeShieldSidewallAngle,30
;   oozeShieldSpeedMultiplier,1
;   infillExtruder,1
;   internalInfillPattern,Grid
;   externalInfillPattern,Rectilinear
;   infillPercentage,10
;   outlineOverlapPercentage,25
;   infillExtrusionWidthPercentage,100
;   minInfillLength,5
;   infillLayerInterval,1
;   internalInfillAngles,45,-45
;   overlapInternalInfillAngles,0
;   externalInfillAngles,0
;   generateSupport,0
;   supportExtruder,1
;   supportInfillPercentage,20
;   supportExtraInflation,0.5
;   supportBaseLayers,0
;   denseSupportExtruder,1
;   denseSupportLayers,3
;   denseSupportInfillPercentage,75
;   supportLayerInterval,1
;   supportHorizontalPartOffset,0
;   supportUpperSeparationLayers,1
;   supportLowerSeparationLayers,0
;   supportType,1
;   supportGridSpacing,2
;   maxOverhangAngle,35
;   supportAngles,45,-45
;   temperatureName,T0/Left Extruder,T1/Right Extruder,T2/Heated Chamber,Heated Bed
;   temperatureNumber,0,1,2,0
;   temperatureSetpointCount,1,1,1,1
;   temperatureSetpointLayers,1,1,1,1
;   temperatureSetpointTemperatures,0,210,0,60
;   temperatureStabilizeAtStartup,0,0,0,0
;   temperatureHeatedBed,0,0,0,1
;   temperatureRelayBetweenLayers,0,0,0,0
;   temperatureRelayBetweenLoops,0,0,0,0
;   fanLayers,1
;   fanSpeeds,0
;   blipFanToFullPower,1
;   adjustSpeedForCooling,1
;   minSpeedLayerTime,15
;   minCoolingSpeedSlowdown,20
;   increaseFanForCooling,0
;   minFanLayerTime,45
;   maxCoolingFanSpeed,100
;   increaseFanForBridging,1
;   bridgingFanSpeed,100
;   use5D,1
;   relativeEdistances,0
;   allowEaxisZeroing,1
;   independentExtruderAxes,0
;   includeM10123,0
;   stickySupport,1
;   applyToolheadOffsets,0
;   gcodeXoffset,0
;   gcodeYoffset,0
;   gcodeZoffset,0
;   overrideMachineDefinition,1
;   machineTypeOverride,0
;   strokeXoverride,450
;   strokeYoverride,425
;   strokeZoverride,620
;   originOffsetXoverride,0
;   originOffsetYoverride,0
;   originOffsetZoverride,0
;   homeXdirOverride,-1
;   homeYdirOverride,-1
;   homeZdirOverride,-1
;   flipXoverride,1
;   flipYoverride,-1
;   flipZoverride,1
;   toolheadOffsets,0,0|0,0|0,0|0,0|0,0|0,0
;   overrideFirmwareConfiguration,1
;   firmwareTypeOverride,RepRap (Marlin/Repetier/Sprinter)
;   GPXconfigOverride,r2
;   baudRateOverride,115200
;   overridePrinterModels,1
;   printerModelsOverride
;   startingGcode,;start,T1 ;activate T1,G28 ;home all axes,G92 E0,G1 E10 F200 ;purge 10mm,G92 E0 ;reset extruder,
;   layerChangeGcode,
;   retractionGcode,
;   toolChangeGcode,
;   endingGcode,G28 X ;move toolheads,M104 T0 S0 ;turn off T0 heater,M104 T1 S0 ;turn off T1 heater,M104 T2 S0 ;turn off chamber heater,M140 S0 ;turn off bed,M84 ;disable motors
;   exportFileFormat,gcode
;   celebration,0
;   celebrationSong,Random Song
;   postProcessing,
;   defaultSpeed,3600
;   outlineUnderspeed,1
;   solidInfillUnderspeed,1
;   supportUnderspeed,0.5
;   rapidXYspeed,29940
;   rapidZspeed,600
;   minBridgingArea,50
;   bridgingExtraInflation,0.5
;   bridgingExtrusionMultiplier,1
;   bridgingSpeedMultiplier,1
;   useFixedBridgingAngle,0
;   fixedBridgingAngle,0
;   applyBridgingToPerimeters,0
;   filamentDiameters,1.75|1.75|1.75|1.75|1.75|1.75
;   filamentPricesPerKg,15|15|15|15|15|15
;   filamentDensities,1.25|1.25|1.25|1.25|1.25|1.25
;   useMinPrintHeight,0
;   minPrintHeight,0
;   useMaxPrintHeight,0
;   maxPrintHeight,0
;   useDiaphragm,0
;   diaphragmLayerInterval,20
;   robustSlicing,1
;   mergeAllIntoSolid,0
;   onlyRetractWhenCrossingOutline,0
;   retractBetweenLayers,0
;   useRetractionMinTravel,1
;   retractionMinTravel,3
;   retractWhileWiping,1
;   onlyWipeOutlines,1
;   avoidCrossingOutline,0
;   maxMovementDetourFactor,3
;   toolChangeRetractionDistance,0.2
;   toolChangeExtraRestartDistance,0.5
;   toolChangeRetractionSpeed,4200
;   externalThinWallType,1
;   internalThinWallType,2
;   thinWallAllowedOverlapPercentage,10
;   singleExtrusionMinLength,1.6
;   singleExtrusionMinPrintingWidthPercentage,50
;   singleExtrusionMaxPrintingWidthPercentage,200
;   singleExtrusionEndpointExtension,0.2
;   horizontalSizeCompensation,0
G90
M82
M106 S255
G4 P500
M106 S0
M140 S60
M104 S0 T0
M104 S210 T1
M104 S0 T2
;start
T1 ;activate T1
G28 ;home all axes
G92 E0
G1 E10 F200 ;purge 10mm
G92 E0 ;reset extruder
G92 E0
G1 E-3.0000 F3000
G1 Z0.400 F600
; process Process1
; layer 1, Z = 0.400
T1
; tool H0.400 W0.400
; outer perimeter
G1 X361.2279 Y188.7000 Z36.8487 F29940
G1 E0.2000 F900
G92 E0
G1 X361.2279 Y198.7000 Z36.8487 E0.5987
G1 X361.2279 Y208.7000 Z36.8487 E1.1974
G1 X361.2279 Y218.7000 Z36.8487 E1.7960
G1 X361.2279 Y228.7000 Z36.8487 E2.3947
G1 X361.2279 Y236.3000 Z36.8487 E2.8497 F1800
G1 X352.4744 Y236.3000 Z32.0149 E3.4483
G1 X343.5497 Y236.3000 Z27.5052 E4.0470
G1 X334.4657 Y236.3000 Z23.3256 E4.6456
G1 X325.2345 Y236.3000 Z19.4817 E5.2443
G1 X315.8688 Y236.3000 Z15.9788 E5.8429
G1 X306.3809 Y236.3000 Z12.8214 E6.4416
G1 X296.7837 Y236.3000 Z10.0138 E7.0402
G1 X287.0900 Y236.3000 Z7.5598 E7.6389
G1 X277.3130 Y236.3000 Z5.4628 E8.2375
G1 X267.4656 Y236.3000 Z3.7255 E8.8362
G1 X257.5612 Y236.3000 Z2.3502 E9.4348
G1 X247.6130 Y236.3000 Z1.3388 E10.0335
G1 X237.6345 Y236.3000 Z0.6927 E10.6321
G1 X227.6390 Y236.3000 Z0.4128 E11.2308
G1 X217.6399 Y236.3000 Z0.4993 E11.8294
G1 X207.6507 Y236.3000 Z0.9522 E12.4281
G1 X197.6848 Y236.3000 Z1.7710 E13.0267
G1 X187.7557 Y236.3000 Z2.9544 E13.6254
G1 X177.8766 Y236.3000 Z4.5008 E14.2240
G1 X168.0607 Y236.3000 Z6.4083 E14.8227
G1 X158.3214 Y236.3000 Z8.6743 E15.4213
G1 X148.6717 Y236.3000 Z11.2957 E16.0200
G1 X139.1245 Y236.3000 Z14.2689 E16.6186
G1 X129.6927 Y236.3000 Z17.5901 E17.2173
G1 X120.3890 Y236.3000 Z21.2547 E17.8159
G1 X111.2258 Y236.3000 Z25.2577 E18.4146
G1 X102.2155 Y236.3000 Z29.5939 E19.0132
G1 X93.3701 Y236.3000 Z34.2575 E19.6119
G1 X88.7721 Y236.3000 Z36.8487 E19.9279
G1 X88.7721 Y226.3000 Z36.8487 E20.5265
G1 X88.7721 Y216.3000 Z36.8487 E21.1252
G1 X88.7721 Y206.3000 Z36.8487 E21.7239
G1 X88.7721 Y196.3000 Z36.8487 E22.3226
G1 X88.7721 Y188.7000 Z36.8487 E22.7776
G1 X97.5256 Y188.7000 Z32.0149 E23.3762
G1 X106.4503 Y188.7000 Z27.5052 E23.9749
G1 X115.5343 Y188.7000 Z23.3256 E24.5735
G1 X124.7655 Y188.7000 Z19.4817 E25.1722
G1 X134.1312 Y188.7000 Z15.9788 E25.7708
G1 X143.6191 Y188.7000 Z12.8214 E26.3695
G1 X153.2163 Y188.7000 Z10.0138 E26.9681
G1 X162.9100 Y188.7000 Z7.5598 E27.5667
G1 X172.6870 Y188.7000 Z5.4628 E28.1654
G1 X182.5344 Y188.7000 Z3.7255 E28.7640
G1 X192.4388 Y188.7000 Z2.3502 E29.3627
G1 X202.3870 Y188.7000 Z1.3388 E29.9613
G1 X212.3655 Y188.7000 Z0.6927 E30.5600
G1 X222.3610 Y188.7000 Z0.4128 E31.1586
G1 X232.3601 Y188.7000 Z0.4993 E31.7573
G1 X242.3493 Y188.7000 Z0.9522 E32.3559
G1 X252.3152 Y188.7000 Z1.7710 E32.9546
G1 X262.2443 Y188.7000 Z2.9544 E33.5532
G1 X272.1234 Y188.7000 Z4.5008 E34.1519
G1 X281.9393 Y188.7000 Z6.4083 E34.7505
G1 X291.6786 Y188.7000 Z8.6743 E35.3492
G1 X301.3283 Y188.7000 Z11.2957 E35.9478
G1 X310.8755 Y188.7000 Z14.2689 E36.5465
G1 X320.3073 Y188.7000 Z17.5901 E37.1451
G1 X329.6110 Y188.7000 Z21.2547 E37.7438
G1 X338.7742 Y188.7000 Z25.2577 E38.3424
G1 X347.7845 Y188.7000 Z29.5939 E38.9411
G1 X356.6299 Y188.7000 Z34.2575 E39.5397
G1 X361.2279 Y188.7000 Z36.8487 E39.8557
; inner perimeter
G1 X360.8812 Y189.1000 Z36.6492 F29940
G92 E0
G1 X360.8812 Y199.1000 Z36.6492 E0.5987
G1 X360.8812 Y209.1000 Z36.6492 E1.1974
G1 X360.8812 Y219.1000 Z36.6492 E1.7960
G1 X360.8812 Y229.1000 Z36.6492 E2.3947
G1 X360.8812 Y235.9000 Z36.6492 E2.8018 F1800
G1 X352.1207 Y235.9000 Z31.8283 E3.4004
G1 X343.1893 Y235.9000 Z27.3317 E3.9991
G1 X334.0992 Y235.9000 Z23.1654 E4.5977
G1 X324.8624 Y235.9000 Z19.3350 E5.1964
G1 X315.4915 Y235.9000 Z15.8458 E5.7950
G1 X305.9990 Y235.9000 Z12.7023 E6.3937
G1 X296.3977 Y235.9000 Z9.9088 E6.9923
G1 X286.7005 Y235.9000 Z7.4691 E7.5910
G1 X276.9203 Y235.9000 Z5.3864 E8.1896
G1 X267.0704 Y235.9000 Z3.6635 E8.7883
G1 X257.1640 Y235.9000 Z2.3027 E9.3869
G1 X247.2144 Y235.9000 Z1.3060 E9.9856
G1 X237.2349 Y235.9000 Z0.6745 E10.5842
G1 X227.2390 Y235.9000 Z0.4092 E11.1829
G1 X217.2400 Y235.9000 Z0.5104 E11.7815
G1 X207.2515 Y235.9000 Z0.9780 E12.3802
G1 X197.2869 Y235.9000 Z1.8113 E12.9788
G1 X187.3595 Y235.9000 Z3.0093 E13.5775
G1 X177.4826 Y235.9000 Z4.5702 E14.1761
G1 X167.6696 Y235.9000 Z6.4921 E14.7748
G1 X157.9336 Y235.9000 Z8.7724 E15.3734
G1 X148.2878 Y235.9000 Z11.4079 E15.9721
G1 X138.7450 Y235.9000 Z14.3951 E16.5707
G1 X129.3180 Y235.9000 Z17.7301 E17.1694
G1 X120.0197 Y235.9000 Z21.4083 E17.7680
G1 X110.8624 Y235.9000 Z25.4248 E18.3667
G1 X101.8584 Y235.9000 Z29.7742 E18.9653
G1 X93.0199 Y235.9000 Z34.4507 E19.5640
G1 X89.1188 Y235.9000 Z36.6492 E19.8321
G1 X89.1188 Y225.9000 Z36.6492 E20.4307
G1 X89.1188 Y215.9000 Z36.6492 E21.0294
G1 X89.1188 Y205.9000 Z36.6492 E21.6281
G1 X89.1188 Y195.9000 Z36.6492 E22.2268
G1 X89.1188 Y189.1000 Z36.6492 E22.6339
G1 X97.8793 Y189.1000 Z31.8283 E23.2325
G1 X106.8107 Y189.1000 Z27.3317 E23.8312
G1 X115.9008 Y189.1000 Z23.1654 E24.4298
G1 X125.1376 Y189.1000 Z19.3350 E25.0285
G1 X134.5085 Y189.1000 Z15.8458 E25.6271
G1 X144.0010 Y189.1000 Z12.7023 E26.2258
G1 X153.6023 Y189.1000 Z9.9088 E26.8244
G1 X163.2995 Y189.1000 Z7.4691 E27.4231
G1 X173.0797 Y189.1000 Z5.3864 E28.0217
G1 X182.9296 Y189.1000 Z3.6635 E28.6203
G1 X192.8360 Y189.1000 Z2.3027 E29.2190
G1 X202.7856 Y189.1000 Z1.3060 E29.8176
G1 X212.7651 Y189.1000 Z0.6745 E30.4163
G1 X222.7610 Y189.1000 Z0.4092 E31.0149
G1 X232.7600 Y189.1000 Z0.5104 E31.6136
G1 X242.7485 Y189.1000 Z0.9780 E32.2122
G1 X252.7131 Y189.1000 Z1.8113 E32.8109
G1 X262.6405 Y189.1000 Z3.0093 E33.4095
G1 X272.5174 Y189.1000 Z4.5702 E34.0082
G1 X282.3304 Y189.1000 Z6.4921 E34.6068
G1 X292.0664 Y189.1000 Z8.7724 E35.2055
G1 X301.7122 Y189.1000 Z11.4079 E35.8041
G1 X311.2550 Y189.1000 Z14.3951 E36.4028
G1 X320.6820 Y189.1000 Z17.7301 E37.0014
G1 X329.9803 Y189.1000 Z21.4083 E37.6001
G1 X339.1376 Y189.1000 Z25.4248 E38.1987
G1 X348.1416 Y189.1000 Z29.7742 E38.7974
G1 X356.9801 Y189.1000 Z34.4507 E39.3960
G1 X360.8812 Y189.1000 Z36.6492 E39.6641
G92 E0
G1 E-3.0000 F3000
; solid layer
G1 X360.8249 Y199.0998 Z36.6169
G1 X360.7686 Y209.0996 Z36.5846
G1 X360.7123 Y219.0994 Z36.5522
G1 X360.6560 Y229.0992 Z36.5199
G1 X360.6210 Y235.3000 Z36.4999 F29940
G1 E0.2000 F3000
G92 E0
G1 X351.8552 Y235.3000 Z31.6886 E0.5986
G1 X342.9189 Y235.3000 Z27.2018 E1.1973
G1 X333.8241 Y235.3000 Z23.0456 E1.7959
G1 X324.5832 Y235.3000 Z19.2254 E2.3946
G1 X315.2084 Y235.3000 Z15.7464 E2.9932
G1 X305.7125 Y235.3000 Z12.6134 E3.5919
G1 X296.1081 Y235.3000 Z9.8305 E4.1905
G1 X286.4082 Y235.3000 Z7.4014 E4.7892
G1 X276.6258 Y235.3000 Z5.3294 E5.3878
G1 X266.7740 Y235.3000 Z3.6174 E5.9865
G1 X256.8661 Y235.3000 Z2.2675 E6.5851
G1 X246.9154 Y235.3000 Z1.2817 E7.1838
G1 X236.9352 Y235.3000 Z0.6612 E7.7824
G1 X226.9390 Y235.3000 Z0.4069 E8.3811
G1 X216.9402 Y235.3000 Z0.5191 E8.9797
G1 X206.9522 Y235.3000 Z0.9977 E9.5784
G1 X196.9885 Y235.3000 Z1.8419 E10.1770
G1 X187.0624 Y235.3000 Z3.0508 E10.7757
G1 X177.1872 Y235.3000 Z4.6226 E11.3743
G1 X167.3763 Y235.3000 Z6.5553 E11.9730
G1 X157.6429 Y235.3000 Z8.8463 E12.5716
G1 X147.9999 Y235.3000 Z11.4924 E13.1703
G1 X138.4604 Y235.3000 Z14.4901 E13.7689
G1 X129.0371 Y235.3000 Z17.8355 E14.3676
G1 X119.7428 Y235.3000 Z21.5239 E14.9662
G1 X110.5899 Y235.3000 Z25.5505 E15.5649
G1 X101.5908 Y235.3000 Z29.9098 E16.1635
G1 X92.7574 Y235.3000 Z34.5960 E16.7622
G1 X89.3790 Y235.3000 Z36.4999 E16.9944 F1800
G1 X89.3790 Y234.9000 Z36.4999 E17.0183
G1 X98.1448 Y234.9000 Z31.6886 E17.6169
G1 X107.0811 Y234.9000 Z27.2018 E18.2156
G1 X116.1759 Y234.9000 Z23.0456 E18.8142
G1 X125.4168 Y234.9000 Z19.2254 E19.4129
G1 X134.7916 Y234.9000 Z15.7464 E20.0115
G1 X144.2875 Y234.9000 Z12.6134 E20.6102
G1 X153.8919 Y234.9000 Z9.8305 E21.2088
G1 X163.5918 Y234.9000 Z7.4014 E21.8075
G1 X173.3742 Y234.9000 Z5.3294 E22.4061
G1 X183.2260 Y234.9000 Z3.6174 E23.0048
G1 X193.1339 Y234.9000 Z2.2675 E23.6034
G1 X203.0846 Y234.9000 Z1.2817 E24.2021
G1 X213.0648 Y234.9000 Z0.6612 E24.8007
G1 X223.0610 Y234.9000 Z0.4069 E25.3994
G1 X233.0598 Y234.9000 Z0.5191 E25.9980
G1 X243.0478 Y234.9000 Z0.9977 E26.5967
G1 X253.0115 Y234.9000 Z1.8419 E27.1953
G1 X262.9376 Y234.9000 Z3.0508 E27.7940
G1 X272.8128 Y234.9000 Z4.6226 E28.3926
G1 X282.6237 Y234.9000 Z6.5553 E28.9913
G1 X292.3571 Y234.9000 Z8.8463 E29.5899
G1 X302.0001 Y234.9000 Z11.4924 E30.1886
G1 X311.5396 Y234.9000 Z14.4901 E30.7872
G1 X320.9629 Y234.9000 Z17.8355 E31.3859
G1 X330.2572 Y234.9000 Z21.5239 E31.9845
G1 X339.4101 Y234.9000 Z25.5505 E32.5832
G1 X348.4092 Y234.9000 Z29.9098 E33.1818
G1 X357.2426 Y234.9000 Z34.5960 E33.7805
G1 X360.6210 Y234.9000 Z36.4999 E34.0126
G1 X360.6210 Y234.5000 Z36.4999 E34.0365
G1 X351.8552 Y234.5000 Z31.6886 E34.6352
G1 X342.9189 Y234.5000 Z27.2018 E35.2338
G1 X333.8241 Y234.5000 Z23.0456 E35.8325
G1 X324.5832 Y234.5000 Z19.2254 E36.4311
G1 X315.2084 Y234.5000 Z15.7464 E37.0298
G1 X305.7125 Y234.5000 Z12.6134 E37.6284
G1 X296.1081 Y234.5000 Z9.8305 E38.2271
G1 X286.4082 Y234.5000 Z7.4014 E38.8257
G1 X276.6258 Y234.5000 Z5.3294 E39.4244
G1 X266.7740 Y234.5000 Z3.6174 E40.0230
G1 X256.8661 Y234.5000 Z2.2675 E40.6217
G1 X246.9154 Y234.5000 Z1.2817 E41.2203
G1 X236.9352 Y234.5000 Z0.6612 E41.8190
G1 X226.9390 Y234.5000 Z0.4069 E42.4176
G1 X216.9402 Y234.5000 Z0.5191 E43.0163
G1 X206.9522 Y234.5000 Z0.9977 E43.6149
G1 X196.9885 Y234.5000 Z1.8419 E44.2136
G1 X187.0624 Y234.5000 Z3.0508 E44.8122
G1 X177.1872 Y234.5000 Z4.6226 E45.4109
G1 X167.3763 Y234.5000 Z6.5553 E46.0095
G1 X157.6429 Y234.5000 Z8.8463 E46.6082
G1 X147.9999 Y234.5000 Z11.4924 E47.2068
G1 X138.4604 Y234.5000 Z14.4901 E47.8055
G1 X129.0371 Y234.5000 Z17.8355 E48.4041
G1 X119.7428 Y234.5000 Z21.5239 E49.0028
G1 X110.5899 Y234.5000 Z25.5505 E49.6014
G1 X101.5908 Y234.5000 Z29.9098 E50.2001
G1 X92.7574 Y234.5000 Z34.5960 E50.7987
G1 X89.3790 Y234.5000 Z36.4999 E51.0309
G1 X89.3790 Y234.1000 Z36.4999 E51.0548
G1 X98.1448 Y234.1000 Z31.6886 E51.6534
G1 X107.0811 Y234.1000 Z27.2018 E52.2521
G1 X116.1759 Y234.1000 Z23.0456 E52.8507
G1 X125.4168 Y234.1000 Z19.2254 E53.4494
G1 X134.7916 Y234.1000 Z15.7464 E54.0480
G1 X144.2875 Y234.1000 Z12.6134 E54.6467
G1 X153.8919 Y234.1000 Z9.8305 E55.2453
G1 X163.5918 Y234.1000 Z7.4014 E55.8440
G1 X173.3742 Y234.1000 Z5.3294 E56.4426
G1 X183.2260 Y234.1000 Z3.6174 E57.0413
G1 X193.1339 Y234.1000 Z2.2675 E57.6399
