; G-Code generated by Simplify3D(R) Version 4.0.1
; Feb 28, 2019 at 1:49:03 PM
; Settings Summary
;   processName,Process1
;   applyToModels,ex03_right_r600_flatten
;   profileName,Raise3D Pro2 (modified)
;   profileVersion,2019-02-28 13:33:34
;   baseProfile,
;   printMaterial,PLA
;   printQuality,High
;   printExtruders,Left Extruder Only
;   extruderName,Right Extruder,Left Extruder
;   extruderToolheadNumber,1,0
;   extruderDiameter,0.4,0.4
;   extruderAutoWidth,0,0
;   extruderWidth,0.4,0.4
;   extrusionMultiplier,1,0.9
;   extruderUseRetract,1,1
;   extruderRetractionDistance,2,3
;   extruderExtraRestartDistance,0,0
;   extruderRetractionZLift,0,0
;   extruderRetractionSpeed,2400,2400
;   extruderUseCoasting,0,0
;   extruderCoastingDistance,0.2,0.4
;   extruderUseWipe,0,0
;   extruderWipeDistance,5,5
;   primaryExtruder,1
;   layerHeight,0.2
;   topSolidLayers,2
;   bottomSolidLayers,2
;   perimeterOutlines,1
;   printPerimetersInsideOut,0
;   startPointOption,1
;   startPointOriginX,0
;   startPointOriginY,0
;   sequentialIslands,0
;   spiralVaseMode,0
;   firstLayerHeightPercentage,200
;   firstLayerWidthPercentage,100
;   firstLayerUnderspeed,0.5
;   useRaft,0
;   raftExtruder,1
;   raftTopLayers,2
;   raftBaseLayers,2
;   raftOffset,3
;   raftSeparationDistance,0.14
;   raftTopInfill,100
;   aboveRaftSpeedMultiplier,0.3
;   useSkirt,0
;   skirtExtruder,1
;   skirtLayers,1
;   skirtOutlines,2
;   skirtOffset,4
;   usePrimePillar,0
;   primePillarExtruder,999
;   primePillarWidth,7
;   primePillarLocation,5
;   primePillarSpeedMultiplier,1
;   useOozeShield,0
;   oozeShieldExtruder,999
;   oozeShieldOffset,3
;   oozeShieldOutlines,1
;   oozeShieldSidewallShape,1
;   oozeShieldSidewallAngle,30
;   oozeShieldSpeedMultiplier,1
;   infillExtruder,1
;   internalInfillPattern,Rectilinear
;   externalInfillPattern,Rectilinear
;   infillPercentage,10
;   outlineOverlapPercentage,0
;   infillExtrusionWidthPercentage,100
;   minInfillLength,0
;   infillLayerInterval,1
;   internalInfillAngles,45,-45
;   overlapInternalInfillAngles,0
;   externalInfillAngles,45,45
;   generateSupport,0
;   supportExtruder,1
;   supportInfillPercentage,40
;   supportExtraInflation,0
;   supportBaseLayers,0
;   denseSupportExtruder,1
;   denseSupportLayers,0
;   denseSupportInfillPercentage,70
;   supportLayerInterval,1
;   supportHorizontalPartOffset,0.3
;   supportUpperSeparationLayers,1
;   supportLowerSeparationLayers,1
;   supportType,0
;   supportGridSpacing,4
;   maxOverhangAngle,45
;   supportAngles,45,-45
;   temperatureName,Right Extruder,Left Extruder,Heated Bed
;   temperatureNumber,1,0,2
;   temperatureSetpointCount,1,1,1
;   temperatureSetpointLayers,1,1,1
;   temperatureSetpointTemperatures,0,210,60
;   temperatureStabilizeAtStartup,0,1,1
;   temperatureHeatedBed,0,0,1
;   temperatureRelayBetweenLayers,0,0,0
;   temperatureRelayBetweenLoops,0,0,0
;   fanLayers,1,2
;   fanSpeeds,0,60
;   blipFanToFullPower,1
;   adjustSpeedForCooling,1
;   minSpeedLayerTime,15
;   minCoolingSpeedSlowdown,20
;   increaseFanForCooling,0
;   minFanLayerTime,45
;   maxCoolingFanSpeed,100
;   increaseFanForBridging,0
;   bridgingFanSpeed,100
;   use5D,1
;   relativeEdistances,0
;   allowEaxisZeroing,1
;   independentExtruderAxes,0
;   includeM10123,0
;   stickySupport,1
;   applyToolheadOffsets,0
;   gcodeXoffset,0
;   gcodeYoffset,0
;   gcodeZoffset,0
;   overrideMachineDefinition,1
;   machineTypeOverride,0
;   strokeXoverride,280
;   strokeYoverride,305
;   strokeZoverride,300
;   originOffsetXoverride,-25
;   originOffsetYoverride,0
;   originOffsetZoverride,0
;   homeXdirOverride,-1
;   homeYdirOverride,-1
;   homeZdirOverride,-1
;   flipXoverride,1
;   flipYoverride,-1
;   flipZoverride,1
;   toolheadOffsets,0,0|-25,0|0,0|0,0|0,0|0,0
;   overrideFirmwareConfiguration,1
;   firmwareTypeOverride,RepRap (Marlin/Repetier/Sprinter)
;   GPXconfigOverride,r2
;   baudRateOverride,230400
;   overridePrinterModels,1
;   printerModelsOverride
;   startingGcode,M221 T0 S100,G28 X0 Y0,G28 Z0,T0,G1 X5 Y5 Z0.2 F2000,G92 E0,G1 X100 E30 F600,G1 X120 F5000,M117 Printing...,M1001
;   layerChangeGcode,
;   retractionGcode,
;   toolChangeGcode,
;   endingGcode,M107,M1002,M104 S0 T1,M104 S0 T0,M140 S0,M117 Print Complete.,G28 X0 Y0,G91,G1 Z10,G90,M84
;   exportFileFormat,gcode
;   celebration,0
;   celebrationSong,Random Song
;   postProcessing,
;   defaultSpeed,3600
;   outlineUnderspeed,0.8
;   solidInfillUnderspeed,1
;   supportUnderspeed,0.8
;   rapidXYspeed,6000
;   rapidZspeed,972
;   minBridgingArea,50
;   bridgingExtraInflation,0
;   bridgingExtrusionMultiplier,1
;   bridgingSpeedMultiplier,1
;   useFixedBridgingAngle,1
;   fixedBridgingAngle,0
;   applyBridgingToPerimeters,1
;   filamentDiameters,1.75|1.75|1.75|1.75|1.75|1.75
;   filamentPricesPerKg,46|46|46|46|46|46
;   filamentDensities,1.25|1.25|1.25|1.25|1.25|1.25
;   useMinPrintHeight,0
;   minPrintHeight,0
;   useMaxPrintHeight,0
;   maxPrintHeight,0
;   useDiaphragm,0
;   diaphragmLayerInterval,20
;   robustSlicing,1
;   mergeAllIntoSolid,0
;   onlyRetractWhenCrossingOutline,0
;   retractBetweenLayers,1
;   useRetractionMinTravel,0
;   retractionMinTravel,3
;   retractWhileWiping,0
;   onlyWipeOutlines,1
;   avoidCrossingOutline,0
;   maxMovementDetourFactor,3
;   toolChangeRetractionDistance,12
;   toolChangeExtraRestartDistance,-0.5
;   toolChangeRetractionSpeed,600
;   externalThinWallType,0
;   internalThinWallType,0
;   thinWallAllowedOverlapPercentage,0
;   singleExtrusionMinLength,0
;   singleExtrusionMinPrintingWidthPercentage,50
;   singleExtrusionMaxPrintingWidthPercentage,200
;   singleExtrusionEndpointExtension,0.2
;   horizontalSizeCompensation,0
G90
M82
M106 S255
G4 P500
M106 S0
M140 S60
M190 S60
M104 S0 T1
M104 S210 T0
M109 S210 T0
M221 T0 S100
G28 X0 Y0
G28 Z0
T0
G1 X5 Y5 Z0.2 F2000
G92 E0
G1 X100 E30 F600
G1 X120 F5000
M117 Printing...
M1001
G92 E0
G1 E-3.0000 F2400
G1 Z0.400 F972
; process Process1
; layer 1, Z = 0.400
T0
; tool H0.400 W0.400
; outer perimeter
G1 X217.160 Y112.700 F6000
G1 E0.0000 F720
G92 E0
G1 X217.160 Y192.300 E4.7655 F1440
G1 X112.840 Y192.300 E11.0110
G1 X112.840 Y112.700 E15.7765
G1 X217.160 Y112.700 E22.0219
G92 E0
G1 E-3.0000 F2400
; solid layer
G1 X216.675 Y113.100 F6000
G1 E0.0000 F2400
G92 E0
G1 X216.760 Y113.184 E0.0071 F1800
G1 X216.760 Y113.750 E0.0410
G1 X216.110 Y113.100 E0.0961
G1 X215.544 Y113.100 E0.1299
G1 X216.760 Y114.316 E0.2329
G1 X216.760 Y114.881 E0.2667
G1 X214.978 Y113.100 E0.4176
G1 X214.413 Y113.100 E0.4514
G1 X216.760 Y115.447 E0.6502
G1 X216.760 Y116.013 E0.6840
G1 X213.847 Y113.100 E0.9306
G1 X213.281 Y113.100 E0.9645
G1 X216.760 Y116.579 E1.2590
G1 X216.760 Y117.144 E1.2929
G1 X212.716 Y113.100 E1.6353
G1 X212.150 Y113.100 E1.6692
G1 X216.760 Y117.710 E2.0595
G1 X216.760 Y118.276 E2.0933
G1 X211.584 Y113.100 E2.5315
G1 X211.019 Y113.100 E2.5654
G1 X216.760 Y118.841 E3.0515
G1 X216.760 Y119.407 E3.0854
G1 X210.453 Y113.100 E3.6194
G1 X209.887 Y113.100 E3.6532
G1 X216.760 Y119.973 E4.2351
G1 X216.760 Y120.538 E4.2690
G1 X209.321 Y113.100 E4.8988
G1 X208.756 Y113.100 E4.9326
G1 X216.760 Y121.104 E5.6103
G1 X216.760 Y121.670 E5.6442
G1 X208.190 Y113.100 E6.3697
G1 X207.624 Y113.100 E6.4036
G1 X216.760 Y122.235 E7.1771
G1 X216.760 Y122.801 E7.2109
G1 X207.059 Y113.100 E8.0323
G1 X206.493 Y113.100 E8.0662
G1 X216.760 Y123.367 E8.9354
G1 X216.760 Y123.932 E8.9693
G1 X205.927 Y113.100 E9.8864
G1 X205.362 Y113.100 E9.9203
G1 X216.760 Y124.498 E10.8853
G1 X216.760 Y125.064 E10.9192
G1 X204.796 Y113.100 E11.9321
G1 X204.230 Y113.100 E11.9660
G1 X216.760 Y125.630 E13.0268
G1 X216.760 Y126.195 E13.0607
G1 X203.665 Y113.100 E14.1694
G1 X203.099 Y113.100 E14.2033
G1 X216.760 Y126.761 E15.3599
G1 X216.760 Y127.327 E15.3938
G1 X202.533 Y113.100 E16.5983
G1 X201.968 Y113.100 E16.6321
G1 X216.760 Y127.892 E17.8846
G1 X216.760 Y128.458 E17.9184
G1 X201.402 Y113.100 E19.2187
G1 X200.836 Y113.100 E19.2526
G1 X216.760 Y129.024 E20.6008
G1 X216.760 Y129.589 E20.6347
G1 X200.270 Y113.100 E22.0307
G1 X199.705 Y113.100 E22.0646
G1 X216.760 Y130.155 E23.5086
G1 X216.760 Y130.721 E23.5425
G1 X199.139 Y113.100 E25.0343
G1 X198.573 Y113.100 E25.0682
G1 X216.760 Y131.286 E26.6080
G1 X216.760 Y131.852 E26.6419
G1 X198.008 Y113.100 E28.2295
G1 X197.442 Y113.100 E28.2634
G1 X216.760 Y132.418 E29.8990
G1 X216.760 Y132.983 E29.9328
G1 X196.876 Y113.100 E31.6163
G1 X196.311 Y113.100 E31.6502
G1 X216.760 Y133.549 E33.3815
G1 X216.760 Y134.115 E33.4154
G1 X195.745 Y113.100 E35.1946
G1 X195.179 Y113.100 E35.2285
G1 X216.760 Y134.680 E37.0556
G1 X216.760 Y135.246 E37.0895
G1 X194.614 Y113.100 E38.9645
G1 X194.048 Y113.100 E38.9984
G1 X216.760 Y135.812 E40.9213
G1 X216.760 Y136.378 E40.9552
G1 X193.482 Y113.100 E42.9260
G1 X192.917 Y113.100 E42.9599
G1 X216.760 Y136.943 E44.9786
G1 X216.760 Y137.509 E45.0125
G1 X192.351 Y113.100 E47.0791
G1 X191.785 Y113.100 E47.1130
G1 X216.760 Y138.075 E49.2275
G1 X216.760 Y138.640 E49.2613
G1 X191.220 Y113.100 E51.4238
G1 X190.654 Y113.100 E51.4576
G1 X216.760 Y139.206 E53.6679
G1 X216.760 Y139.772 E53.7018
G1 X190.088 Y113.100 E55.9600
G1 X189.522 Y113.100 E55.9938
G1 X216.760 Y140.337 E58.2999
G1 X216.760 Y140.903 E58.3338
G1 X188.957 Y113.100 E60.6878
G1 X188.391 Y113.100 E60.7217
G1 X216.760 Y141.469 E63.1235
G1 X216.760 Y142.034 E63.1574
G1 X187.825 Y113.100 E65.6072
G1 X187.260 Y113.100 E65.6410
G1 X216.760 Y142.600 E68.1387
G1 X216.760 Y143.166 E68.1726
G1 X186.694 Y113.100 E70.7181
G1 X186.128 Y113.100 E70.7520
G1 X216.760 Y143.731 E73.3455
G1 X216.760 Y144.297 E73.3793
G1 X185.563 Y113.100 E76.0207
G1 X184.997 Y113.100 E76.0545
G1 X216.760 Y144.863 E78.7438
G1 X216.760 Y145.429 E78.7777
G1 X184.431 Y113.100 E81.5148
G1 X183.866 Y113.100 E81.5487
G1 X216.760 Y145.994 E84.3337
G1 X216.760 Y146.560 E84.3676
G1 X183.300 Y113.100 E87.2005
G1 X182.734 Y113.100 E87.2344
G1 X216.760 Y147.126 E90.1152
G1 X216.760 Y147.691 E90.1491
G1 X182.169 Y113.100 E93.0778
G1 X181.603 Y113.100 E93.1116
G1 X216.760 Y148.257 E96.0883
G1 X216.760 Y148.823 E96.1221
G1 X181.037 Y113.100 E99.1466
G1 X180.471 Y113.100 E99.1805
G1 X216.760 Y149.388 E102.2529
G1 X216.760 Y149.954 E102.2868
G1 X179.906 Y113.100 E105.4071
G1 X179.340 Y113.100 E105.4409
G1 X216.760 Y150.520 E108.6091
G1 X216.760 Y151.085 E108.6430
G1 X178.774 Y113.100 E111.8591
G1 X178.209 Y113.100 E111.8929
G1 X216.760 Y151.651 E115.1569
G1 X216.760 Y152.217 E115.1908
G1 X177.643 Y113.100 E118.5027
G1 X177.077 Y113.100 E118.5365
G1 X216.760 Y152.782 E121.8963
G1 X216.760 Y153.348 E121.9302
G1 X176.512 Y113.100 E125.3378
G1 X175.946 Y113.100 E125.3717
G1 X216.760 Y153.914 E128.8273
G1 X216.760 Y154.479 E128.8611
G1 X175.380 Y113.100 E132.3646
G1 X174.815 Y113.100 E132.3984
G1 X216.760 Y155.045 E135.9498
G1 X216.760 Y155.611 E135.9837
G1 X174.249 Y113.100 E139.5829
G1 X173.683 Y113.100 E139.6168
G1 X216.760 Y156.177 E143.2639
G1 X216.760 Y156.742 E143.2978
G1 X173.118 Y113.100 E146.9928
G1 X172.552 Y113.100 E147.0267
G1 X216.760 Y157.308 E150.7696
G1 X216.760 Y157.874 E150.8035
G1 X171.986 Y113.100 E154.5943
G1 X171.421 Y113.100 E154.6282
G1 X216.760 Y158.439 E158.4669
G1 X216.760 Y159.005 E158.5007
G1 X170.855 Y113.100 E162.3874
G1 X170.289 Y113.100 E162.4212
G1 X216.760 Y159.571 E166.3557
G1 X216.760 Y160.136 E166.3896
G1 X169.723 Y113.100 E170.3720
G1 X169.158 Y113.100 E170.4059
G1 X216.760 Y160.702 E174.4362
G1 X216.760 Y161.268 E174.4700
G1 X168.592 Y113.100 E178.5482
G1 X168.026 Y113.100 E178.5821
G1 X216.760 Y161.833 E182.7082
G1 X216.760 Y162.399 E182.7420
G1 X167.461 Y113.100 E186.9160
G1 X166.895 Y113.100 E186.9499
G1 X216.760 Y162.965 E191.1717
G1 X216.760 Y163.530 E191.2056
G1 X166.329 Y113.100 E195.4754
G1 X165.764 Y113.100 E195.5092
G1 X216.760 Y164.096 E199.8269
G1 X216.760 Y164.662 E199.8608
G1 X165.198 Y113.100 E204.2263
G1 X164.632 Y113.100 E204.2602
G1 X216.760 Y165.227 E208.6737
G1 X216.760 Y165.793 E208.7075
G1 X164.067 Y113.100 E213.1689
G1 X163.501 Y113.100 E213.2027
G1 X216.760 Y166.359 E217.7120
G1 X216.760 Y166.925 E217.7458
G1 X162.935 Y113.100 E222.3030
G1 X162.370 Y113.100 E222.3368
G1 X216.760 Y167.490 E226.9419
G1 X216.760 Y168.056 E226.9757
G1 X161.804 Y113.100 E231.6287
G1 X161.238 Y113.100 E231.6625
G1 X216.760 Y168.622 E236.3633
G1 X216.760 Y169.187 E236.3972
G1 X160.673 Y113.100 E241.1459
G1 X160.107 Y113.100 E241.1798
G1 X216.760 Y169.753 E245.9764
G1 X216.760 Y170.319 E246.0103
G1 X159.541 Y113.100 E250.8548
G1 X158.975 Y113.100 E250.8886
G1 X216.760 Y170.884 E255.7810
G1 X216.760 Y171.450 E255.8149
G1 X158.410 Y113.100 E260.7552
G1 X157.844 Y113.100 E260.7891
G1 X216.760 Y172.016 E265.7773
G1 X216.760 Y172.581 E265.8111
G1 X157.278 Y113.100 E270.8472
G1 X156.713 Y113.100 E270.8811
G1 X216.760 Y173.147 E275.9650
G1 X216.760 Y173.713 E275.9989
G1 X156.147 Y113.100 E281.1308
G1 X155.581 Y113.100 E281.1646
G1 X216.760 Y174.278 E286.3444
G1 X216.760 Y174.844 E286.3783
G1 X155.016 Y113.100 E291.6059
G1 X154.450 Y113.100 E291.6398
G1 X216.760 Y175.410 E296.9154
G1 X216.760 Y175.976 E296.9492
G1 X153.884 Y113.100 E302.2727
G1 X153.319 Y113.100 E302.3065
G1 X216.760 Y176.541 E307.6779
G1 X216.760 Y177.107 E307.7117
G1 X152.753 Y113.100 E313.1310
G1 X152.187 Y113.100 E313.1649
G1 X216.760 Y177.673 E318.6320
G1 X216.760 Y178.238 E318.6659
G1 X151.622 Y113.100 E324.1809
G1 X151.056 Y113.100 E324.2147
G1 X216.760 Y178.804 E329.7777
G1 X216.760 Y179.370 E329.8115
G1 X150.490 Y113.100 E335.4224
G1 X149.924 Y113.100 E335.4562
G1 X216.760 Y179.935 E341.1149
G1 X216.760 Y180.501 E341.1488
G1 X149.359 Y113.100 E346.8554
G1 X148.793 Y113.100 E346.8893
G1 X216.760 Y181.067 E352.6438
G1 X216.760 Y181.632 E352.6776
G1 X148.227 Y113.100 E358.4800
G1 X147.662 Y113.100 E358.5139
G1 X216.760 Y182.198 E364.3642
G1 X216.760 Y182.764 E364.3981
G1 X147.096 Y113.100 E370.2962
G1 X146.530 Y113.100 E370.3301
G1 X216.760 Y183.329 E376.2762
G1 X216.760 Y183.895 E376.3100
G1 X145.965 Y113.100 E382.3040
G1 X145.399 Y113.100 E382.3379
G1 X216.760 Y184.461 E388.3798
G1 X216.760 Y185.026 E388.4136
G1 X144.833 Y113.100 E394.5034
G1 X144.268 Y113.100 E394.5373
G1 X216.760 Y185.592 E400.6749
G1 X216.760 Y186.158 E400.7088
G1 X143.702 Y113.100 E406.8943
G1 X143.136 Y113.100 E406.9282
G1 X216.760 Y186.724 E413.1616
G1 X216.760 Y187.289 E413.1955
G1 X142.571 Y113.100 E419.4768
G1 X142.005 Y113.100 E419.5107
G1 X216.760 Y187.855 E425.8399
G1 X216.760 Y188.421 E425.8738
G1 X141.439 Y113.100 E432.2509
G1 X140.874 Y113.100 E432.2848
G1 X216.760 Y188.986 E438.7098
G1 X216.760 Y189.552 E438.7437
G1 X140.308 Y113.100 E445.2166
G1 X139.742 Y113.100 E445.2505
G1 X216.760 Y190.118 E451.7713
G1 X216.760 Y190.683 E451.8052
G1 X139.176 Y113.100 E458.3739
G1 X138.611 Y113.100 E458.4077
G1 X216.760 Y191.249 E465.0243
G1 X216.760 Y191.815 E465.0582
G1 X138.045 Y113.100 E471.7227
G1 X137.479 Y113.100 E471.7566
G1 X216.279 Y191.900 E478.4283
G1 X215.714 Y191.900 E478.4622
G1 X136.914 Y113.100 E485.1339
G1 X136.348 Y113.100 E485.1677
G1 X215.148 Y191.900 E491.8395
G1 X214.582 Y191.900 E491.8733
G1 X135.782 Y113.100 E498.5451
G1 X135.217 Y113.100 E498.5789
G1 X214.017 Y191.900 E505.2506
G1 X213.451 Y191.900 E505.2845
G1 X134.651 Y113.100 E511.9562
G1 X134.085 Y113.100 E511.9901
G1 X212.885 Y191.900 E518.6618
G1 X212.320 Y191.900 E518.6957
G1 X133.520 Y113.100 E525.3674
G1 X132.954 Y113.100 E525.4013
G1 X211.754 Y191.900 E532.0730
G1 X211.188 Y191.900 E532.1068
G1 X132.388 Y113.100 E538.7786
G1 X131.823 Y113.100 E538.8124
G1 X210.623 Y191.900 E545.4842
G1 X210.057 Y191.900 E545.5180
G1 X131.257 Y113.100 E552.1897
G1 X130.691 Y113.100 E552.2236
G1 X209.491 Y191.900 E558.8953
G1 X208.925 Y191.900 E558.9292
G1 X130.125 Y113.100 E565.6009
G1 X129.560 Y113.100 E565.6348
G1 X208.360 Y191.900 E572.3065
G1 X207.794 Y191.900 E572.3404
G1 X128.994 Y113.100 E579.0121
G1 X128.428 Y113.100 E579.0459
G1 X207.228 Y191.900 E585.7177
G1 X206.663 Y191.900 E585.7515
G1 X127.863 Y113.100 E592.4232
G1 X127.297 Y113.100 E592.4571
G1 X206.097 Y191.900 E599.1288
G1 X205.531 Y191.900 E599.1627
