; G-Code generated by Simplify3D(R) Version 4.0.1
; Feb 28, 2019 at 1:49:03 PM
; Settings Summary
;   processName,Process1
;   applyToModels,ex03_right_r600_flatten
;   profileName,Raise3D Pro2 (modified)
;   profileVersion,2019-02-28 13:33:34
;   baseProfile,
;   printMaterial,PLA
;   printQuality,High
;   printExtruders,Left Extruder Only
;   extruderName,Right Extruder,Left Extruder
;   extruderToolheadNumber,1,0
;   extruderDiameter,0.4,0.4
;   extruderAutoWidth,0,0
;   extruderWidth,0.4,0.4
;   extrusionMultiplier,1,0.9
;   extruderUseRetract,1,1
;   extruderRetractionDistance,2,3
;   extruderExtraRestartDistance,0,0
;   extruderRetractionZLift,0,0
;   extruderRetractionSpeed,2400,2400
;   extruderUseCoasting,0,0
;   extruderCoastingDistance,0.2,0.4
;   extruderUseWipe,0,0
;   extruderWipeDistance,5,5
;   primaryExtruder,1
;   layerHeight,0.2
;   topSolidLayers,2
;   bottomSolidLayers,2
;   perimeterOutlines,1
;   printPerimetersInsideOut,0
;   startPointOption,1
;   startPointOriginX,0
;   startPointOriginY,0
;   sequentialIslands,0
;   spiralVaseMode,0
;   firstLayerHeightPercentage,200
;   firstLayerWidthPercentage,100
;   firstLayerUnderspeed,0.5
;   useRaft,0
;   raftExtruder,1
;   raftTopLayers,2
;   raftBaseLayers,2
;   raftOffset,3
;   raftSeparationDistance,0.14
;   raftTopInfill,100
;   aboveRaftSpeedMultiplier,0.3
;   useSkirt,0
;   skirtExtruder,1
;   skirtLayers,1
;   skirtOutlines,2
;   skirtOffset,4
;   usePrimePillar,0
;   primePillarExtruder,999
;   primePillarWidth,7
;   primePillarLocation,5
;   primePillarSpeedMultiplier,1
;   useOozeShield,0
;   oozeShieldExtruder,999
;   oozeShieldOffset,3
;   oozeShieldOutlines,1
;   oozeShieldSidewallShape,1
;   oozeShieldSidewallAngle,30
;   oozeShieldSpeedMultiplier,1
;   infillExtruder,1
;   internalInfillPattern,Rectilinear
;   externalInfillPattern,Rectilinear
;   infillPercentage,10
;   outlineOverlapPercentage,0
;   infillExtrusionWidthPercentage,100
;   minInfillLength,0
;   infillLayerInterval,1
;   internalInfillAngles,45,-45
;   overlapInternalInfillAngles,0
;   externalInfillAngles,45,45
;   generateSupport,0
;   supportExtruder,1
;   supportInfillPercentage,40
;   supportExtraInflation,0
;   supportBaseLayers,0
;   denseSupportExtruder,1
;   denseSupportLayers,0
;   denseSupportInfillPercentage,70
;   supportLayerInterval,1
;   supportHorizontalPartOffset,0.3
;   supportUpperSeparationLayers,1
;   supportLowerSeparationLayers,1
;   supportType,0
;   supportGridSpacing,4
;   maxOverhangAngle,45
;   supportAngles,45,-45
;   temperatureName,Right Extruder,Left Extruder,Heated Bed
;   temperatureNumber,1,0,2
;   temperatureSetpointCount,1,1,1
;   temperatureSetpointLayers,1,1,1
;   temperatureSetpointTemperatures,0,210,60
;   temperatureStabilizeAtStartup,0,1,1
;   temperatureHeatedBed,0,0,1
;   temperatureRelayBetweenLayers,0,0,0
;   temperatureRelayBetweenLoops,0,0,0
;   fanLayers,1,2
;   fanSpeeds,0,60
;   blipFanToFullPower,1
;   adjustSpeedForCooling,1
;   minSpeedLayerTime,15
;   minCoolingSpeedSlowdown,20
;   increaseFanForCooling,0
;   minFanLayerTime,45
;   maxCoolingFanSpeed,100
;   increaseFanForBridging,0
;   bridgingFanSpeed,100
;   use5D,1
;   relativeEdistances,0
;   allowEaxisZeroing,1
;   independentExtruderAxes,0
;   includeM10123,0
;   stickySupport,1
;   applyToolheadOffsets,0
;   gcodeXoffset,0
;   gcodeYoffset,0
;   gcodeZoffset,0
;   overrideMachineDefinition,1
;   machineTypeOverride,0
;   strokeXoverride,280
;   strokeYoverride,305
;   strokeZoverride,300
;   originOffsetXoverride,-25
;   originOffsetYoverride,0
;   originOffsetZoverride,0
;   homeXdirOverride,-1
;   homeYdirOverride,-1
;   homeZdirOverride,-1
;   flipXoverride,1
;   flipYoverride,-1
;   flipZoverride,1
;   toolheadOffsets,0,0|-25,0|0,0|0,0|0,0|0,0
;   overrideFirmwareConfiguration,1
;   firmwareTypeOverride,RepRap (Marlin/Repetier/Sprinter)
;   GPXconfigOverride,r2
;   baudRateOverride,230400
;   overridePrinterModels,1
;   printerModelsOverride
;   startingGcode,M221 T0 S100,G28 X0 Y0,G28 Z0,T0,G1 X5 Y5 Z0.2 F2000,G92 E0,G1 X100 E30 F600,G1 X120 F5000,M117 Printing...,M1001
;   layerChangeGcode,
;   retractionGcode,
;   toolChangeGcode,
;   endingGcode,M107,M1002,M104 S0 T1,M104 S0 T0,M140 S0,M117 Print Complete.,G28 X0 Y0,G91,G1 Z10,G90,M84
;   exportFileFormat,gcode
;   celebration,0
;   celebrationSong,Random Song
;   postProcessing,
;   defaultSpeed,3600
;   outlineUnderspeed,0.8
;   solidInfillUnderspeed,1
;   supportUnderspeed,0.8
;   rapidXYspeed,6000
;   rapidZspeed,972
;   minBridgingArea,50
;   bridgingExtraInflation,0
;   bridgingExtrusionMultiplier,1
;   bridgingSpeedMultiplier,1
;   useFixedBridgingAngle,1
;   fixedBridgingAngle,0
;   applyBridgingToPerimeters,1
;   filamentDiameters,1.75|1.75|1.75|1.75|1.75|1.75
;   filamentPricesPerKg,46|46|46|46|46|46
;   filamentDensities,1.25|1.25|1.25|1.25|1.25|1.25
;   useMinPrintHeight,0
;   minPrintHeight,0
;   useMaxPrintHeight,0
;   maxPrintHeight,0
;   useDiaphragm,0
;   diaphragmLayerInterval,20
;   robustSlicing,1
;   mergeAllIntoSolid,0
;   onlyRetractWhenCrossingOutline,0
;   retractBetweenLayers,1
;   useRetractionMinTravel,0
;   retractionMinTravel,3
;   retractWhileWiping,0
;   onlyWipeOutlines,1
;   avoidCrossingOutline,0
;   maxMovementDetourFactor,3
;   toolChangeRetractionDistance,12
;   toolChangeExtraRestartDistance,-0.5
;   toolChangeRetractionSpeed,600
;   externalThinWallType,0
;   internalThinWallType,0
;   thinWallAllowedOverlapPercentage,0
;   singleExtrusionMinLength,0
;   singleExtrusionMinPrintingWidthPercentage,50
;   singleExtrusionMaxPrintingWidthPercentage,200
;   singleExtrusionEndpointExtension,0.2
;   horizontalSizeCompensation,0
G90
M82
M106 S255
G4 P500
M106 S0
M140 S60
M190 S60
M104 S0 T1
M104 S210 T0
M109 S210 T0
M221 T0 S100
G28 X0 Y0
G28 Z0
T0
G1 X5 Y5 Z0.2 F2000
G92 E0
G1 X100 E30 F600
G1 X120 F5000
M117 Printing...
M1001
G92 E0
G1 E-3.0000 F2400
G1 Z0.400 F972
; process Process1
; layer 1, Z = 0.400
T0
; tool H0.400 W0.400
; outer perimeter
G1 X217.1600 Y112.7000 Z0.4000 F6000
G1 E0.0000 F720
G92 E0
G1 X217.1600 Y122.7000 Z0.4000 E0.5987
G1 X217.1600 Y132.7000 Z0.4000 E1.1974
G1 X217.1600 Y142.7000 Z0.4000 E1.7960
G1 X217.1600 Y152.7000 Z0.4000 E2.3947
G1 X217.1600 Y162.7000 Z0.4000 E2.9934
G1 X217.1600 Y172.7000 Z0.4000 E3.5921
G1 X217.1600 Y182.7000 Z0.4000 E4.1908
G1 X217.1600 Y192.3000 Z0.4000 E4.7655 F1440
G1 X207.1605 Y192.3000 Z0.4867 E5.3642
G1 X197.1638 Y192.3000 Z0.7400 E5.9629
G1 X187.1728 Y192.3000 Z1.1599 E6.5615
G1 X177.1901 Y192.3000 Z1.7462 E7.1602
G1 X167.2185 Y192.3000 Z2.4988 E7.7589
G1 X157.2610 Y192.3000 Z3.4175 E8.3576
G1 X147.3201 Y192.3000 Z4.5020 E8.9563
G1 X137.3986 Y192.3000 Z5.7521 E9.5549
G1 X127.4994 Y192.3000 Z7.1673 E10.1536
G1 X117.6251 Y192.3000 Z8.7473 E10.7523
G1 X113.3678 Y192.3000 Z9.4807 E11.0109
G1 X113.3678 Y182.3000 Z9.4807 E11.6096
G1 X113.3678 Y172.3000 Z9.4807 E12.2083
G1 X113.3678 Y162.3000 Z9.4807 E12.8070
G1 X113.3678 Y152.3000 Z9.4807 E13.4057
G1 X113.3678 Y142.3000 Z9.4807 E14.0043
G1 X113.3678 Y132.3000 Z9.4807 E14.6030
G1 X113.3678 Y122.3000 Z9.4807 E15.2017
G1 X113.3678 Y112.7000 Z9.4807 E15.7764
G1 X123.2305 Y112.7000 Z7.8296 E16.3751
G1 X133.1193 Y112.7000 Z6.3432 E16.9738
G1 X143.0314 Y112.7000 Z5.0217 E17.5724
G1 X152.9643 Y112.7000 Z3.8657 E18.1711
G1 X162.9150 Y112.7000 Z2.8753 E18.7698
G1 X172.8808 Y112.7000 Z2.0509 E19.3685
G1 X182.8590 Y112.7000 Z1.3928 E19.9671
G1 X192.8468 Y112.7000 Z0.9010 E20.5658
G1 X202.8414 Y112.7000 Z0.5757 E21.1645
G1 X212.8400 Y112.7000 Z0.4170 E21.7631
G1 X217.1600 Y112.7000 Z0.4000 E22.0218
G92 E0
G1 E-3.0000 F2400
; solid layer
G1 X216.6750 Y113.1000 Z0.4004 F6000
G1 E0.0000 F2400
G92 E0
G1 X216.7600 Y113.1840 Z0.4003 E0.0071 F1800
G1 X216.7600 Y113.7500 Z0.4003 E0.0410
G1 X216.1100 Y113.1000 Z0.4013 E0.0961
G1 X215.5440 Y113.1000 Z0.4027 E0.1299
G1 X216.7600 Y114.3160 Z0.4003 E0.2329
G1 X216.7600 Y114.8810 Z0.4003 E0.2667
G1 X214.9780 Y113.1000 Z0.4047 E0.4176
G1 X214.4130 Y113.1000 Z0.4072 E0.4514
G1 X216.7600 Y115.4470 Z0.4003 E0.6502
G1 X216.7600 Y116.0130 Z0.4003 E0.6840
G1 X213.8470 Y113.1000 Z0.4103 E0.9306
G1 X213.2810 Y113.1000 Z0.4139 E0.9645
G1 X216.7600 Y116.5790 Z0.4003 E1.2590
G1 X216.7600 Y117.1440 Z0.4003 E1.2929
G1 X212.7160 Y113.1000 Z0.4180 E1.6353
G1 X212.1501 Y113.1000 Z0.4226 E1.6692
G1 X216.7600 Y117.7100 Z0.4003 E2.0595
G1 X216.7600 Y118.2760 Z0.4003 E2.0933
G1 X211.5841 Y113.1000 Z0.4278 E2.5315
G1 X211.0191 Y113.1000 Z0.4335 E2.5654
G1 X216.7600 Y118.8410 Z0.4003 E3.0515
G1 X216.7600 Y119.4070 Z0.4003 E3.0854
G1 X210.4532 Y113.1000 Z0.4398 E3.6194
G1 X209.8872 Y113.1000 Z0.4465 E3.6532
G1 X216.7600 Y119.9730 Z0.4003 E4.2351
G1 X216.7600 Y120.5380 Z0.4003 E4.2690
G1 X209.6887 Y113.4674 Z0.4490 E4.8677
G1 X209.3212 Y113.1000 Z0.4539 E4.8988
G1 X208.7563 Y113.1000 Z0.4617 E4.9326
G1 X215.8271 Y120.1711 Z0.4020 E5.5313
G1 X216.7600 Y121.1040 Z0.4003 E5.6103
G1 X216.7600 Y121.6700 Z0.4003 E5.6442
G1 X209.6891 Y114.5989 Z0.4490 E6.2428
G1 X208.1904 Y113.1000 Z0.4701 E6.3697
G1 X207.6244 Y113.1000 Z0.4790 E6.4036
G1 X214.6955 Y120.1707 Z0.4059 E7.0023
G1 X216.7600 Y122.2350 Z0.4003 E7.1771
G1 X216.7600 Y122.8010 Z0.4003 E7.2109
G1 X209.6891 Y115.7299 Z0.4490 E7.8096
G1 X207.0595 Y113.1000 Z0.4884 E8.0323
G1 X206.4936 Y113.1000 Z0.4984 E8.0662
G1 X213.5641 Y120.1711 Z0.4120 E8.6648
G1 X216.7600 Y123.3670 Z0.4003 E8.9354
G1 X216.7600 Y123.9320 Z0.4003 E8.9693
G1 X209.6888 Y116.8613 Z0.4490 E9.5679
G1 X205.9277 Y113.1000 Z0.5089 E9.8864
G1 X205.3628 Y113.1000 Z0.5200 E9.9203
G1 X212.4331 Y120.1711 Z0.4202 E10.5189
G1 X216.7600 Y124.4980 Z0.4003 E10.8853
G1 X216.7600 Y125.0640 Z0.4003 E10.9192
G1 X209.6891 Y117.9929 Z0.4490 E11.5178
G1 X204.7969 Y113.1000 Z0.5315 E11.9321
G1 X204.2310 Y113.1000 Z0.5437 E11.9660
G1 X211.3012 Y120.1711 Z0.4306 E12.5646
G1 X216.7600 Y125.6300 Z0.4003 E13.0268
G1 X216.7600 Y126.1950 Z0.4003 E13.0607
G1 X209.6891 Y119.1239 Z0.4490 E13.6594
G1 X203.6662 Y113.1000 Z0.5563 E14.1694
G1 X203.1003 Y113.1000 Z0.5695 E14.2033
G1 X210.1702 Y120.1711 Z0.4431 E14.8019
G1 X216.7600 Y126.7610 Z0.4003 E15.3599
G1 X216.7600 Y127.3270 Z0.4003 E15.3938
G1 X209.6891 Y120.2559 Z0.4490 E15.9924
G1 X202.6193 Y113.1849 Z0.5811 E16.5911
G1 X202.5345 Y113.1000 Z0.5832 E16.5983
G1 X201.9697 Y113.1000 Z0.5974 E16.6321
G1 X209.0393 Y120.1711 Z0.4577 E17.2308
G1 X216.1101 Y127.2421 Z0.4013 E17.8295
G1 X216.7600 Y127.8920 Z0.4003 E17.8846
G1 X216.7600 Y128.4580 Z0.4003 E17.9184
G1 X209.6891 Y121.3869 Z0.4490 E18.5170
G1 X202.6193 Y114.3159 Z0.5811 E19.1157
G1 X201.4039 Y113.1000 Z0.6122 E19.2187
G1 X200.8381 Y113.1000 Z0.6275 E19.2526
G1 X207.9075 Y120.1711 Z0.4745 E19.8512
G1 X214.9781 Y127.2421 Z0.4047 E20.4499
G1 X216.7600 Y129.0240 Z0.4003 E20.6008
G1 X216.7600 Y129.5890 Z0.4003 E20.6347
G1 X209.6889 Y122.5181 Z0.4490 E21.2333
G1 X202.6189 Y115.4473 Z0.5811 E21.8319
G1 X200.2723 Y113.1000 Z0.6434 E22.0307
G1 X199.7075 Y113.1000 Z0.6597 E22.0646
G1 X206.7766 Y120.1711 Z0.4933 E22.6632
G1 X213.8472 Y127.2421 Z0.4103 E23.2619
G1 X216.7600 Y130.1550 Z0.4003 E23.5085
G1 X216.7600 Y130.7210 Z0.4003 E23.5424
G1 X209.6891 Y123.6499 Z0.4490 E24.1411
G1 X202.6193 Y116.5789 Z0.5811 E24.7397
G1 X199.1418 Y113.1000 Z0.6766 E25.0342
G1 X198.5761 Y113.1000 Z0.6941 E25.0681
G1 X205.6450 Y120.1709 Z0.5144 E25.6668
G1 X212.7156 Y127.2417 Z0.4180 E26.2655
G1 X216.7600 Y131.2860 Z0.4003 E26.6079
G1 X216.7600 Y131.8520 Z0.4003 E26.6418
G1 X209.6891 Y124.7809 Z0.4490 E27.2405
G1 X202.6193 Y117.7099 Z0.5811 E27.8392
G1 X198.0114 Y113.1000 Z0.7121 E28.2294
G1 X197.4457 Y113.1000 Z0.7306 E28.2633
G1 X204.5140 Y120.1711 Z0.5375 E28.8620
G1 X211.5842 Y127.2421 Z0.4278 E29.4607
G1 X216.7600 Y132.4180 Z0.4003 E29.8989
G1 X216.7600 Y132.9830 Z0.4003 E29.9327
G1 X209.6890 Y125.9121 Z0.4490 E30.5314
G1 X202.6190 Y118.8412 Z0.5811 E31.1301
G1 X196.8800 Y113.1000 Z0.7496 E31.6162
G1 X196.3153 Y113.1000 Z0.7692 E31.6501
G1 X203.3833 Y120.1711 Z0.5628 E32.2488
G1 X210.4533 Y127.2421 Z0.4398 E32.8475
G1 X216.7600 Y133.5490 Z0.4003 E33.3814
G1 X216.7600 Y134.1150 Z0.4003 E33.4153
G1 X209.6891 Y127.0439 Z0.4490 E34.0140
G1 X202.6193 Y119.9729 Z0.5811 E34.6126
G1 X195.7497 Y113.1000 Z0.7893 E35.1945
G1 X195.1841 Y113.1000 Z0.8100 E35.2284
G1 X202.2518 Y120.1709 Z0.5902 E35.8271
G1 X209.3217 Y127.2418 Z0.4538 E36.4257
G1 X216.3927 Y134.3127 Z0.4008 E37.0244
G1 X216.7600 Y134.6800 Z0.4003 E37.0555
G1 X216.7600 Y135.2460 Z0.4003 E37.0894
G1 X209.6891 Y128.1749 Z0.4490 E37.6881
G1 X202.6193 Y121.1039 Z0.5811 E38.2868
G1 X195.5516 Y114.0328 Z0.7965 E38.8854
G1 X194.6194 Y113.1000 Z0.8311 E38.9644
G1 X194.0539 Y113.1000 Z0.8528 E38.9983
G1 X201.1211 Y120.1711 Z0.6198 E39.5970
G1 X208.1905 Y127.2421 Z0.4701 E40.1956
G1 X215.2612 Y134.3132 Z0.4037 E40.7943
G1 X216.7600 Y135.8120 Z0.4003 E40.9212
G1 X216.7600 Y136.3780 Z0.4003 E40.9551
G1 X209.6891 Y129.3069 Z0.4490 E41.5538
G1 X202.6193 Y122.2359 Z0.5811 E42.1524
G1 X195.5516 Y115.1648 Z0.7965 E42.7511
G1 X193.4883 Y113.1000 Z0.8751 E42.9259
G1 X192.9238 Y113.1000 Z0.8978 E42.9598
G1 X199.9905 Y120.1711 Z0.6515 E43.5585
G1 X207.0596 Y127.2421 Z0.4884 E44.1572
G1 X214.1302 Y134.3132 Z0.4087 E44.7558
G1 X216.7600 Y136.9430 Z0.4003 E44.9785
G1 X216.7600 Y137.5090 Z0.4003 E45.0124
G1 X209.6891 Y130.4379 Z0.4490 E45.6111
G1 X202.6193 Y123.3669 Z0.5811 E46.2097
G1 X195.5516 Y116.2958 Z0.7965 E46.8084
G1 X192.3582 Y113.1000 Z0.9211 E47.0790
G1 X191.7927 Y113.1000 Z0.9450 E47.1129
G1 X198.8590 Y120.1711 Z0.6853 E47.7116
G1 X205.9278 Y127.2421 Z0.5089 E48.3102
G1 X212.9982 Y134.3132 Z0.4159 E48.9089
G1 X216.7600 Y138.0750 Z0.4003 E49.2274
G1 X216.7600 Y138.6400 Z0.4003 E49.2612
G1 X209.6891 Y131.5689 Z0.4490 E49.8599
G1 X202.6193 Y124.4979 Z0.5811 E50.4586
G1 X195.5516 Y117.4268 Z0.7965 E51.0573
G1 X191.2283 Y113.1000 Z0.9693 E51.4237
G1 X190.6628 Y113.1000 Z0.9942 E51.4575
G1 X197.7286 Y120.1711 Z0.7212 E52.0562
G1 X204.7971 Y127.2421 Z0.5315 E52.6548
G1 X211.8673 Y134.3132 Z0.4251 E53.2535
G1 X216.7600 Y139.2060 Z0.4003 E53.6678
G1 X216.7600 Y139.7720 Z0.4003 E53.7017
G1 X209.6891 Y132.7009 Z0.4490 E54.3003
G1 X202.6193 Y125.6299 Z0.5811 E54.8990
G1 X195.5516 Y118.5588 Z0.7965 E55.4977
G1 X190.0974 Y113.1000 Z1.0197 E55.9599
G1 X189.5320 Y113.1000 Z1.0457 E55.9937
G1 X196.5973 Y120.1709 Z0.7593 E56.5923
G1 X203.6656 Y127.2419 Z0.5563 E57.1910
G1 X210.7357 Y134.3128 Z0.4366 E57.7897
G1 X216.7600 Y140.3370 Z0.4003 E58.2998
G1 X216.7600 Y140.9030 Z0.4003 E58.3337
G1 X209.6891 Y133.8319 Z0.4490 E58.9323
G1 X202.6193 Y126.7609 Z0.5811 E59.5310
G1 X195.5516 Y119.6898 Z0.7965 E60.1297
G1 X188.9676 Y113.1000 Z1.0721 E60.6877
G1 X188.4023 Y113.1000 Z1.0992 E60.7216
G1 X195.4669 Y120.1711 Z0.7996 E61.3202
G1 X202.5346 Y127.2421 Z0.5832 E61.9189
G1 X209.6044 Y134.3132 Z0.4501 E62.5175
G1 X216.6753 Y141.3843 Z0.4004 E63.1162
G1 X216.7600 Y141.4690 Z0.4003 E63.1233
G1 X216.7600 Y142.0340 Z0.4003 E63.1572
G1 X209.6890 Y134.9631 Z0.4490 E63.7559
G1 X202.6191 Y127.8921 Z0.5811 E64.3546
G1 X195.5512 Y120.8212 Z0.7965 E64.9533
G1 X188.4864 Y113.7502 Z1.0951 E65.5520
G1 X187.8369 Y113.1000 Z1.1268 E65.6070
G1 X187.2726 Y113.1000 Z1.1549 E65.6408
G1 X194.3367 Y120.1711 Z0.8419 E66.2395
G1 X201.4040 Y127.2421 Z0.6122 E66.8382
G1 X208.4735 Y134.3132 Z0.4658 E67.4369
G1 X215.5443 Y141.3843 Z0.4027 E68.0356
G1 X216.7600 Y142.6000 Z0.4003 E68.1385
G1 X216.7600 Y143.1660 Z0.4003 E68.1724
G1 X209.6891 Y136.0949 Z0.4490 E68.7711
G1 X202.6193 Y129.0239 Z0.5811 E69.3698
G1 X195.5516 Y121.9528 Z0.7965 E69.9684
G1 X188.4869 Y114.8817 Z1.0951 E70.5671
G1 X186.7073 Y113.1000 Z1.1835 E70.7179
G1 X186.1421 Y113.1000 Z1.2127 E70.7518
G1 X193.2057 Y120.1710 Z0.8864 E71.3505
G1 X200.2727 Y127.2419 Z0.6434 E71.9492
G1 X207.3420 Y134.3129 Z0.4836 E72.5479
G1 X214.4127 Y141.3838 Z0.4072 E73.1466
G1 X216.7600 Y143.7310 Z0.4003 E73.3453
G1 X216.7600 Y144.2970 Z0.4003 E73.3791
G1 X209.6891 Y137.2259 Z0.4490 E73.9778
G1 X202.6193 Y130.1549 Z0.5811 E74.5765
G1 X195.5516 Y123.0838 Z0.7965 E75.1752
G1 X188.4869 Y116.0127 Z1.0951 E75.7739
