; G-Code generated by Simplify3D(R) Version 4.0.1
; Feb 28, 2019 at 1:49:03 PM
; Settings Summary
;   processName,Process1
;   applyToModels,ex03_right_r600_flatten
;   profileName,Raise3D Pro2 (modified)
;   profileVersion,2019-02-28 13:33:34
;   baseProfile,
;   printMaterial,PLA
;   printQuality,High
;   printExtruders,Left Extruder Only
;   extruderName,Right Extruder,Left Extruder
;   extruderToolheadNumber,1,0
;   extruderDiameter,0.4,0.4
;   extruderAutoWidth,0,0
;   extruderWidth,0.4,0.4
;   extrusionMultiplier,1,0.9
;   extruderUseRetract,1,1
;   extruderRetractionDistance,2,3
;   extruderExtraRestartDistance,0,0
;   extruderRetractionZLift,0,0
;   extruderRetractionSpeed,2400,2400
;   extruderUseCoasting,0,0
;   extruderCoastingDistance,0.2,0.4
;   extruderUseWipe,0,0
;   extruderWipeDistance,5,5
;   primaryExtruder,1
;   layerHeight,0.2
;   topSolidLayers,2
;   bottomSolidLayers,2
;   perimeterOutlines,1
;   printPerimetersInsideOut,0
;   startPointOption,1
;   startPointOriginX,0
;   startPointOriginY,0
;   sequentialIslands,0
;   spiralVaseMode,0
;   firstLayerHeightPercentage,200
;   firstLayerWidthPercentage,100
;   firstLayerUnderspeed,0.5
;   useRaft,0
;   raftExtruder,1
;   raftTopLayers,2
;   raftBaseLayers,2
;   raftOffset,3
;   raftSeparationDistance,0.14
;   raftTopInfill,100
;   aboveRaftSpeedMultiplier,0.3
;   useSkirt,0
;   skirtExtruder,1
;   skirtLayers,1
;   skirtOutlines,2
;   skirtOffset,4
;   usePrimePillar,0
;   primePillarExtruder,999
;   primePillarWidth,7
;   primePillarLocation,5
;   primePillarSpeedMultiplier,1
;   useOozeShield,0
;   oozeShieldExtruder,999
;   oozeShieldOffset,3
;   oozeShieldOutlines,1
;   oozeShieldSidewallShape,1
;   oozeShieldSidewallAngle,30
;   oozeShieldSpeedMultiplier,1
;   infillExtruder,1
;   internalInfillPattern,Rectilinear
;   externalInfillPattern,Rectilinear
;   infillPercentage,10
;   outlineOverlapPercentage,0
;   infillExtrusionWidthPercentage,100
;   minInfillLength,0
;   infillLayerInterval,1
;   internalInfillAngles,45,-45
;   overlapInternalInfillAngles,0
;   externalInfillAngles,45,45
;   generateSupport,0
;   supportExtruder,1
;   supportInfillPercentage,40
;   supportExtraInflation,0
;   supportBaseLayers,0
;   denseSupportExtruder,1
;   denseSupportLayers,0
;   denseSupportInfillPercentage,70
;   supportLayerInterval,1
;   supportHorizontalPartOffset,0.3
;   supportUpperSeparationLayers,1
;   supportLowerSeparationLayers,1
;   supportType,0
;   supportGridSpacing,4
;   maxOverhangAngle,45
;   supportAngles,45,-45
;   temperatureName,Right Extruder,Left Extruder,Heated Bed
;   temperatureNumber,1,0,2
;   temperatureSetpointCount,1,1,1
;   temperatureSetpointLayers,1,1,1
;   temperatureSetpointTemperatures,0,210,60
;   temperatureStabilizeAtStartup,0,1,1
;   temperatureHeatedBed,0,0,1
;   temperatureRelayBetweenLayers,0,0,0
;   temperatureRelayBetweenLoops,0,0,0
;   fanLayers,1,2
;   fanSpeeds,0,60
;   blipFanToFullPower,1
;   adjustSpeedForCooling,1
;   minSpeedLayerTime,15
;   minCoolingSpeedSlowdown,20
;   increaseFanForCooling,0
;   minFanLayerTime,45
;   maxCoolingFanSpeed,100
;   increaseFanForBridging,0
;   bridgingFanSpeed,100
;   use5D,1
;   relativeEdistances,0
;   allowEaxisZeroing,1
;   independentExtruderAxes,0
;   includeM10123,0
;   stickySupport,1
;   applyToolheadOffsets,0
;   gcodeXoffset,0
;   gcodeYoffset,0
;   gcodeZoffset,0
;   overrideMachineDefinition,1
;   machineTypeOverride,0
;   strokeXoverride,280
;   strokeYoverride,305
;   strokeZoverride,300
;   originOffsetXoverride,-25
;   originOffsetYoverride,0
;   originOffsetZoverride,0
;   homeXdirOverride,-1
;   homeYdirOverride,-1
;   homeZdirOverride,-1
;   flipXoverride,1
;   flipYoverride,-1
;   flipZoverride,1
;   toolheadOffsets,0,0|-25,0|0,0|0,0|0,0|0,0
;   overrideFirmwareConfiguration,1
;   firmwareTypeOverride,RepRap (Marlin/Repetier/Sprinter)
;   GPXconfigOverride,r2
;   baudRateOverride,230400
;   overridePrinterModels,1
;   printerModelsOverride
;   startingGcode,M221 T0 S100,G28 X0 Y0,G28 Z0,T0,G1 X5 Y5 Z0.2 F2000,G92 E0,G1 X100 E30 F600,G1 X120 F5000,M117 Printing...,M1001
;   layerChangeGcode,
;   retractionGcode,
;   toolChangeGcode,
;   endingGcode,M107,M1002,M104 S0 T1,M104 S0 T0,M140 S0,M117 Print Complete.,G28 X0 Y0,G91,G1 Z10,G90,M84
;   exportFileFormat,gcode
;   celebration,0
;   celebrationSong,Random Song
;   postProcessing,
;   defaultSpeed,3600
;   outlineUnderspeed,0.8
;   solidInfillUnderspeed,1
;   supportUnderspeed,0.8
;   rapidXYspeed,6000
;   rapidZspeed,972
;   minBridgingArea,50
;   bridgingExtraInflation,0
;   bridgingExtrusionMultiplier,1
;   bridgingSpeedMultiplier,1
;   useFixedBridgingAngle,1
;   fixedBridgingAngle,0
;   applyBridgingToPerimeters,1
;   filamentDiameters,1.75|1.75|1.75|1.75|1.75|1.75
;   filamentPricesPerKg,46|46|46|46|46|46
;   filamentDensities,1.25|1.25|1.25|1.25|1.25|1.25
;   useMinPrintHeight,0
;   minPrintHeight,0
;   useMaxPrintHeight,0
;   maxPrintHeight,0
;   useDiaphragm,0
;   diaphragmLayerInterval,20
;   robustSlicing,1
;   mergeAllIntoSolid,0
;   onlyRetractWhenCrossingOutline,0
;   retractBetweenLayers,1
;   useRetractionMinTravel,0
;   retractionMinTravel,3
;   retractWhileWiping,0
;   onlyWipeOutlines,1
;   avoidCrossingOutline,0
;   maxMovementDetourFactor,3
;   toolChangeRetractionDistance,12
;   toolChangeExtraRestartDistance,-0.5
;   toolChangeRetractionSpeed,600
;   externalThinWallType,0
;   internalThinWallType,0
;   thinWallAllowedOverlapPercentage,0
;   singleExtrusionMinLength,0
;   singleExtrusionMinPrintingWidthPercentage,50
;   singleExtrusionMaxPrintingWidthPercentage,200
;   singleExtrusionEndpointExtension,0.2
;   horizontalSizeCompensation,0
G90
M82
M106 S255
G4 P500
M106 S0
M140 S60
M190 S60
M104 S0 T1
M104 S210 T0
M109 S210 T0
M221 T0 S100
G28 X0 Y0
G28 Z0
T0
G1 X5 Y5 Z0.2 F2000
G92 E0
G1 X100 E30 F600
G1 X120 F5000
M117 Printing...
M1001
G92 E0
G1 E-3.0000 F2400
G1 Z0.400 F972
; process Process1
; layer 1, Z = 0.400
T0
; tool H0.400 W0.400
; outer perimeter
G1 X216.6322 Y112.7000 Z9.4807 F6000
G1 E0.0000 F720
G92 E0
G1 X216.6322 Y122.7000 Z9.4807 E0.5987
G1 X216.6322 Y132.7000 Z9.4807 E1.1974
G1 X216.6322 Y142.7000 Z9.4807 E1.7960
G1 X216.6322 Y152.7000 Z9.4807 E2.3947
G1 X216.6322 Y162.7000 Z9.4807 E2.9934
G1 X216.6322 Y172.7000 Z9.4807 E3.5921
G1 X216.6322 Y182.7000 Z9.4807 E4.1908
G1 X216.6322 Y192.3000 Z9.4807 E4.7655 F1440
G1 X206.7695 Y192.3000 Z7.8296 E5.3642
G1 X196.8807 Y192.3000 Z6.3432 E5.9629
G1 X186.9686 Y192.3000 Z5.0217 E6.5615
G1 X177.0357 Y192.3000 Z3.8657 E7.1602
G1 X167.0850 Y192.3000 Z2.8753 E7.7589
G1 X157.1192 Y192.3000 Z2.0509 E8.3576
G1 X147.1410 Y192.3000 Z1.3928 E8.9563
G1 X137.1532 Y192.3000 Z0.9010 E9.5549
G1 X127.1586 Y192.3000 Z0.5757 E10.1536
G1 X117.1600 Y192.3000 Z0.4170 E10.7523
G1 X112.8400 Y192.3000 Z0.4000 E11.0109
G1 X112.8400 Y182.3000 Z0.4000 E11.6096
G1 X112.8400 Y172.3000 Z0.4000 E12.2083
G1 X112.8400 Y162.3000 Z0.4000 E12.8070
G1 X112.8400 Y152.3000 Z0.4000 E13.4057
G1 X112.8400 Y142.3000 Z0.4000 E14.0043
G1 X112.8400 Y132.3000 Z0.4000 E14.6030
G1 X112.8400 Y122.3000 Z0.4000 E15.2017
G1 X112.8400 Y112.7000 Z0.4000 E15.7764
G1 X122.8395 Y112.7000 Z0.4867 E16.3751
G1 X132.8362 Y112.7000 Z0.7400 E16.9738
G1 X142.8272 Y112.7000 Z1.1599 E17.5724
G1 X152.8099 Y112.7000 Z1.7462 E18.1711
G1 X162.7815 Y112.7000 Z2.4988 E18.7698
G1 X172.7390 Y112.7000 Z3.4175 E19.3685
G1 X182.6799 Y112.7000 Z4.5020 E19.9671
G1 X192.6014 Y112.7000 Z5.7521 E20.5658
G1 X202.5006 Y112.7000 Z7.1673 E21.1645
G1 X212.3749 Y112.7000 Z8.7473 E21.7631
G1 X216.6322 Y112.7000 Z9.4807 E22.0218
G92 E0
G1 E-3.0000 F2400
; solid layer
G1 X216.1545 Y113.1000 Z9.3968 F6000
G1 E0.0000 F2400
G92 E0
G1 X216.2382 Y113.1840 Z9.4115 E0.0071 F1800
G1 X216.2382 Y113.7500 Z9.4115 E0.0410
G1 X215.5979 Y113.1000 Z9.2996 E0.0961
G1 X215.0403 Y113.1000 Z9.2028 E0.1299
G1 X216.2382 Y114.3160 Z9.4115 E0.2329
G1 X216.2382 Y114.8810 Z9.4115 E0.2667
G1 X214.4825 Y113.1000 Z9.1064 E0.4176
G1 X213.9257 Y113.1000 Z9.0108 E0.4514
G1 X216.2382 Y115.4470 Z9.4115 E0.6502
G1 X216.2382 Y116.0130 Z9.4115 E0.6840
G1 X213.3678 Y113.1000 Z8.9155 E0.9306
G1 X212.8097 Y113.1000 Z8.8207 E0.9645
G1 X216.2382 Y116.5790 Z9.4115 E1.2590
G1 X216.2382 Y117.1440 Z9.4115 E1.2929
G1 X212.2526 Y113.1000 Z8.7267 E1.6353
G1 X211.6944 Y113.1000 Z8.6330 E1.6692
G1 X216.2382 Y117.7100 Z9.4115 E2.0595
G1 X216.2382 Y118.2760 Z9.4115 E2.0933
G1 X211.1362 Y113.1000 Z8.5398 E2.5315
G1 X210.5788 Y113.1000 Z8.4473 E2.5654
G1 X216.2382 Y118.8410 Z9.4115 E3.0515
G1 X216.2382 Y119.4070 Z9.4115 E3.0854
G1 X210.0203 Y113.1000 Z8.3552 E3.6194
G1 X209.4618 Y113.1000 Z8.2636 E3.6532
G1 X216.2382 Y119.9730 Z9.4115 E4.2351
G1 X216.2382 Y120.5380 Z9.4115 E4.2690
G1 X209.2658 Y113.4674 Z8.2316 E4.8677
G1 X208.9032 Y113.1000 Z8.1725 E4.8988
G1 X208.3454 Y113.1000 Z8.0821 E4.9326
G1 X215.3192 Y120.1711 Z9.2511 E5.5313
G1 X216.2382 Y121.1040 Z9.4115 E5.6103
G1 X216.2382 Y121.6700 Z9.4115 E5.6442
G1 X209.2663 Y114.5989 Z8.2316 E6.2428
G1 X207.7866 Y113.1000 Z7.9921 E6.3697
G1 X207.2278 Y113.1000 Z7.9026 E6.4036
G1 X214.2041 Y120.1707 Z9.0585 E7.0023
G1 X216.2382 Y122.2350 Z9.4115 E7.1771
G1 X216.2382 Y122.8010 Z9.4115 E7.2109
G1 X209.2663 Y115.7299 Z8.2316 E7.8096
G1 X206.6698 Y113.1000 Z7.8138 E8.0323
G1 X206.1107 Y113.1000 Z7.7254 E8.0662
G1 X213.0888 Y120.1711 Z8.8681 E8.6648
G1 X216.2382 Y123.3670 Z9.4115 E8.9354
G1 X216.2382 Y123.9320 Z9.4115 E8.9693
G1 X209.2660 Y116.8613 Z8.2316 E9.5679
G1 X205.5516 Y113.1000 Z7.6375 E9.8864
G1 X204.9934 Y113.1000 Z7.5502 E9.9203
G1 X211.9736 Y120.1711 Z8.6798 E10.5189
G1 X216.2382 Y124.4980 Z9.4115 E10.8853
G1 X216.2382 Y125.0640 Z9.4115 E10.9192
G1 X209.2663 Y117.9929 Z8.2316 E11.5178
G1 X204.4341 Y113.1000 Z7.4634 E11.9321
G1 X203.8747 Y113.1000 Z7.3770 E11.9660
G1 X210.8571 Y120.1711 Z8.4934 E12.5646
G1 X216.2382 Y125.6300 Z9.4115 E13.0268
G1 X216.2382 Y126.1950 Z9.4115 E13.0607
G1 X209.2663 Y119.1239 Z8.2316 E13.6594
G1 X203.3162 Y113.1000 Z7.2914 E14.1694
G1 X202.7567 Y113.1000 Z7.2061 E14.2033
G1 X209.7411 Y120.1711 Z8.3093 E14.8019
G1 X216.2382 Y126.7610 Z9.4115 E15.3599
G1 X216.2382 Y127.3270 Z9.4115 E15.3938
G1 X209.2663 Y120.2559 Z8.2316 E15.9924
G1 X202.2810 Y113.1849 Z7.1340 E16.5911
G1 X202.1971 Y113.1000 Z7.1214 E16.5983
G1 X201.6384 Y113.1000 Z7.0373 E16.6321
G1 X208.6249 Y120.1711 Z8.1273 E17.2308
G1 X215.5980 Y127.2421 Z9.2996 E17.8295
G1 X216.2382 Y127.8920 Z9.4115 E17.8846
G1 X216.2382 Y128.4580 Z9.4115 E17.9184
G1 X209.2663 Y121.3869 Z8.2316 E18.5170
G1 X202.2810 Y114.3159 Z7.1340 E19.1157
G1 X201.0786 Y113.1000 Z6.9536 E19.2187
G1 X200.5187 Y113.1000 Z6.8704 E19.2526
G1 X207.5073 Y120.1711 Z7.9473 E19.8512
G1 X214.4827 Y127.2421 Z9.1064 E20.4499
G1 X216.2382 Y129.0240 Z9.4115 E20.6008
G1 X216.2382 Y129.5890 Z9.4115 E20.6347
G1 X209.2661 Y122.5181 Z8.2316 E21.2333
G1 X202.2806 Y115.4473 Z7.1340 E21.8319
G1 X199.9588 Y113.1000 Z6.7878 E22.0307
G1 X199.3998 Y113.1000 Z6.7059 E22.0646
G1 X206.3903 Y120.1711 Z7.7695 E22.6632
G1 X213.3679 Y127.2421 Z8.9155 E23.2619
G1 X216.2382 Y130.1550 Z9.4115 E23.5085
G1 X216.2382 Y130.7210 Z9.4115 E23.5424
G1 X209.2663 Y123.6499 Z8.2316 E24.1411
G1 X202.2810 Y116.5789 Z7.1340 E24.7397
G1 X198.8397 Y113.1000 Z6.6243 E25.0342
G1 X198.2795 Y113.1000 Z6.5432 E25.0681
G1 X205.2723 Y120.1709 Z7.5937 E25.6668
G1 X212.2522 Y127.2417 Z8.7266 E26.2655
G1 X216.2382 Y131.2860 Z9.4115 E26.6079
G1 X216.2382 Y131.8520 Z9.4115 E26.6418
G1 X209.2663 Y124.7809 Z8.2316 E27.2405
G1 X202.2810 Y117.7099 Z7.1340 E27.8392
G1 X197.7203 Y113.1000 Z6.4628 E28.2294
G1 X197.1599 Y113.1000 Z6.3828 E28.2633
G1 X204.1545 Y120.1711 Z7.4202 E28.8620
G1 X211.1363 Y127.2421 Z8.5398 E29.4607
G1 X216.2382 Y132.4180 Z9.4115 E29.8989
G1 X216.2382 Y132.9830 Z9.4115 E29.9327
G1 X209.2661 Y125.9121 Z8.2316 E30.5314
G1 X202.2806 Y118.8412 Z7.1340 E31.1301
G1 X196.5996 Y113.1000 Z6.3034 E31.6162
G1 X196.0401 Y113.1000 Z6.2246 E31.6501
G1 X203.0365 Y120.1711 Z7.2487 E32.2488
G1 X210.0205 Y127.2421 Z8.3552 E32.8475
G1 X216.2382 Y133.5490 Z9.4115 E33.3814
G1 X216.2382 Y134.1150 Z9.4115 E33.4153
G1 X209.2663 Y127.0439 Z8.2316 E34.0140
G1 X202.2810 Y119.9729 Z7.1340 E34.6126
G1 X195.4795 Y113.1000 Z6.1462 E35.1945
G1 X194.9189 Y113.1000 Z6.0683 E35.2284
G1 X201.9175 Y120.1709 Z7.0792 E35.8271
G1 X208.9036 Y127.2418 Z8.1726 E36.4257
G1 X215.8764 Y134.3127 Z9.3482 E37.0244
G1 X216.2382 Y134.6800 Z9.4115 E37.0555
G1 X216.2382 Y135.2460 Z9.4115 E37.0894
G1 X209.2663 Y128.1749 Z8.2316 E37.6881
G1 X202.2810 Y121.1039 Z7.1340 E38.2868
G1 X195.2832 Y114.0328 Z6.1188 E38.8854
G1 X194.3592 Y113.1000 Z5.9911 E38.9644
G1 X193.7985 Y113.1000 Z5.9143 E38.9983
G1 X200.7987 Y120.1711 Z6.9120 E39.5970
G1 X207.7868 Y127.2421 Z7.9921 E40.1956
G1 X214.7616 Y134.3132 Z9.1546 E40.7943
G1 X216.2382 Y135.8120 Z9.4115 E40.9212
G1 X216.2382 Y136.3780 Z9.4115 E40.9551
G1 X209.2663 Y129.3069 Z8.2316 E41.5538
G1 X202.2810 Y122.2359 Z7.1340 E42.1524
G1 X195.2832 Y115.1648 Z6.1188 E42.7511
G1 X193.2376 Y113.1000 Z5.8380 E42.9259
G1 X192.6777 Y113.1000 Z5.7623 E42.9598
G1 X199.6799 Y120.1711 Z6.7468 E43.5585
G1 X206.6699 Y127.2421 Z7.8138 E44.1572
G1 X213.6469 Y134.3132 Z8.9631 E44.7558
G1 X216.2382 Y136.9430 Z9.4115 E44.9785
G1 X216.2382 Y137.5090 Z9.4115 E45.0124
G1 X209.2663 Y130.4379 Z8.2316 E45.6111
G1 X202.2810 Y123.3669 Z7.1340 E46.2097
G1 X195.2832 Y116.2958 Z6.1188 E46.8084
G1 X192.1167 Y113.1000 Z5.6871 E47.0790
G1 X191.5557 Y113.1000 Z5.6124 E47.1129
G1 X198.5597 Y120.1711 Z6.5837 E47.7116
G1 X205.5517 Y127.2421 Z7.6375 E48.3102
G1 X212.5309 Y134.3132 Z8.7736 E48.9089
G1 X216.2382 Y138.0750 Z9.4115 E49.2274
G1 X216.2382 Y138.6400 Z9.4115 E49.2612
G1 X209.2663 Y131.5689 Z8.2316 E49.8599
G1 X202.2810 Y124.4979 Z7.1340 E50.4586
G1 X195.2832 Y117.4268 Z6.1188 E51.0573
G1 X190.9956 Y113.1000 Z5.5383 E51.4237
G1 X190.4344 Y113.1000 Z5.4647 E51.4575
G1 X197.4402 Y120.1711 Z6.4228 E52.0562
G1 X204.4342 Y127.2421 Z7.4634 E52.6548
G1 X211.4155 Y134.3132 Z8.5863 E53.2535
G1 X216.2382 Y139.2060 Z9.4115 E53.6678
G1 X216.2382 Y139.7720 Z9.4115 E53.7017
G1 X209.2663 Y132.7009 Z8.2316 E54.3003
G1 X202.2810 Y125.6299 Z7.1340 E54.8990
G1 X195.2832 Y118.5588 Z6.1188 E55.4977
G1 X189.8731 Y113.1000 Z5.3916 E55.9599
G1 X189.3118 Y113.1000 Z5.3190 E55.9937
G1 X196.3195 Y120.1709 Z6.2639 E56.5923
G1 X203.3156 Y127.2419 Z7.2913 E57.1910
G1 X210.2992 Y134.3128 Z8.4011 E57.7897
G1 X216.2382 Y140.3370 Z9.4115 E58.2998
G1 X216.2382 Y140.9030 Z9.4115 E58.3337
G1 X209.2663 Y133.8319 Z8.2316 E58.9323
G1 X202.2810 Y126.7609 Z7.1340 E59.5310
G1 X195.2832 Y119.6898 Z6.1188 E60.1297
G1 X188.7514 Y113.1000 Z5.2470 E60.6877
G1 X188.1899 Y113.1000 Z5.1755 E60.7216
G1 X195.1993 Y120.1711 Z6.1072 E61.3202
G1 X202.1972 Y127.2421 Z7.1214 E61.9189
G1 X209.1827 Y134.3132 Z8.2180 E62.5175
G1 X216.1548 Y141.3843 Z9.3969 E63.1162
G1 X216.2382 Y141.4690 Z9.4115 E63.1233
G1 X216.2382 Y142.0340 Z9.4115 E63.1572
G1 X209.2662 Y134.9631 Z8.2316 E63.7559
G1 X202.2808 Y127.8921 Z7.1340 E64.3546
G1 X195.2829 Y120.8212 Z6.1188 E64.9533
G1 X188.2735 Y113.7502 Z5.1861 E65.5520
G1 X187.6284 Y113.1000 Z5.1045 E65.6070
G1 X187.0678 Y113.1000 Z5.0341 E65.6408
G1 X194.0789 Y120.1711 Z5.9526 E66.2395
G1 X201.0787 Y127.2421 Z6.9536 E66.8382
G1 X208.0663 Y134.3132 Z8.0371 E67.4369
G1 X215.0405 Y141.3843 Z9.2028 E68.0356
G1 X216.2382 Y142.6000 Z9.4115 E68.1385
G1 X216.2382 Y143.1660 Z9.4115 E68.1724
G1 X209.2663 Y136.0949 Z8.2316 E68.7711
G1 X202.2810 Y129.0239 Z7.1340 E69.3698
G1 X195.2832 Y121.9528 Z6.1188 E69.9684
G1 X188.2740 Y114.8817 Z5.1862 E70.5671
G1 X186.5061 Y113.1000 Z4.9642 E70.7179
G1 X185.9444 Y113.1000 Z4.8948 E70.7518
G1 X192.9574 Y120.1710 Z5.8000 E71.3505
G1 X199.9592 Y127.2419 Z6.7879 E71.9492
G1 X206.9488 Y134.3129 Z7.8582 E72.5479
G1 X213.9254 Y141.3838 Z9.0107 E73.1466
G1 X216.2382 Y143.7310 Z9.4115 E73.3453
G1 X216.2382 Y144.2970 Z9.4115 E73.3791
G1 X209.2663 Y137.2259 Z8.2316 E73.9778
G1 X202.2810 Y130.1549 Z7.1340 E74.5765
G1 X195.2832 Y123.0838 Z6.1188 E75.1752
G1 X188.2740 Y116.0127 Z5.1862 E75.7739
