; G-Code generated by Simplify3D(R) Version 4.0.1
; Feb 28, 2019 at 3:14:21 PM
; Settings Summary
;   processName,Process1
;   applyToModels,ex04_r100_flatten
;   profileName,AON3D
;   profileVersion,2019-02-28 13:48:36
;   baseProfile,Generic Dual Extrusion Profile
;   printMaterial,PLA
;   printQuality,
;   printExtruders,T1/Right Extruder Only
;   extruderName,T0/Left Extruder,T1/Right Extruder
;   extruderToolheadNumber,0,1
;   extruderDiameter,0.4,0.4
;   extruderAutoWidth,1,0
;   extruderWidth,0.48,0.4
;   extrusionMultiplier,1,0.9
;   extruderUseRetract,1,1
;   extruderRetractionDistance,2,3
;   extruderExtraRestartDistance,0.2,0.2
;   extruderRetractionZLift,0,0
;   extruderRetractionSpeed,3000,3000
;   extruderUseCoasting,1,0
;   extruderCoastingDistance,0.2,0.2
;   extruderUseWipe,0,0
;   extruderWipeDistance,2,2
;   primaryExtruder,1
;   layerHeight,0.2
;   topSolidLayers,2
;   bottomSolidLayers,2
;   perimeterOutlines,2
;   printPerimetersInsideOut,0
;   startPointOption,1
;   startPointOriginX,0
;   startPointOriginY,0
;   sequentialIslands,0
;   spiralVaseMode,0
;   firstLayerHeightPercentage,200
;   firstLayerWidthPercentage,100
;   firstLayerUnderspeed,0.5
;   useRaft,0
;   raftExtruder,1
;   raftTopLayers,2
;   raftBaseLayers,1
;   raftOffset,2
;   raftSeparationDistance,0
;   raftTopInfill,100
;   aboveRaftSpeedMultiplier,0.3
;   useSkirt,0
;   skirtExtruder,1
;   skirtLayers,1
;   skirtOutlines,2
;   skirtOffset,4
;   usePrimePillar,0
;   primePillarExtruder,999
;   primePillarWidth,12
;   primePillarLocation,7
;   primePillarSpeedMultiplier,1
;   useOozeShield,0
;   oozeShieldExtruder,999
;   oozeShieldOffset,2
;   oozeShieldOutlines,1
;   oozeShieldSidewallShape,1
;   oozeShieldSidewallAngle,30
;   oozeShieldSpeedMultiplier,1
;   infillExtruder,1
;   internalInfillPattern,Grid
;   externalInfillPattern,Rectilinear
;   infillPercentage,10
;   outlineOverlapPercentage,25
;   infillExtrusionWidthPercentage,100
;   minInfillLength,5
;   infillLayerInterval,1
;   internalInfillAngles,45,-45
;   overlapInternalInfillAngles,0
;   externalInfillAngles,0
;   generateSupport,0
;   supportExtruder,1
;   supportInfillPercentage,20
;   supportExtraInflation,0.5
;   supportBaseLayers,0
;   denseSupportExtruder,1
;   denseSupportLayers,3
;   denseSupportInfillPercentage,75
;   supportLayerInterval,1
;   supportHorizontalPartOffset,0
;   supportUpperSeparationLayers,1
;   supportLowerSeparationLayers,0
;   supportType,1
;   supportGridSpacing,2
;   maxOverhangAngle,35
;   supportAngles,45,-45
;   temperatureName,T0/Left Extruder,T1/Right Extruder,T2/Heated Chamber,Heated Bed
;   temperatureNumber,0,1,2,0
;   temperatureSetpointCount,1,1,1,1
;   temperatureSetpointLayers,1,1,1,1
;   temperatureSetpointTemperatures,0,210,0,60
;   temperatureStabilizeAtStartup,0,0,0,0
;   temperatureHeatedBed,0,0,0,1
;   temperatureRelayBetweenLayers,0,0,0,0
;   temperatureRelayBetweenLoops,0,0,0,0
;   fanLayers,1
;   fanSpeeds,0
;   blipFanToFullPower,1
;   adjustSpeedForCooling,1
;   minSpeedLayerTime,15
;   minCoolingSpeedSlowdown,20
;   increaseFanForCooling,0
;   minFanLayerTime,45
;   maxCoolingFanSpeed,100
;   increaseFanForBridging,1
;   bridgingFanSpeed,100
;   use5D,1
;   relativeEdistances,0
;   allowEaxisZeroing,1
;   independentExtruderAxes,0
;   includeM10123,0
;   stickySupport,1
;   applyToolheadOffsets,0
;   gcodeXoffset,0
;   gcodeYoffset,0
;   gcodeZoffset,0
;   overrideMachineDefinition,1
;   machineTypeOverride,0
;   strokeXoverride,450
;   strokeYoverride,425
;   strokeZoverride,620
;   originOffsetXoverride,0
;   originOffsetYoverride,0
;   originOffsetZoverride,0
;   homeXdirOverride,-1
;   homeYdirOverride,-1
;   homeZdirOverride,-1
;   flipXoverride,1
;   flipYoverride,-1
;   flipZoverride,1
;   toolheadOffsets,0,0|0,0|0,0|0,0|0,0|0,0
;   overrideFirmwareConfiguration,1
;   firmwareTypeOverride,RepRap (Marlin/Repetier/Sprinter)
;   GPXconfigOverride,r2
;   baudRateOverride,115200
;   overridePrinterModels,1
;   printerModelsOverride
;   startingGcode,;start,T1 ;activate T1,G28 ;home all axes,G92 E0,G1 E10 F200 ;purge 10mm,G92 E0 ;reset extruder,
;   layerChangeGcode,
;   retractionGcode,
;   toolChangeGcode,
;   endingGcode,G28 X ;move toolheads,M104 T0 S0 ;turn off T0 heater,M104 T1 S0 ;turn off T1 heater,M104 T2 S0 ;turn off chamber heater,M140 S0 ;turn off bed,M84 ;disable motors
;   exportFileFormat,gcode
;   celebration,0
;   celebrationSong,Random Song
;   postProcessing,
;   defaultSpeed,3600
;   outlineUnderspeed,1
;   solidInfillUnderspeed,1
;   supportUnderspeed,0.5
;   rapidXYspeed,29940
;   rapidZspeed,600
;   minBridgingArea,50
;   bridgingExtraInflation,0.5
;   bridgingExtrusionMultiplier,1
;   bridgingSpeedMultiplier,1
;   useFixedBridgingAngle,0
;   fixedBridgingAngle,0
;   applyBridgingToPerimeters,0
;   filamentDiameters,1.75|1.75|1.75|1.75|1.75|1.75
;   filamentPricesPerKg,15|15|15|15|15|15
;   filamentDensities,1.25|1.25|1.25|1.25|1.25|1.25
;   useMinPrintHeight,0
;   minPrintHeight,0
;   useMaxPrintHeight,0
;   maxPrintHeight,0
;   useDiaphragm,0
;   diaphragmLayerInterval,20
;   robustSlicing,1
;   mergeAllIntoSolid,0
;   onlyRetractWhenCrossingOutline,0
;   retractBetweenLayers,0
;   useRetractionMinTravel,1
;   retractionMinTravel,3
;   retractWhileWiping,1
;   onlyWipeOutlines,1
;   avoidCrossingOutline,0
;   maxMovementDetourFactor,3
;   toolChangeRetractionDistance,0.2
;   toolChangeExtraRestartDistance,0.5
;   toolChangeRetractionSpeed,4200
;   externalThinWallType,1
;   internalThinWallType,2
;   thinWallAllowedOverlapPercentage,10
;   singleExtrusionMinLength,1.6
;   singleExtrusionMinPrintingWidthPercentage,50
;   singleExtrusionMaxPrintingWidthPercentage,200
;   singleExtrusionEndpointExtension,0.2
;   horizontalSizeCompensation,0
G90
M82
M106 S255
G4 P500
M106 S0
M140 S60
M104 S0 T0
M104 S210 T1
M104 S0 T2
;start
T1 ;activate T1
G28 ;home all axes
G92 E0
G1 E10 F200 ;purge 10mm
G92 E0 ;reset extruder
G92 E0
G1 E-3.0000 F3000
G1 Z0.400 F600
; process Process1
; layer 1, Z = 0.400
T1
; tool H0.400 W0.400
; outer perimeter
G1 X381.880 Y182.700 F29940
G1 E0.2000 F900
G92 E0
G1 X381.880 Y242.300 E3.5681 F1800
G1 X68.120 Y242.300 E22.3524
G1 X68.120 Y182.700 E25.9205
G1 X381.880 Y182.700 E44.7047
; inner perimeter
G1 X381.480 Y183.100 F29940
G92 E0
G1 X381.480 Y241.900 E3.5203 F1800
G1 X68.520 Y241.900 E22.2566
G1 X68.520 Y183.100 E25.7768
G1 X381.480 Y183.100 E44.5131
G92 E0
G1 E-3.0000 F3000
; outer perimeter
G1 X367.786 Y193.102 F29940
G1 E0.2000 F3000
G92 E0
G1 X367.581 Y192.886 E0.0178 F1800
G1 X367.349 Y192.699 E0.0357
G1 X367.094 Y192.545 E0.0535
G1 X366.821 Y192.427 E0.0713
G1 X366.534 Y192.346 E0.0892
G1 X366.239 Y192.305 E0.1070
G1 X349.626 Y192.300 E1.1016
G1 X349.198 Y192.344 E1.1274
G1 X349.049 Y192.380 E1.1365
G1 X348.768 Y192.477 E1.1544
G1 X348.383 Y192.690 E1.1807
G1 X348.147 Y192.878 E1.1987
G1 X347.941 Y193.093 E1.2166
G1 X347.765 Y193.337 E1.2346
G1 X347.571 Y193.731 E1.2609
G1 X347.484 Y194.021 E1.2790
G1 X347.435 Y194.385 E1.3010
G1 X347.432 Y230.505 E3.4634
G1 X347.443 Y230.718 E3.4762
G1 X347.483 Y230.973 E3.4917
G1 X347.620 Y231.389 E3.5179
G1 X347.760 Y231.656 E3.5359
G1 X347.934 Y231.898 E3.5537
G1 X348.138 Y232.114 E3.5716
G1 X348.370 Y232.301 E3.5894
G1 X348.625 Y232.455 E3.6072
G1 X348.898 Y232.573 E3.6251
G1 X349.185 Y232.654 E3.6429
G1 X349.485 Y232.695 E3.6610
G1 X366.093 Y232.700 E4.6553
G1 X366.523 Y232.657 E4.6812
G1 X366.945 Y232.525 E4.7077
G1 X367.214 Y232.389 E4.7257
G1 X367.462 Y232.217 E4.7437
G1 X367.776 Y231.910 E4.7701
G1 X367.953 Y231.666 E4.7881
G1 X368.093 Y231.403 E4.8059
G1 X368.197 Y231.124 E4.8238
G1 X368.262 Y230.833 E4.8416
G1 X368.287 Y230.513 E4.8608
G1 X368.287 Y194.495 E7.0172
G1 X368.277 Y194.282 E7.0299
G1 X368.236 Y194.027 E7.0454
G1 X368.100 Y193.611 E7.0716
G1 X367.959 Y193.344 E7.0897
G1 X367.786 Y193.102 E7.1075
; inner perimeter
G1 X368.095 Y192.847 F29940
G92 E0
G1 X367.853 Y192.591 E0.0211 F1800
G1 X367.579 Y192.370 E0.0422
G1 X367.278 Y192.188 E0.0632
G1 X366.955 Y192.049 E0.0843
G1 X366.616 Y191.954 E0.1054
G1 X366.267 Y191.905 E0.1265
G1 X349.606 Y191.900 E1.1239
G1 X349.130 Y191.948 E1.1526
G1 X348.936 Y191.995 E1.1645
G1 X348.604 Y192.111 E1.1856
G1 X348.160 Y192.356 E1.2159
G1 X347.877 Y192.582 E1.2376
G1 X347.634 Y192.836 E1.2587
G1 X347.421 Y193.130 E1.2804
G1 X347.197 Y193.585 E1.3108
G1 X347.092 Y193.937 E1.3328
G1 X347.035 Y194.358 E1.3582
G1 X347.032 Y230.515 E3.5229
G1 X347.044 Y230.760 E3.5375
G1 X347.093 Y231.067 E3.5562
G1 X347.250 Y231.546 E3.5863
G1 X347.419 Y231.866 E3.6080
G1 X347.624 Y232.153 E3.6291
G1 X347.866 Y232.409 E3.6502
G1 X348.140 Y232.630 E3.6713
G1 X348.441 Y232.812 E3.6923
G1 X348.764 Y232.951 E3.7134
G1 X349.103 Y233.046 E3.7345
G1 X349.457 Y233.095 E3.7558
G1 X366.113 Y233.100 E4.7530
G1 X366.603 Y233.051 E4.7825
G1 X367.096 Y232.897 E4.8134
G1 X367.419 Y232.733 E4.8351
G1 X367.717 Y232.527 E4.8568
G1 X368.080 Y232.172 E4.8872
G1 X368.293 Y231.879 E4.9089
G1 X368.459 Y231.568 E4.9300
G1 X368.581 Y231.238 E4.9510
G1 X368.659 Y230.893 E4.9722
G1 X368.687 Y230.529 E4.9941
G1 X368.687 Y194.485 E7.1520
G1 X368.675 Y194.240 E7.1666
G1 X368.626 Y193.933 E7.1853
G1 X368.469 Y193.454 E7.2155
G1 X368.300 Y193.134 E7.2371
G1 X368.095 Y192.847 E7.2582
G92 E0
G1 E-3.0000 F3000
; outer perimeter
G1 X330.379 Y194.495 F29940
G1 E0.2000 F3000
G92 E0
G1 X330.368 Y194.282 E0.0128 F1800
G1 X330.328 Y194.027 E0.0282
G1 X330.191 Y193.611 E0.0545
G1 X330.051 Y193.344 E0.0725
G1 X329.877 Y193.102 E0.0903
G1 X329.673 Y192.886 E0.1081
G1 X329.441 Y192.699 E0.1260
G1 X329.186 Y192.545 E0.1438
G1 X328.913 Y192.427 E0.1616
G1 X328.626 Y192.346 E0.1795
G1 X328.331 Y192.305 E0.1973
G1 X311.718 Y192.300 E1.1919
G1 X311.289 Y192.344 E1.2177
G1 X311.140 Y192.380 E1.2269
G1 X310.859 Y192.477 E1.2447
G1 X310.474 Y192.690 E1.2710
G1 X310.239 Y192.878 E1.2890
G1 X310.033 Y193.093 E1.3069
G1 X309.856 Y193.337 E1.3249
G1 X309.662 Y193.731 E1.3512
G1 X309.576 Y194.021 E1.3693
G1 X309.526 Y194.385 E1.3913
G1 X309.524 Y230.505 E3.5537
G1 X309.534 Y230.718 E3.5665
G1 X309.575 Y230.973 E3.5820
G1 X309.711 Y231.389 E3.6082
G1 X309.852 Y231.656 E3.6262
G1 X310.025 Y231.898 E3.6441
G1 X310.230 Y232.114 E3.6619
G1 X310.461 Y232.301 E3.6797
G1 X310.717 Y232.455 E3.6975
G1 X310.990 Y232.573 E3.7154
G1 X311.277 Y232.654 E3.7332
G1 X311.576 Y232.695 E3.7513
G1 X328.185 Y232.700 E4.7456
G1 X328.614 Y232.657 E4.7715
G1 X329.040 Y232.524 E4.7982
G1 X329.428 Y232.310 E4.8247
G1 X329.664 Y232.122 E4.8428
G1 X329.869 Y231.907 E4.8606
G1 X330.044 Y231.666 E4.8784
G1 X330.185 Y231.403 E4.8962
G1 X330.289 Y231.124 E4.9141
G1 X330.354 Y230.833 E4.9319
G1 X330.379 Y230.513 E4.9511
G1 X330.379 Y194.495 E7.1075
; inner perimeter
G1 X330.779 Y194.485 F29940
G92 E0
G1 X330.767 Y194.240 E0.0147 F1800
G1 X330.718 Y193.933 E0.0333
G1 X330.561 Y193.454 E0.0635
G1 X330.392 Y193.134 E0.0852
G1 X330.187 Y192.847 E0.1062
G1 X329.945 Y192.591 E0.1273
G1 X329.671 Y192.370 E0.1484
G1 X329.369 Y192.188 E0.1695
G1 X329.047 Y192.049 E0.1905
G1 X328.708 Y191.954 E0.2116
G1 X328.358 Y191.905 E0.2327
G1 X311.697 Y191.900 E1.2302
G1 X311.222 Y191.948 E1.2588
G1 X311.027 Y191.995 E1.2708
G1 X310.696 Y192.111 E1.2918
G1 X310.251 Y192.356 E1.3222
G1 X309.968 Y192.582 E1.3439
G1 X309.725 Y192.836 E1.3650
G1 X309.512 Y193.130 E1.3866
G1 X309.288 Y193.585 E1.4170
G1 X309.184 Y193.937 E1.4390
G1 X309.126 Y194.358 E1.4644
G1 X309.124 Y230.515 E3.6291
G1 X309.136 Y230.760 E3.6438
G1 X309.185 Y231.067 E3.6624
G1 X309.342 Y231.546 E3.6926
G1 X309.511 Y231.866 E3.7143
G1 X309.716 Y232.153 E3.7354
G1 X309.957 Y232.409 E3.7564
G1 X310.232 Y232.630 E3.7775
G1 X310.533 Y232.812 E3.7986
G1 X310.856 Y232.951 E3.8196
G1 X311.195 Y233.046 E3.8407
G1 X311.548 Y233.095 E3.8621
G1 X328.205 Y233.100 E4.8593
G1 X328.694 Y233.051 E4.8887
G1 X329.198 Y232.894 E4.9203
G1 X329.651 Y232.644 E4.9513
G1 X329.934 Y232.418 E4.9730
G1 X330.177 Y232.164 E4.9941
G1 X330.384 Y231.879 E5.0151
G1 X330.550 Y231.568 E5.0362
G1 X330.673 Y231.238 E5.0573
G1 X330.750 Y230.893 E5.0785
G1 X330.779 Y230.529 E5.1003
G1 X330.779 Y194.485 E7.2582
G92 E0
G1 E-3.0000 F3000
; outer perimeter
G1 X292.470 Y194.495 F29940
G1 E0.2000 F3000
G92 E0
G1 X292.460 Y194.282 E0.0128 F1800
G1 X292.419 Y194.027 E0.0282
G1 X292.283 Y193.611 E0.0545
G1 X292.142 Y193.344 E0.0725
G1 X291.969 Y193.102 E0.0903
G1 X291.764 Y192.886 E0.1081
G1 X291.532 Y192.699 E0.1260
G1 X291.277 Y192.545 E0.1438
G1 X291.004 Y192.427 E0.1616
G1 X290.717 Y192.346 E0.1795
G1 X290.422 Y192.305 E0.1973
G1 X273.809 Y192.300 E1.1919
G1 X273.381 Y192.344 E1.2177
G1 X273.228 Y192.380 E1.2271
G1 X272.822 Y192.538 E1.2532
G1 X272.563 Y192.692 E1.2712
G1 X272.330 Y192.878 E1.2890
G1 X272.124 Y193.093 E1.3069
G1 X271.948 Y193.337 E1.3249
G1 X271.753 Y193.731 E1.3512
G1 X271.667 Y194.021 E1.3693
G1 X271.618 Y194.385 E1.3913
G1 X271.615 Y230.505 E3.5537
G1 X271.626 Y230.718 E3.5665
G1 X271.666 Y230.973 E3.5820
G1 X271.803 Y231.389 E3.6082
G1 X271.943 Y231.656 E3.6262
G1 X272.117 Y231.898 E3.6440
G1 X272.321 Y232.114 E3.6619
G1 X272.553 Y232.301 E3.6797
G1 X272.808 Y232.455 E3.6975
G1 X273.081 Y232.573 E3.7154
G1 X273.368 Y232.654 E3.7332
G1 X273.667 Y232.695 E3.7513
G1 X290.276 Y232.700 E4.7456
G1 X290.705 Y232.657 E4.7715
G1 X291.132 Y232.524 E4.7982
G1 X291.520 Y232.310 E4.8247
G1 X291.755 Y232.122 E4.8428
G1 X291.961 Y231.907 E4.8606
G1 X292.136 Y231.666 E4.8784
G1 X292.276 Y231.403 E4.8962
G1 X292.380 Y231.124 E4.9141
G1 X292.445 Y230.833 E4.9319
G1 X292.470 Y230.513 E4.9511
G1 X292.470 Y194.495 E7.1075
; inner perimeter
G1 X292.870 Y194.485 F29940
G92 E0
G1 X292.858 Y194.240 E0.0147 F1800
G1 X292.809 Y193.933 E0.0333
G1 X292.652 Y193.454 E0.0635
G1 X292.483 Y193.134 E0.0852
G1 X292.278 Y192.847 E0.1062
G1 X292.036 Y192.591 E0.1273
G1 X291.762 Y192.370 E0.1484
G1 X291.461 Y192.188 E0.1695
G1 X291.138 Y192.049 E0.1905
G1 X290.799 Y191.954 E0.2116
G1 X290.450 Y191.905 E0.2327
G1 X273.789 Y191.900 E1.2302
G1 X273.313 Y191.948 E1.2588
G1 X273.109 Y191.998 E1.2714
G1 X272.646 Y192.177 E1.3011
G1 X272.335 Y192.362 E1.3228
G1 X272.060 Y192.582 E1.3439
G1 X271.816 Y192.836 E1.3650
G1 X271.604 Y193.130 E1.3866
G1 X271.380 Y193.585 E1.4170
G1 X271.275 Y193.937 E1.4390
G1 X271.218 Y194.358 E1.4644
G1 X271.215 Y230.515 E3.6291
G1 X271.227 Y230.760 E3.6438
G1 X271.276 Y231.067 E3.6624
G1 X271.433 Y231.546 E3.6926
G1 X271.602 Y231.866 E3.7143
G1 X271.807 Y232.153 E3.7353
G1 X272.049 Y232.409 E3.7564
G1 X272.323 Y232.630 E3.7775
G1 X272.624 Y232.812 E3.7986
G1 X272.947 Y232.951 E3.8196
G1 X273.286 Y233.046 E3.8407
G1 X273.640 Y233.095 E3.8621
G1 X290.296 Y233.100 E4.8593
G1 X290.786 Y233.051 E4.8887
G1 X291.289 Y232.894 E4.9203
G1 X291.742 Y232.644 E4.9513
G1 X292.026 Y232.418 E4.9730
G1 X292.269 Y232.164 E4.9941
G1 X292.475 Y231.879 E5.0151
G1 X292.642 Y231.568 E5.0362
G1 X292.764 Y231.238 E5.0573
G1 X292.842 Y230.893 E5.0785
G1 X292.870 Y230.529 E5.1003
G1 X292.870 Y194.485 E7.2582
G92 E0
G1 E-3.0000 F3000
; outer perimeter
G1 X254.562 Y194.495 F29940
G1 E0.2000 F3000
G92 E0
G1 X254.551 Y194.282 E0.0128 F1800
G1 X254.511 Y194.027 E0.0282
G1 X254.374 Y193.611 E0.0545
G1 X254.234 Y193.344 E0.0725
G1 X254.060 Y193.102 E0.0903
G1 X253.856 Y192.886 E0.1081
G1 X253.624 Y192.699 E0.1260
G1 X253.369 Y192.545 E0.1438
G1 X253.096 Y192.427 E0.1616
G1 X252.809 Y192.346 E0.1795
G1 X252.514 Y192.305 E0.1973
G1 X235.901 Y192.300 E1.1919
G1 X235.472 Y192.344 E1.2177
G1 X235.323 Y192.380 E1.2269
G1 X235.042 Y192.477 E1.2447
G1 X234.657 Y192.690 E1.2710
G1 X234.422 Y192.878 E1.2890
G1 X234.216 Y193.093 E1.3069
G1 X234.039 Y193.337 E1.3249
G1 X233.845 Y193.731 E1.3512
G1 X233.759 Y194.021 E1.3693
G1 X233.709 Y194.385 E1.3913
G1 X233.706 Y230.505 E3.5537
G1 X233.717 Y230.718 E3.5665
G1 X233.758 Y230.973 E3.5820
G1 X233.894 Y231.389 E3.6082
G1 X234.035 Y231.656 E3.6262
G1 X234.208 Y231.898 E3.6440
G1 X234.412 Y232.114 E3.6619
G1 X234.644 Y232.301 E3.6797
G1 X234.899 Y232.455 E3.6975
G1 X235.173 Y232.573 E3.7154
G1 X235.459 Y232.654 E3.7332
G1 X235.759 Y232.695 E3.7513
