; G-Code generated by Simplify3D(R) Version 4.0.1
; Feb 28, 2019 at 3:14:21 PM
; Settings Summary
;   processName,Process1
;   applyToModels,ex04_r100_flatten
;   profileName,AON3D
;   profileVersion,2019-02-28 13:48:36
;   baseProfile,Generic Dual Extrusion Profile
;   printMaterial,PLA
;   printQuality,
;   printExtruders,T1/Right Extruder Only
;   extruderName,T0/Left Extruder,T1/Right Extruder
;   extruderToolheadNumber,0,1
;   extruderDiameter,0.4,0.4
;   extruderAutoWidth,1,0
;   extruderWidth,0.48,0.4
;   extrusionMultiplier,1,0.9
;   extruderUseRetract,1,1
;   extruderRetractionDistance,2,3
;   extruderExtraRestartDistance,0.2,0.2
;   extruderRetractionZLift,0,0
;   extruderRetractionSpeed,3000,3000
;   extruderUseCoasting,1,0
;   extruderCoastingDistance,0.2,0.2
;   extruderUseWipe,0,0
;   extruderWipeDistance,2,2
;   primaryExtruder,1
;   layerHeight,0.2
;   topSolidLayers,2
;   bottomSolidLayers,2
;   perimeterOutlines,2
;   printPerimetersInsideOut,0
;   startPointOption,1
;   startPointOriginX,0
;   startPointOriginY,0
;   sequentialIslands,0
;   spiralVaseMode,0
;   firstLayerHeightPercentage,200
;   firstLayerWidthPercentage,100
;   firstLayerUnderspeed,0.5
;   useRaft,0
;   raftExtruder,1
;   raftTopLayers,2
;   raftBaseLayers,1
;   raftOffset,2
;   raftSeparationDistance,0
;   raftTopInfill,100
;   aboveRaftSpeedMultiplier,0.3
;   useSkirt,0
;   skirtExtruder,1
;   skirtLayers,1
;   skirtOutlines,2
;   skirtOffset,4
;   usePrimePillar,0
;   primePillarExtruder,999
;   primePillarWidth,12
;   primePillarLocation,7
;   primePillarSpeedMultiplier,1
;   useOozeShield,0
;   oozeShieldExtruder,999
;   oozeShieldOffset,2
;   oozeShieldOutlines,1
;   oozeShieldSidewallShape,1
;   oozeShieldSidewallAngle,30
;   oozeShieldSpeedMultiplier,1
;   infillExtruder,1
;   internalInfillPattern,Grid
;   externalInfillPattern,Rectilinear
;   infillPercentage,10
;   outlineOverlapPercentage,25
;   infillExtrusionWidthPercentage,100
;   minInfillLength,5
;   infillLayerInterval,1
;   internalInfillAngles,45,-45
;   overlapInternalInfillAngles,0
;   externalInfillAngles,0
;   generateSupport,0
;   supportExtruder,1
;   supportInfillPercentage,20
;   supportExtraInflation,0.5
;   supportBaseLayers,0
;   denseSupportExtruder,1
;   denseSupportLayers,3
;   denseSupportInfillPercentage,75
;   supportLayerInterval,1
;   supportHorizontalPartOffset,0
;   supportUpperSeparationLayers,1
;   supportLowerSeparationLayers,0
;   supportType,1
;   supportGridSpacing,2
;   maxOverhangAngle,35
;   supportAngles,45,-45
;   temperatureName,T0/Left Extruder,T1/Right Extruder,T2/Heated Chamber,Heated Bed
;   temperatureNumber,0,1,2,0
;   temperatureSetpointCount,1,1,1,1
;   temperatureSetpointLayers,1,1,1,1
;   temperatureSetpointTemperatures,0,210,0,60
;   temperatureStabilizeAtStartup,0,0,0,0
;   temperatureHeatedBed,0,0,0,1
;   temperatureRelayBetweenLayers,0,0,0,0
;   temperatureRelayBetweenLoops,0,0,0,0
;   fanLayers,1
;   fanSpeeds,0
;   blipFanToFullPower,1
;   adjustSpeedForCooling,1
;   minSpeedLayerTime,15
;   minCoolingSpeedSlowdown,20
;   increaseFanForCooling,0
;   minFanLayerTime,45
;   maxCoolingFanSpeed,100
;   increaseFanForBridging,1
;   bridgingFanSpeed,100
;   use5D,1
;   relativeEdistances,0
;   allowEaxisZeroing,1
;   independentExtruderAxes,0
;   includeM10123,0
;   stickySupport,1
;   applyToolheadOffsets,0
;   gcodeXoffset,0
;   gcodeYoffset,0
;   gcodeZoffset,0
;   overrideMachineDefinition,1
;   machineTypeOverride,0
;   strokeXoverride,450
;   strokeYoverride,425
;   strokeZoverride,620
;   originOffsetXoverride,0
;   originOffsetYoverride,0
;   originOffsetZoverride,0
;   homeXdirOverride,-1
;   homeYdirOverride,-1
;   homeZdirOverride,-1
;   flipXoverride,1
;   flipYoverride,-1
;   flipZoverride,1
;   toolheadOffsets,0,0|0,0|0,0|0,0|0,0|0,0
;   overrideFirmwareConfiguration,1
;   firmwareTypeOverride,RepRap (Marlin/Repetier/Sprinter)
;   GPXconfigOverride,r2
;   baudRateOverride,115200
;   overridePrinterModels,1
;   printerModelsOverride
;   startingGcode,;start,T1 ;activate T1,G28 ;home all axes,G92 E0,G1 E10 F200 ;purge 10mm,G92 E0 ;reset extruder,
;   layerChangeGcode,
;   retractionGcode,
;   toolChangeGcode,
;   endingGcode,G28 X ;move toolheads,M104 T0 S0 ;turn off T0 heater,M104 T1 S0 ;turn off T1 heater,M104 T2 S0 ;turn off chamber heater,M140 S0 ;turn off bed,M84 ;disable motors
;   exportFileFormat,gcode
;   celebration,0
;   celebrationSong,Random Song
;   postProcessing,
;   defaultSpeed,3600
;   outlineUnderspeed,1
;   solidInfillUnderspeed,1
;   supportUnderspeed,0.5
;   rapidXYspeed,29940
;   rapidZspeed,600
;   minBridgingArea,50
;   bridgingExtraInflation,0.5
;   bridgingExtrusionMultiplier,1
;   bridgingSpeedMultiplier,1
;   useFixedBridgingAngle,0
;   fixedBridgingAngle,0
;   applyBridgingToPerimeters,0
;   filamentDiameters,1.75|1.75|1.75|1.75|1.75|1.75
;   filamentPricesPerKg,15|15|15|15|15|15
;   filamentDensities,1.25|1.25|1.25|1.25|1.25|1.25
;   useMinPrintHeight,0
;   minPrintHeight,0
;   useMaxPrintHeight,0
;   maxPrintHeight,0
;   useDiaphragm,0
;   diaphragmLayerInterval,20
;   robustSlicing,1
;   mergeAllIntoSolid,0
;   onlyRetractWhenCrossingOutline,0
;   retractBetweenLayers,0
;   useRetractionMinTravel,1
;   retractionMinTravel,3
;   retractWhileWiping,1
;   onlyWipeOutlines,1
;   avoidCrossingOutline,0
;   maxMovementDetourFactor,3
;   toolChangeRetractionDistance,0.2
;   toolChangeExtraRestartDistance,0.5
;   toolChangeRetractionSpeed,4200
;   externalThinWallType,1
;   internalThinWallType,2
;   thinWallAllowedOverlapPercentage,10
;   singleExtrusionMinLength,1.6
;   singleExtrusionMinPrintingWidthPercentage,50
;   singleExtrusionMaxPrintingWidthPercentage,200
;   singleExtrusionEndpointExtension,0.2
;   horizontalSizeCompensation,0
G90
M82
M106 S255
G4 P500
M106 S0
M140 S60
M104 S0 T0
M104 S210 T1
M104 S0 T2
;start
T1 ;activate T1
G28 ;home all axes
G92 E0
G1 E10 F200 ;purge 10mm
G92 E0 ;reset extruder
G92 E0
G1 E-3.0000 F3000
G1 Z0.400 F600
; process Process1
; layer 1, Z = 0.400
T1
; tool H0.400 W0.400
; outer perimeter
G1 X324.9998 Y182.7000 Z100.2004 F29940
G1 E0.2000 F900
G92 E0
G1 X324.9998 Y192.7000 Z100.2004 E0.5987
G1 X324.9998 Y202.7000 Z100.2004 E1.1973
G1 X324.9998 Y212.7000 Z100.2004 E1.7960
G1 X324.9998 Y222.7000 Z100.2004 E2.3947
G1 X324.9998 Y232.7000 Z100.2004 E2.9934
G1 X324.9998 Y242.3000 Z100.2004 E3.5681 F1800
G1 X324.4803 Y242.3000 Z90.2180 E4.1665
G1 X322.9668 Y242.3000 Z80.3375 E4.7650
G1 X320.4745 Y242.3000 Z70.6573 E5.3634
G1 X317.0282 Y242.3000 Z61.2744 E5.9618
G1 X312.6624 Y242.3000 Z52.2823 E6.5603
G1 X307.4207 Y242.3000 Z43.7711 E7.1587
G1 X301.3555 Y242.3000 Z35.8257 E7.7571
G1 X294.5273 Y242.3000 Z28.5254 E8.3556
G1 X287.0045 Y242.3000 Z21.9434 E8.9540
G1 X278.8621 Y242.3000 Z16.1452 E9.5524
G1 X270.1816 Y242.3000 Z11.1889 E10.1509
G1 X261.0496 Y242.3000 Z7.1239 E10.7493
G1 X251.5575 Y242.3000 Z3.9910 E11.3477
G1 X241.8000 Y242.3000 Z1.8213 E11.9462
G1 X231.8746 Y242.3000 Z0.6366 E12.5446
G1 X221.8805 Y242.3000 Z0.4487 E13.1430
G1 X211.9176 Y242.3000 Z1.2594 E13.7415
G1 X202.0854 Y242.3000 Z3.0608 E14.3399
G1 X192.4822 Y242.3000 Z5.8347 E14.9384
G1 X183.2039 Y242.3000 Z9.5535 E15.5368
G1 X174.3432 Y242.3000 Z14.1800 E16.1352
G1 X165.9886 Y242.3000 Z19.6680 E16.7337
G1 X158.2237 Y242.3000 Z25.9626 E17.3321
G1 X151.1259 Y242.3000 Z33.0010 E17.9305
G1 X144.7663 Y242.3000 Z40.7128 E18.5290
G1 X139.2084 Y242.3000 Z49.0210 E19.1274
G1 X134.5076 Y242.3000 Z57.8426 E19.7258
G1 X130.7111 Y242.3000 Z67.0893 E20.3243
G1 X127.8566 Y242.3000 Z76.6689 E20.9227
G1 X125.9728 Y242.3000 Z86.4857 E21.5211
G1 X125.0784 Y242.3000 Z96.4414 E22.1196
G1 X125.0002 Y242.3000 Z100.2004 E22.3447
G1 X125.0002 Y232.3000 Z100.2004 E22.9433
G1 X125.0002 Y222.3000 Z100.2004 E23.5420
G1 X125.0002 Y212.3000 Z100.2004 E24.1407
G1 X125.0002 Y202.3000 Z100.2004 E24.7394
G1 X125.0002 Y192.3000 Z100.2004 E25.3380
G1 X125.0002 Y182.7000 Z100.2004 E25.9128
G1 X125.5197 Y182.7000 Z90.2180 E26.5112
G1 X127.0332 Y182.7000 Z80.3375 E27.1096
G1 X129.5255 Y182.7000 Z70.6573 E27.7080
G1 X132.9718 Y182.7000 Z61.2744 E28.3065
G1 X137.3376 Y182.7000 Z52.2823 E28.9049
G1 X142.5793 Y182.7000 Z43.7711 E29.5033
G1 X148.6445 Y182.7000 Z35.8257 E30.1018
G1 X155.4727 Y182.7000 Z28.5254 E30.7002
G1 X162.9955 Y182.7000 Z21.9434 E31.2986
G1 X171.1379 Y182.7000 Z16.1452 E31.8971
G1 X179.8184 Y182.7000 Z11.1889 E32.4955
G1 X188.9504 Y182.7000 Z7.1239 E33.0939
G1 X198.4425 Y182.7000 Z3.9910 E33.6924
G1 X208.2000 Y182.7000 Z1.8213 E34.2908
G1 X218.1254 Y182.7000 Z0.6366 E34.8892
G1 X228.1195 Y182.7000 Z0.4487 E35.4877
G1 X238.0824 Y182.7000 Z1.2594 E36.0861
G1 X247.9146 Y182.7000 Z3.0608 E36.6845
G1 X257.5178 Y182.7000 Z5.8347 E37.2829
G1 X266.7961 Y182.7000 Z9.5535 E37.8814
G1 X275.6568 Y182.7000 Z14.1800 E38.4798
G1 X284.0114 Y182.7000 Z19.6680 E39.0782
G1 X291.7763 Y182.7000 Z25.9626 E39.6767
G1 X298.8741 Y182.7000 Z33.0010 E40.2751
G1 X305.2337 Y182.7000 Z40.7128 E40.8735
G1 X310.7916 Y182.7000 Z49.0210 E41.4720
G1 X315.4924 Y182.7000 Z57.8426 E42.0704
G1 X319.2889 Y182.7000 Z67.0893 E42.6688
G1 X322.1434 Y182.7000 Z76.6689 E43.2673
G1 X324.0272 Y182.7000 Z86.4857 E43.8657
G1 X324.9216 Y182.7000 Z96.4414 E44.4641
G1 X324.9998 Y182.7000 Z100.2004 E44.6892
; inner perimeter
G1 X324.9982 Y183.1000 Z99.8004 F29940
G92 E0
G1 X324.9982 Y193.1000 Z99.8004 E0.5987
G1 X324.9982 Y203.1000 Z99.8004 E1.1974
G1 X324.9982 Y213.1000 Z99.8004 E1.7961
G1 X324.9982 Y223.1000 Z99.8004 E2.3948
G1 X324.9982 Y233.1000 Z99.8004 E2.9935
G1 X324.9982 Y241.9000 Z99.8004 E3.5203 F1800
G1 X324.4388 Y241.9000 Z89.8202 E4.1187
G1 X322.8858 Y241.9000 Z79.9457 E4.7172
G1 X320.3547 Y241.9000 Z70.2757 E5.3156
G1 X316.8709 Y241.9000 Z60.9066 E5.9140
G1 X312.4692 Y241.9000 Z51.9321 E6.5125
G1 X307.1935 Y241.9000 Z43.4419 E7.1109
G1 X301.0966 Y241.9000 Z35.5208 E7.7093
G1 X294.2393 Y241.9000 Z28.2479 E8.3077
G1 X286.6902 Y241.9000 Z21.6960 E8.9062
G1 X278.5247 Y241.9000 Z15.9304 E9.5046
G1 X269.8244 Y241.9000 Z11.0089 E10.1030
G1 X260.6762 Y241.9000 Z6.9805 E10.7015
G1 X251.1716 Y241.9000 Z3.8855 E11.2999
G1 X241.4055 Y241.9000 Z1.7549 E11.8983
G1 X231.4755 Y241.9000 Z0.6099 E12.4968
G1 X221.4807 Y241.9000 Z0.4619 E13.0952
G1 X211.5212 Y241.9000 Z1.3126 E13.6936
G1 X201.6963 Y241.9000 Z3.1532 E14.2921
G1 X192.1042 Y241.9000 Z5.9655 E14.8905
G1 X182.8408 Y241.9000 Z9.7214 E15.4889
G1 X173.9987 Y241.9000 Z14.3833 E16.0873
G1 X165.6661 Y241.9000 Z19.9047 E16.6858
G1 X157.9264 Y241.9000 Z26.2303 E17.2842
G1 X150.8569 Y241.9000 Z33.2971 E17.8826
G1 X144.5282 Y241.9000 Z41.0343 E18.4811
G1 X139.0036 Y241.9000 Z49.3646 E19.0795
G1 X134.3381 Y241.9000 Z58.2049 E19.6779
G1 X130.5786 Y241.9000 Z67.4668 E20.2764
G1 X127.7625 Y241.9000 Z77.0577 E20.8748
G1 X125.9179 Y241.9000 Z86.8819 E21.4732
G1 X125.0633 Y241.9000 Z96.8411 E22.0717
G1 X125.0018 Y241.9000 Z99.8004 E22.2489
G1 X125.0018 Y231.9000 Z99.8004 E22.8475
G1 X125.0018 Y221.9000 Z99.8004 E23.4462
G1 X125.0018 Y211.9000 Z99.8004 E24.0449
G1 X125.0018 Y201.9000 Z99.8004 E24.6436
G1 X125.0018 Y191.9000 Z99.8004 E25.2422
G1 X125.0018 Y183.1000 Z99.8004 E25.7691
G1 X125.5612 Y183.1000 Z89.8202 E26.3675
G1 X127.1142 Y183.1000 Z79.9457 E26.9659
G1 X129.6453 Y183.1000 Z70.2757 E27.5644
G1 X133.1291 Y183.1000 Z60.9066 E28.1628
G1 X137.5308 Y183.1000 Z51.9321 E28.7612
G1 X142.8065 Y183.1000 Z43.4419 E29.3596
G1 X148.9034 Y183.1000 Z35.5208 E29.9581
G1 X155.7607 Y183.1000 Z28.2479 E30.5565
G1 X163.3098 Y183.1000 Z21.6960 E31.1549
G1 X171.4753 Y183.1000 Z15.9304 E31.7534
G1 X180.1756 Y183.1000 Z11.0089 E32.3518
G1 X189.3238 Y183.1000 Z6.9805 E32.9502
G1 X198.8284 Y183.1000 Z3.8855 E33.5487
G1 X208.5945 Y183.1000 Z1.7549 E34.1471
G1 X218.5245 Y183.1000 Z0.6099 E34.7455
G1 X228.5193 Y183.1000 Z0.4619 E35.3440
G1 X238.4788 Y183.1000 Z1.3126 E35.9424
G1 X248.3037 Y183.1000 Z3.1532 E36.5408
G1 X257.8958 Y183.1000 Z5.9655 E37.1392
G1 X267.1592 Y183.1000 Z9.7214 E37.7377
G1 X276.0013 Y183.1000 Z14.3833 E38.3361
G1 X284.3339 Y183.1000 Z19.9047 E38.9345
G1 X292.0736 Y183.1000 Z26.2303 E39.5330
G1 X299.1431 Y183.1000 Z33.2971 E40.1314
G1 X305.4718 Y183.1000 Z41.0343 E40.7298
G1 X310.9964 Y183.1000 Z49.3646 E41.3283
G1 X315.6619 Y183.1000 Z58.2049 E41.9267
G1 X319.4214 Y183.1000 Z67.4668 E42.5251
G1 X322.2375 Y183.1000 Z77.0577 E43.1236
G1 X324.0821 Y183.1000 Z86.8819 E43.7220
G1 X324.9367 Y183.1000 Z96.8411 E44.3204
G1 X324.9982 Y183.1000 Z99.8004 E44.4976
G92 E0
G1 E-3.0000 F3000
; outer perimeter
G1 X324.6240 Y188.9982 Z91.7359
G1 X323.9802 Y193.1020 Z86.1550 F29940
G1 E0.2000 F3000
G92 E0
G1 X323.9508 Y192.8860 Z85.9521 E0.0178 F1800
G1 X323.9170 Y192.6990 Z85.7226 E0.0357
G1 X323.8793 Y192.5450 Z85.4704 E0.0535
G1 X323.8381 Y192.4270 Z85.2005 E0.0713
G1 X323.7941 Y192.3460 Z84.9169 E0.0892
G1 X323.7480 Y192.3050 Z84.6255 E0.1070
G1 X321.6798 Y192.3020 Z74.8460 E0.7054
G1 X319.7799 Y192.3000 Z68.5131 E1.1013
G1 X319.6425 Y192.3440 Z68.1077 E1.1271
G1 X319.5943 Y192.3800 Z67.9667 E1.1362
G1 X319.5028 Y192.4770 Z67.7010 E1.1541
G1 X319.3762 Y192.6900 Z67.3374 E1.1804
G1 X319.2979 Y192.8780 Z67.1148 E1.1984
G1 X319.2291 Y193.0930 Z66.9206 E1.2163
G1 X319.1701 Y193.3370 Z66.7548 E1.2343
G1 X319.1046 Y193.7310 Z66.5722 E1.2606
G1 X319.0752 Y194.0210 Z66.4904 E1.2787
G1 X319.0585 Y194.3850 Z66.4443 E1.3007
G1 X319.0583 Y204.3850 Z66.4435 E1.8993
G1 X319.0580 Y214.3850 Z66.4427 E2.4980
G1 X319.0577 Y224.3850 Z66.4419 E3.0967
G1 X319.0575 Y230.5050 Z66.4414 E3.4631
G1 X319.0612 Y230.7180 Z66.4518 E3.4759
G1 X319.0748 Y230.9730 Z66.4894 E3.4914
G1 X319.1212 Y231.3890 Z66.6183 E3.5176
G1 X319.1684 Y231.6560 Z66.7501 E3.5356
G1 X319.2268 Y231.8980 Z66.9140 E3.5534
G1 X319.2949 Y232.1140 Z67.1063 E3.5713
G1 X319.3719 Y232.3010 Z67.3252 E3.5891
G1 X319.4559 Y232.4550 Z67.5659 E3.6069
G1 X319.5452 Y232.5730 Z67.8239 E3.6248
G1 X319.6383 Y232.6540 Z68.0954 E3.6426
G1 X319.7348 Y232.6950 Z68.3795 E3.6607
G1 X322.4583 Y232.6980 Z77.9971 E4.2591
G1 X323.7249 Y232.7000 Z84.4814 E4.6547
G1 X323.7924 Y232.6570 Z84.9060 E4.6806
G1 X323.8569 Y232.5250 Z85.3231 E4.7071
G1 X323.8971 Y232.3890 Z85.5891 E4.7251
G1 X323.9335 Y232.2170 Z85.8344 E4.7431
G1 X323.9788 Y231.9100 Z86.1451 E4.7695
G1 X324.0038 Y231.6660 Z86.3203 E4.7875
G1 X324.0235 Y231.4030 Z86.4589 E4.8053
G1 X324.0379 Y231.1240 Z86.5619 E4.8232
G1 X324.0469 Y230.8330 Z86.6263 E4.8410
G1 X324.0503 Y230.5130 Z86.6511 E4.8602
G1 X324.0503 Y220.5130 Z86.6511 E5.4589
G1 X324.0503 Y210.5130 Z86.6511 E6.0576
G1 X324.0503 Y200.5130 Z86.6511 E6.6563
G1 X324.0503 Y194.4950 Z86.6511 E7.0166
G1 X324.0489 Y194.2820 Z86.6412 E7.0293
G1 X324.0433 Y194.0270 Z86.6005 E7.0448
G1 X324.0244 Y193.6110 Z86.4659 E7.0710
G1 X324.0047 Y193.3440 Z86.3262 E7.0891
G1 X323.9802 Y193.1020 Z86.1550 E7.1069
; inner perimeter
G1 X324.0237 Y192.8470 Z86.4609 F29940
G92 E0
G1 X323.9897 Y192.5910 Z86.2213 E0.0211 F1800
G1 X323.9505 Y192.3700 Z85.9501 E0.0422
G1 X323.9066 Y192.1880 Z85.6524 E0.0632
G1 X323.8584 Y192.0490 Z85.3330 E0.0843
G1 X323.8068 Y191.9540 Z84.9979 E0.1054
G1 X323.7524 Y191.9050 Z84.6532 E0.1265
G1 X321.6870 Y191.9020 Z74.8731 E0.7249
G1 X319.7735 Y191.9000 Z68.4941 E1.1236
G1 X319.6205 Y191.9480 Z68.0434 E1.1523
G1 X319.5576 Y191.9950 Z67.8598 E1.1642
G1 X319.4490 Y192.1110 Z67.5461 E1.1853
G1 X319.3022 Y192.3560 Z67.1271 E1.2156
G1 X319.2077 Y192.5820 Z66.8603 E1.2373
G1 X319.1259 Y192.8360 Z66.6315 E1.2584
G1 X319.0538 Y193.1300 Z66.4311 E1.2801
G1 X318.9775 Y193.5850 Z66.2205 E1.3105
G1 X318.9415 Y193.9370 Z66.1218 E1.3325
G1 X318.9220 Y194.3580 Z66.0683 E1.3579
G1 X318.9217 Y204.3580 Z66.0675 E1.9566
G1 X318.9214 Y214.3580 Z66.0667 E2.5553
G1 X318.9211 Y224.3580 Z66.0660 E3.1540
G1 X318.9209 Y230.5150 Z66.0655 E3.5226
G1 X318.9250 Y230.7600 Z66.0767 E3.5372
G1 X318.9419 Y231.0670 Z66.1228 E3.5559
G1 X318.9956 Y231.5460 Z66.2703 E3.5860
G1 X319.0531 Y231.8660 Z66.4292 E3.6077
G1 X319.1225 Y232.1530 Z66.6221 E3.6288
G1 X319.2040 Y232.4090 Z66.8500 E3.6499
G1 X319.2956 Y232.6300 Z67.1082 E3.6710
G1 X319.3954 Y232.8120 Z67.3922 E3.6920
