; G-Code generated by Simplify3D(R) Version 4.1.2
; Oct 24, 2020 at 3:42:55 PM
; Settings Summary
;   processName,Process1
;   applyToModels,panel
;   profileName,Fanuc FDM, Dual Print Head (modified)
;   profileVersion,2020-10-24 15:23:32
;   baseProfile,Raise3D Pro2
;   printMaterial,PLA
;   printQuality,High
;   printExtruders,Right Extruder Only
;   extruderName,Right Extruder,Left Extruder
;   extruderToolheadNumber,3,2
;   extruderDiameter,0.6,0.4
;   extruderAutoWidth,1,1
;   extruderWidth,0.72,0.48
;   extrusionMultiplier,0.95,0.9
;   extruderUseRetract,1,1
;   extruderRetractionDistance,1.5,3
;   extruderExtraRestartDistance,0,0
;   extruderRetractionZLift,0,0
;   extruderRetractionSpeed,1800,3600
;   extruderUseCoasting,1,1
;   extruderCoastingDistance,0.3,0.3
;   extruderUseWipe,0,0
;   extruderWipeDistance,5,5
;   primaryExtruder,0
;   layerHeight,0.4
;   topSolidLayers,4
;   bottomSolidLayers,4
;   perimeterOutlines,3
;   printPerimetersInsideOut,1
;   startPointOption,2
;   startPointOriginX,0
;   startPointOriginY,0
;   sequentialIslands,0
;   spiralVaseMode,0
;   firstLayerHeightPercentage,100
;   firstLayerWidthPercentage,100
;   firstLayerUnderspeed,0.5
;   useRaft,0
;   raftExtruder,0
;   raftTopLayers,2
;   raftBaseLayers,2
;   raftOffset,3
;   raftSeparationDistance,0.14
;   raftTopInfill,100
;   aboveRaftSpeedMultiplier,0.3
;   useSkirt,1
;   skirtExtruder,0
;   skirtLayers,1
;   skirtOutlines,1
;   skirtOffset,4
;   usePrimePillar,0
;   primePillarExtruder,999
;   primePillarWidth,7
;   primePillarLocation,5
;   primePillarSpeedMultiplier,1
;   useOozeShield,0
;   oozeShieldExtruder,999
;   oozeShieldOffset,3
;   oozeShieldOutlines,1
;   oozeShieldSidewallShape,1
;   oozeShieldSidewallAngle,30
;   oozeShieldSpeedMultiplier,1
;   infillExtruder,0
;   internalInfillPattern,Fast Honeycomb
;   externalInfillPattern,Rectilinear
;   infillPercentage,30
;   outlineOverlapPercentage,30
;   infillExtrusionWidthPercentage,100
;   minInfillLength,0
;   infillLayerInterval,1
;   internalInfillAngles,0
;   overlapInternalInfillAngles,0
;   externalInfillAngles,45,-45
;   generateSupport,0
;   supportExtruder,0
;   supportInfillPercentage,2
;   supportExtraInflation,0
;   supportBaseLayers,0
;   denseSupportExtruder,0
;   denseSupportLayers,0
;   denseSupportInfillPercentage,70
;   supportLayerInterval,1
;   supportHorizontalPartOffset,0.3
;   supportUpperSeparationLayers,1
;   supportLowerSeparationLayers,1
;   supportType,0
;   supportGridSpacing,4
;   maxOverhangAngle,45
;   supportAngles,45
;   temperatureName,Right Extruder,Left Extruder
;   temperatureNumber,3,2
;   temperatureSetpointCount,1,1
;   temperatureSetpointLayers,1,1
;   temperatureSetpointTemperatures,210,0
;   temperatureStabilizeAtStartup,0,0
;   temperatureHeatedBed,0,0
;   fanLayers,1,2
;   fanSpeeds,0,100
;   blipFanToFullPower,1
;   adjustSpeedForCooling,0
;   minSpeedLayerTime,15
;   minCoolingSpeedSlowdown,20
;   increaseFanForCooling,0
;   minFanLayerTime,45
;   maxCoolingFanSpeed,100
;   increaseFanForBridging,0
;   bridgingFanSpeed,100
;   use5D,1
;   relativeEdistances,0
;   allowEaxisZeroing,1
;   independentExtruderAxes,0
;   includeM10123,0
;   stickySupport,1
;   applyToolheadOffsets,0
;   gcodeXoffset,0
;   gcodeYoffset,0
;   gcodeZoffset,0
;   overrideMachineDefinition,1
;   machineTypeOverride,0
;   strokeXoverride,450
;   strokeYoverride,450
;   strokeZoverride,600
;   originOffsetXoverride,0
;   originOffsetYoverride,0
;   originOffsetZoverride,0
;   homeXdirOverride,-1
;   homeYdirOverride,-1
;   homeZdirOverride,-1
;   flipXoverride,1
;   flipYoverride,-1
;   flipZoverride,1
;   toolheadOffsets,0,0|0,0|0,0|0,0|0,0|0,0
;   overrideFirmwareConfiguration,1
;   firmwareTypeOverride,RepRap (Marlin/Repetier/Sprinter)
;   GPXconfigOverride,r2
;   baudRateOverride,230400
;   overridePrinterModels,1
;   printerModelsOverride
;   startingGcode,;G28 X0 Y0 ; Move to origin (Home),;G28 Z0 ; Move to origin (Home),;T3  ; Selecting Right Extruder,;G92 E0 ; Set position
;   layerChangeGcode,
;   retractionGcode,
;   toolChangeGcode,
;   endingGcode,M107 ; Fan off,M104 S0 T3 ; Set Right Extruder T to zero,M104 S0 T2 ; Set Left Extruder T to zero,;G28 X0 Y0 ; Move to Origin (Home),;G91 ; Set to Relative Positioning,;G90 ; Set to Absolute Positioning
;   exportFileFormat,gcode
;   celebration,0
;   celebrationSong,Random Song
;   postProcessing,
;   defaultSpeed,4800
;   outlineUnderspeed,1
;   solidInfillUnderspeed,1
;   supportUnderspeed,0.8
;   rapidXYspeed,6000
;   rapidZspeed,1200
;   minBridgingArea,50
;   bridgingExtraInflation,0
;   bridgingExtrusionMultiplier,1
;   bridgingSpeedMultiplier,1
;   useFixedBridgingAngle,1
;   fixedBridgingAngle,0
;   applyBridgingToPerimeters,1
;   filamentDiameters,1.75|1.75|1.75|1.75|1.75|1.75
;   filamentPricesPerKg,46|46|46|46|46|46
;   filamentDensities,1.25|1.25|1.25|1.25|1.25|1.25
;   useMinPrintHeight,0
;   minPrintHeight,12
;   useMaxPrintHeight,0
;   maxPrintHeight,3
;   useDiaphragm,0
;   diaphragmLayerInterval,20
;   robustSlicing,1
;   mergeAllIntoSolid,0
;   onlyRetractWhenCrossingOutline,0
;   retractBetweenLayers,1
;   useRetractionMinTravel,0
;   retractionMinTravel,3
;   retractWhileWiping,0
;   onlyWipeOutlines,1
;   avoidCrossingOutline,0
;   maxMovementDetourFactor,3
;   toolChangeRetractionDistance,12
;   toolChangeExtraRestartDistance,-0.5
;   toolChangeRetractionSpeed,600
;   externalThinWallType,1
;   internalThinWallType,1
;   thinWallAllowedOverlapPercentage,0
;   singleExtrusionMinLength,0
;   singleExtrusionMinPrintingWidthPercentage,50
;   singleExtrusionMaxPrintingWidthPercentage,200
;   singleExtrusionEndpointExtension,0.2
;   horizontalSizeCompensation,0
G90
M82
M106 S0
M104 S0 T2
M104 S210 T3
;G28 X0 Y0 ; Move to origin (Home)
;G28 Z0 ; Move to origin (Home)
;T3  ; Selecting Right Extruder
;G92 E0 ; Set position
; process Process1
; layer 1, Z = 0.400
T3
G92 E0.0000
G1 E-1.5000 F1800
; feature skirt
; tool H0.400 W0.720
G1 X0.0000 Y0.0000 Z0.4000 I0.0000 J0.0000 K1.0000 F1200
G1 X13.0427 Y15.1315 Z0.8266 I-0.0653 J0.0000 K0.9979 F6000
G1 X26.0297 Y30.2630 Z2.1045 I-0.1304 J0.0000 K0.9915
G1 X38.9054 Y45.3944 Z4.2284 I-0.1949 J0.0000 K0.9808
G1 X51.6148 Y60.5259 Z7.1890 I-0.2586 J0.0000 K0.9660
G1 X64.1035 Y75.6574 Z10.9738 I-0.3212 J0.0000 K0.9470
G1 X76.3183 Y90.7889 Z15.5666 I-0.3824 J0.0000 K0.9240
G1 X88.2069 Y105.9203 Z20.9477 I-0.4419 J0.0000 K0.8971
G1 X99.7184 Y121.0518 Z27.0942 I-0.4996 J0.0000 K0.8663
G1 X110.8036 Y136.1833 Z33.9798 I-0.5551 J0.0000 K0.8318
G1 X121.4153 Y151.3148 Z41.5750 I-0.6083 J0.0000 K0.7937
G1 X131.5080 Y166.4462 Z49.8474 I-0.6589 J0.0000 K0.7523
G1 X137.3683 Y175.6400 Z55.1894 I-0.6882 J0.0000 K0.7255
G1 E0.0000 F1800
G92 E0.0000
G1 X139.2063 Y178.1940 Z56.9554 I-0.6974 J0.0000 K0.7167 E0.4105 F2400
G1 X139.2063 Y198.1940 Z56.9554 I-0.6974 J0.0000 K0.7167 E2.6855
G1 X139.2063 Y218.1940 Z56.9554 I-0.6974 J0.0000 K0.7167 E4.9604
G1 X139.2063 Y238.1940 Z56.9554 I-0.6974 J0.0000 K0.7167 E7.2354
G1 X139.2063 Y241.8060 Z56.9554 I-0.6974 J0.0000 K0.7167 E7.6463
G1 X137.3683 Y244.3600 Z55.1894 I-0.6882 J0.0000 K0.7255 E8.0568
G1 X122.2251 Y244.3600 Z42.1989 I-0.6124 J0.0000 K0.7906 E10.3263
G1 X105.8607 Y244.3600 Z30.7851 I-0.5304 J0.0000 K0.8478 E12.5958
G1 X88.4385 Y244.3600 Z21.0621 I-0.4431 J0.0000 K0.8965 E14.8653
G1 X70.1327 Y244.3600 Z13.1269 I-0.3514 J0.0000 K0.9362 E17.1347
G1 X51.1261 Y244.3600 Z7.0589 I-0.2561 J0.0000 K0.9666 E19.4042
G1 X31.6088 Y244.3600 Z2.9187 I-0.1584 J0.0000 K0.9874 E21.6737
G1 X11.7755 Y244.3600 Z0.7477 I-0.0590 J0.0000 K0.9983 E23.9432
G1 X-8.1753 Y244.3600 Z0.5675 I0.0410 J0.0000 K0.9992 E26.2127
G1 X-28.0445 Y244.3600 Z2.3800 I0.1405 J0.0000 K0.9901 E28.4822
G1 X-47.6335 Y244.3600 Z6.1671 I0.2386 J0.0000 K0.9711 E30.7517
G1 X-66.7465 Y244.3600 Z11.8908 I0.3344 J0.0000 K0.9424 E33.0212
G1 X-85.1926 Y244.3600 Z19.4941 I0.4268 J0.0000 K0.9043 E35.2907
G1 X-102.7876 Y244.3600 Z28.9010 I0.5150 J0.0000 K0.8572 E37.5602
G1 X-119.3554 Y244.3600 Z40.0174 I0.5980 J0.0000 K0.8015 E39.8297
G1 X-134.7308 Y244.3600 Z52.7323 I0.6750 J0.0000 K0.7378 E42.0992
G1 X-137.3683 Y244.3600 Z55.1894 I0.6882 J0.0000 K0.7255 E42.5092
G1 X-139.2063 Y241.8060 Z56.9554 I0.6974 J0.0000 K0.7167 E42.9197
G1 X-139.2063 Y221.8060 Z56.9554 I0.6974 J0.0000 K0.7167 E45.1947
G1 X-139.2063 Y201.8060 Z56.9554 I0.6974 J0.0000 K0.7167 E47.4697
G1 X-139.2063 Y181.8060 Z56.9554 I0.6974 J0.0000 K0.7167 E49.7446
G1 X-139.2063 Y178.1940 Z56.9554 I0.6974 J0.0000 K0.7167 E50.1555
G1 X-137.3683 Y175.6400 Z55.1894 I0.6882 J0.0000 K0.7255 E50.5660
G1 X-122.2251 Y175.6400 Z42.1989 I0.6124 J0.0000 K0.7906 E52.8355
G1 X-105.8607 Y175.6400 Z30.7851 I0.5304 J0.0000 K0.8478 E55.1050
G1 X-88.4385 Y175.6400 Z21.0621 I0.4431 J0.0000 K0.8965 E57.3745
G1 X-70.1327 Y175.6400 Z13.1269 I0.3514 J0.0000 K0.9362 E59.6440
G1 X-51.1261 Y175.6400 Z7.0589 I0.2561 J0.0000 K0.9666 E61.9135
G1 X-31.6088 Y175.6400 Z2.9187 I0.1584 J0.0000 K0.9874 E64.1829
G1 X-11.7755 Y175.6400 Z0.7477 I0.0590 J0.0000 K0.9983 E66.4524
G1 X8.1753 Y175.6400 Z0.5675 I-0.0410 J0.0000 K0.9992 E68.7219
G1 X28.0445 Y175.6400 Z2.3800 I-0.1405 J0.0000 K0.9901 E70.9914
G1 X47.6335 Y175.6400 Z6.1671 I-0.2386 J0.0000 K0.9711 E73.2609
G1 X66.7465 Y175.6400 Z11.8908 I-0.3344 J0.0000 K0.9424 E75.5304
G1 X85.1926 Y175.6400 Z19.4941 I-0.4268 J0.0000 K0.9043 E77.7999
G1 X102.7876 Y175.6400 Z28.9010 I-0.5150 J0.0000 K0.8572 E80.0694
G1 X119.3554 Y175.6400 Z40.0174 I-0.5980 J0.0000 K0.8015 E82.3389
G1 X134.7308 Y175.6400 Z52.7323 I-0.6750 J0.0000 K0.7378 E84.6084
G1 X137.3683 Y175.6400 Z55.1894 I-0.6882 J0.0000 K0.7255 E85.0184
G92 E0.0000
G1 E-1.5000 F1800
; feature inner perimeter
G1 X134.7352 Y181.8000 Z52.7363 I-0.6750 J0.0000 K0.7378 F6000
G1 E0.0000 F1800
G92 E0.0000
G1 X134.7352 Y201.8000 Z52.7363 I-0.6750 J0.0000 K0.7378 E2.2750 F2400
G1 X134.7352 Y221.8000 Z52.7363 I-0.6750 J0.0000 K0.7378 E4.5500
G1 X134.7352 Y238.2000 Z52.7363 I-0.6750 J0.0000 K0.7378 E6.4155
G1 X119.3602 Y238.2000 Z40.0210 I-0.5980 J0.0000 K0.8015 E8.6850
G1 X102.7927 Y238.2000 Z28.9041 I-0.5150 J0.0000 K0.8572 E10.9545
G1 X85.1981 Y238.2000 Z19.4967 I-0.4268 J0.0000 K0.9043 E13.2240
G1 X66.7522 Y238.2000 Z11.8928 I-0.3344 J0.0000 K0.9424 E15.4935
G1 X47.6393 Y238.2000 Z6.1685 I-0.2387 J0.0000 K0.9711 E17.7630
G1 X28.0504 Y238.2000 Z2.3808 I-0.1405 J0.0000 K0.9901 E20.0325
G1 X8.1813 Y238.2000 Z0.5677 I-0.0410 J0.0000 K0.9992 E22.3020
G1 X-11.7696 Y238.2000 Z0.7473 I0.0590 J0.0000 K0.9983 E24.5715
G1 X-31.6028 Y238.2000 Z2.9177 I0.1583 J0.0000 K0.9874 E26.8410
G1 X-51.1204 Y238.2000 Z7.0573 I0.2561 J0.0000 K0.9666 E29.1105
G1 X-70.1271 Y238.2000 Z13.1248 I0.3513 J0.0000 K0.9362 E31.3800
G1 X-88.4331 Y238.2000 Z21.0594 I0.4431 J0.0000 K0.8965 E33.6495
G1 X-105.8556 Y238.2000 Z30.7819 I0.5303 J0.0000 K0.8478 E35.9190
G1 X-122.2204 Y238.2000 Z42.1953 I0.6123 J0.0000 K0.7906 E38.1885
G1 X-134.7352 Y238.2000 Z52.7363 I0.6750 J0.0000 K0.7378 E40.0497
G1 X-134.7352 Y218.2000 Z52.7363 I0.6750 J0.0000 K0.7378 E42.3247
G1 X-134.7352 Y198.2000 Z52.7363 I0.6750 J0.0000 K0.7378 E44.5997
G1 X-134.7352 Y181.8000 Z52.7363 I0.6750 J0.0000 K0.7378 E46.4652
G1 X-119.3602 Y181.8000 Z40.0210 I0.5980 J0.0000 K0.8015 E48.7347
G1 X-102.7927 Y181.8000 Z28.9041 I0.5150 J0.0000 K0.8572 E51.0042
G1 X-85.1981 Y181.8000 Z19.4967 I0.4268 J0.0000 K0.9043 E53.2737
G1 X-66.7522 Y181.8000 Z11.8928 I0.3344 J0.0000 K0.9424 E55.5432
G1 X-47.6393 Y181.8000 Z6.1685 I0.2387 J0.0000 K0.9711 E57.8127
G1 X-28.0504 Y181.8000 Z2.3808 I0.1405 J0.0000 K0.9901 E60.0822
G1 X-8.1813 Y181.8000 Z0.5677 I0.0410 J0.0000 K0.9992 E62.3517
G1 X11.7696 Y181.8000 Z0.7473 I-0.0590 J0.0000 K0.9983 E64.6211
G1 X31.6028 Y181.8000 Z2.9177 I-0.1583 J0.0000 K0.9874 E66.8906
G1 X51.1204 Y181.8000 Z7.0573 I-0.2561 J0.0000 K0.9666 E69.1601
G1 X70.1271 Y181.8000 Z13.1248 I-0.3513 J0.0000 K0.9362 E71.4296
G1 X88.4331 Y181.8000 Z21.0594 I-0.4431 J0.0000 K0.8965 E73.6991
G1 X105.8556 Y181.8000 Z30.7819 I-0.5303 J0.0000 K0.8478 E75.9686
G1 X122.2204 Y181.8000 Z42.1953 I-0.6123 J0.0000 K0.7906 E78.2381
G1 X134.5142 Y181.8000 Z52.5344 I-0.6739 J0.0000 K0.7388 E80.0653
G1 X134.7352 Y181.8000 Z52.7363 I-0.6750 J0.0000 K0.7378 F2400
G92 E0.0000
G1 E-1.5000 F1800
G1 X135.2645 Y181.0800 Z53.2223 I-0.6777 J0.0000 K0.7354 F6000
G1 E0.0000 F1800
G92 E0.0000
G1 X135.2645 Y201.0800 Z53.2223 I-0.6777 J0.0000 K0.7354 E2.2750 F2400
G1 X135.2645 Y221.0800 Z53.2223 I-0.6777 J0.0000 K0.7354 E4.5500
G1 X135.2645 Y238.9200 Z53.2223 I-0.6777 J0.0000 K0.7354 E6.5793
G1 X119.9354 Y238.9200 Z40.4517 I-0.6009 J0.0000 K0.7993 E8.8488
G1 X103.4080 Y238.9200 Z29.2752 I-0.5181 J0.0000 K0.8553 E11.1183
G1 X85.8473 Y238.9200 Z19.8046 I-0.4301 J0.0000 K0.9028 E13.3878
G1 X67.4289 Y238.9200 Z12.1344 I-0.3378 J0.0000 K0.9412 E15.6573
G1 X48.3368 Y238.9200 Z6.3412 I-0.2422 J0.0000 K0.9702 E17.9268
G1 X28.7617 Y238.9200 Z2.4831 I-0.1441 J0.0000 K0.9896 E20.1963
G1 X8.8992 Y238.9200 Z0.5985 I-0.0446 J0.0000 K0.9990 E22.4658
G1 X-11.0522 Y238.9200 Z0.7062 I0.0554 J0.0000 K0.9985 E24.7353
G1 X-30.8931 Y238.9200 Z2.8052 I0.1548 J0.0000 K0.9879 E27.0048
G1 X-50.4254 Y238.9200 Z6.8746 I0.2526 J0.0000 K0.9676 E29.2743
G1 X-69.4539 Y238.9200 Z12.8735 I0.3480 J0.0000 K0.9375 E31.5438
G1 X-87.7884 Y238.9200 Z20.7422 I0.4398 J0.0000 K0.8981 E33.8133
G1 X-105.2457 Y238.9200 Z30.4020 I0.5273 J0.0000 K0.8497 E36.0828
G1 X-121.6515 Y238.9200 Z41.7563 I0.6095 J0.0000 K0.7928 E38.3523
G1 X-135.2645 Y238.9200 Z53.2223 I0.6777 J0.0000 K0.7354 E40.3768
G1 X-135.2645 Y218.9200 Z53.2223 I0.6777 J0.0000 K0.7354 E42.6518
G1 X-135.2645 Y198.9200 Z53.2223 I0.6777 J0.0000 K0.7354 E44.9268
G1 X-135.2645 Y181.0800 Z53.2223 I0.6777 J0.0000 K0.7354 E46.9561
G1 X-119.9354 Y181.0800 Z40.4517 I0.6009 J0.0000 K0.7993 E49.2256
G1 X-103.4080 Y181.0800 Z29.2752 I0.5181 J0.0000 K0.8553 E51.4951
G1 X-85.8473 Y181.0800 Z19.8046 I0.4301 J0.0000 K0.9028 E53.7646
G1 X-67.4289 Y181.0800 Z12.1344 I0.3378 J0.0000 K0.9412 E56.0341
G1 X-48.3368 Y181.0800 Z6.3412 I0.2422 J0.0000 K0.9702 E58.3036
G1 X-28.7617 Y181.0800 Z2.4831 I0.1441 J0.0000 K0.9896 E60.5731
G1 X-8.8992 Y181.0800 Z0.5985 I0.0446 J0.0000 K0.9990 E62.8426
G1 X11.0522 Y181.0800 Z0.7062 I-0.0554 J0.0000 K0.9985 E65.1121
G1 X30.8931 Y181.0800 Z2.8052 I-0.1548 J0.0000 K0.9879 E67.3816
G1 X50.4254 Y181.0800 Z6.8746 I-0.2526 J0.0000 K0.9676 E69.6511
G1 X69.4539 Y181.0800 Z12.8735 I-0.3480 J0.0000 K0.9375 E71.9205
G1 X87.7884 Y181.0800 Z20.7422 I-0.4398 J0.0000 K0.8981 E74.1900
G1 X105.2457 Y181.0800 Z30.4020 I-0.5273 J0.0000 K0.8497 E76.4595
G1 X121.6515 Y181.0800 Z41.7563 I-0.6095 J0.0000 K0.7928 E78.7290
G1 X135.0442 Y181.0800 Z53.0196 I-0.6766 J0.0000 K0.7364 E80.7196
G1 X135.2645 Y181.0800 Z53.2223 I-0.6777 J0.0000 K0.7354 F2400
G92 E0.0000
G1 E-1.5000 F1800
; feature outer perimeter
G1 X135.7920 Y180.3600 Z53.7102 I-0.6803 J0.0000 K0.7329 F6000
G1 E0.0000 F1800
G92 E0.0000
G1 X135.7920 Y200.3600 Z53.7102 I-0.6803 J0.0000 K0.7329 E2.2750 F2400
G1 X135.7920 Y220.3600 Z53.7102 I-0.6803 J0.0000 K0.7329 E4.5500
G1 X135.7920 Y239.6400 Z53.7102 I-0.6803 J0.0000 K0.7329 E6.7431
G1 X120.5090 Y239.6400 Z40.8845 I-0.6038 J0.0000 K0.7972 E9.0126
G1 X104.0219 Y239.6400 Z29.6486 I-0.5212 J0.0000 K0.8535 E11.2821
G1 X86.4955 Y239.6400 Z20.1148 I-0.4333 J0.0000 K0.9012 E13.5516
G1 X68.1048 Y239.6400 Z12.3783 I-0.3412 J0.0000 K0.9400 E15.8211
G1 X49.0336 Y239.6400 Z6.5165 I-0.2457 J0.0000 K0.9694 E18.0906
G1 X29.4726 Y239.6400 Z2.5879 I-0.1477 J0.0000 K0.9890 E20.3601
G1 X9.6170 Y239.6400 Z0.6318 I-0.0482 J0.0000 K0.9988 E22.6296
G1 X-10.3347 Y239.6400 Z0.6677 I0.0518 J0.0000 K0.9987 E24.8991
G1 X-30.1830 Y239.6400 Z2.6953 I0.1512 J0.0000 K0.9885 E27.1686
G1 X-49.7299 Y239.6400 Z6.6943 I0.2491 J0.0000 K0.9685 E29.4381
G1 X-68.7798 Y239.6400 Z12.6247 I0.3446 J0.0000 K0.9388 E31.7076
G1 X-87.1425 Y239.6400 Z20.4273 I0.4366 J0.0000 K0.8997 E33.9771
G1 X-104.6345 Y239.6400 Z30.0242 I0.5242 J0.0000 K0.8516 E36.2466
G1 X-121.0810 Y239.6400 Z41.3194 I0.6066 J0.0000 K0.7950 E38.5161
