; G-Code generated by Simplify3D(R) Version 4.1.2
; Oct 24, 2020 at 3:42:55 PM
; Settings Summary
;   processName,Process1
;   applyToModels,panel
;   profileName,Fanuc FDM, Dual Print Head (modified)
;   profileVersion,2020-10-24 15:23:32
;   baseProfile,Raise3D Pro2
;   printMaterial,PLA
;   printQuality,High
;   printExtruders,Right Extruder Only
;   extruderName,Right Extruder,Left Extruder
;   extruderToolheadNumber,3,2
;   extruderDiameter,0.6,0.4
;   extruderAutoWidth,1,1
;   extruderWidth,0.72,0.48
;   extrusionMultiplier,0.95,0.9
;   extruderUseRetract,1,1
;   extruderRetractionDistance,1.5,3
;   extruderExtraRestartDistance,0,0
;   extruderRetractionZLift,0,0
;   extruderRetractionSpeed,1800,3600
;   extruderUseCoasting,1,1
;   extruderCoastingDistance,0.3,0.3
;   extruderUseWipe,0,0
;   extruderWipeDistance,5,5
;   primaryExtruder,0
;   layerHeight,0.4
;   topSolidLayers,4
;   bottomSolidLayers,4
;   perimeterOutlines,3
;   printPerimetersInsideOut,1
;   startPointOption,2
;   startPointOriginX,0
;   startPointOriginY,0
;   sequentialIslands,0
;   spiralVaseMode,0
;   firstLayerHeightPercentage,100
;   firstLayerWidthPercentage,100
;   firstLayerUnderspeed,0.5
;   useRaft,0
;   raftExtruder,0
;   raftTopLayers,2
;   raftBaseLayers,2
;   raftOffset,3
;   raftSeparationDistance,0.14
;   raftTopInfill,100
;   aboveRaftSpeedMultiplier,0.3
;   useSkirt,1
;   skirtExtruder,0
;   skirtLayers,1
;   skirtOutlines,1
;   skirtOffset,4
;   usePrimePillar,0
;   primePillarExtruder,999
;   primePillarWidth,7
;   primePillarLocation,5
;   primePillarSpeedMultiplier,1
;   useOozeShield,0
;   oozeShieldExtruder,999
;   oozeShieldOffset,3
;   oozeShieldOutlines,1
;   oozeShieldSidewallShape,1
;   oozeShieldSidewallAngle,30
;   oozeShieldSpeedMultiplier,1
;   infillExtruder,0
;   internalInfillPattern,Fast Honeycomb
;   externalInfillPattern,Rectilinear
;   infillPercentage,30
;   outlineOverlapPercentage,30
;   infillExtrusionWidthPercentage,100
;   minInfillLength,0
;   infillLayerInterval,1
;   internalInfillAngles,0
;   overlapInternalInfillAngles,0
;   externalInfillAngles,45,-45
;   generateSupport,0
;   supportExtruder,0
;   supportInfillPercentage,2
;   supportExtraInflation,0
;   supportBaseLayers,0
;   denseSupportExtruder,0
;   denseSupportLayers,0
;   denseSupportInfillPercentage,70
;   supportLayerInterval,1
;   supportHorizontalPartOffset,0.3
;   supportUpperSeparationLayers,1
;   supportLowerSeparationLayers,1
;   supportType,0
;   supportGridSpacing,4
;   maxOverhangAngle,45
;   supportAngles,45
;   temperatureName,Right Extruder,Left Extruder
;   temperatureNumber,3,2
;   temperatureSetpointCount,1,1
;   temperatureSetpointLayers,1,1
;   temperatureSetpointTemperatures,210,0
;   temperatureStabilizeAtStartup,0,0
;   temperatureHeatedBed,0,0
;   fanLayers,1,2
;   fanSpeeds,0,100
;   blipFanToFullPower,1
;   adjustSpeedForCooling,0
;   minSpeedLayerTime,15
;   minCoolingSpeedSlowdown,20
;   increaseFanForCooling,0
;   minFanLayerTime,45
;   maxCoolingFanSpeed,100
;   increaseFanForBridging,0
;   bridgingFanSpeed,100
;   use5D,1
;   relativeEdistances,0
;   allowEaxisZeroing,1
;   independentExtruderAxes,0
;   includeM10123,0
;   stickySupport,1
;   applyToolheadOffsets,0
;   gcodeXoffset,0
;   gcodeYoffset,0
;   gcodeZoffset,0
;   overrideMachineDefinition,1
;   machineTypeOverride,0
;   strokeXoverride,450
;   strokeYoverride,450
;   strokeZoverride,600
;   originOffsetXoverride,0
;   originOffsetYoverride,0
;   originOffsetZoverride,0
;   homeXdirOverride,-1
;   homeYdirOverride,-1
;   homeZdirOverride,-1
;   flipXoverride,1
;   flipYoverride,-1
;   flipZoverride,1
;   toolheadOffsets,0,0|0,0|0,0|0,0|0,0|0,0
;   overrideFirmwareConfiguration,1
;   firmwareTypeOverride,RepRap (Marlin/Repetier/Sprinter)
;   GPXconfigOverride,r2
;   baudRateOverride,230400
;   overridePrinterModels,1
;   printerModelsOverride
;   startingGcode,;G28 X0 Y0 ; Move to origin (Home),;G28 Z0 ; Move to origin (Home),;T3  ; Selecting Right Extruder,;G92 E0 ; Set position
;   layerChangeGcode,
;   retractionGcode,
;   toolChangeGcode,
;   endingGcode,M107 ; Fan off,M104 S0 T3 ; Set Right Extruder T to zero,M104 S0 T2 ; Set Left Extruder T to zero,;G28 X0 Y0 ; Move to Origin (Home),;G91 ; Set to Relative Positioning,;G90 ; Set to Absolute Positioning
;   exportFileFormat,gcode
;   celebration,0
;   celebrationSong,Random Song
;   postProcessing,
;   defaultSpeed,4800
;   outlineUnderspeed,1
;   solidInfillUnderspeed,1
;   supportUnderspeed,0.8
;   rapidXYspeed,6000
;   rapidZspeed,1200
;   minBridgingArea,50
;   bridgingExtraInflation,0
;   bridgingExtrusionMultiplier,1
;   bridgingSpeedMultiplier,1
;   useFixedBridgingAngle,1
;   fixedBridgingAngle,0
;   applyBridgingToPerimeters,1
;   filamentDiameters,1.75|1.75|1.75|1.75|1.75|1.75
;   filamentPricesPerKg,46|46|46|46|46|46
;   filamentDensities,1.25|1.25|1.25|1.25|1.25|1.25
;   useMinPrintHeight,0
;   minPrintHeight,12
;   useMaxPrintHeight,0
;   maxPrintHeight,3
;   useDiaphragm,0
;   diaphragmLayerInterval,20
;   robustSlicing,1
;   mergeAllIntoSolid,0
;   onlyRetractWhenCrossingOutline,0
;   retractBetweenLayers,1
;   useRetractionMinTravel,0
;   retractionMinTravel,3
;   retractWhileWiping,0
;   onlyWipeOutlines,1
;   avoidCrossingOutline,0
;   maxMovementDetourFactor,3
;   toolChangeRetractionDistance,12
;   toolChangeExtraRestartDistance,-0.5
;   toolChangeRetractionSpeed,600
;   externalThinWallType,1
;   internalThinWallType,1
;   thinWallAllowedOverlapPercentage,0
;   singleExtrusionMinLength,0
;   singleExtrusionMinPrintingWidthPercentage,50
;   singleExtrusionMaxPrintingWidthPercentage,200
;   singleExtrusionEndpointExtension,0.2
;   horizontalSizeCompensation,0
G90
M82
M106 S0
M104 S0 T2
M104 S210 T3
;G28 X0 Y0 ; Move to origin (Home)
;G28 Z0 ; Move to origin (Home)
;T3  ; Selecting Right Extruder
;G92 E0 ; Set position
; process Process1
; layer 1, Z = 0.400
T3
G92 E0.0000
G1 E-1.5000 F1800
; feature skirt
; tool H0.400 W0.720
G1 Z0.400 F1200
G1 X151.806 Y175.640 F6000
G1 E0.0000 F1800
G92 E0.0000
G1 X154.360 Y178.194 E0.4109 F2400
G1 X154.360 Y241.806 E7.6467
G1 X151.806 Y244.360 E8.0576
G1 X-151.806 Y244.360 E42.5933
G1 X-154.360 Y241.806 E43.0042
G1 X-154.360 Y178.194 E50.2400
G1 X-151.806 Y175.640 E50.6509
G1 X151.806 Y175.640 E85.1866
G92 E0.0000
G1 E-1.5000 F1800
; feature inner perimeter
G1 X148.200 Y181.800 F6000
G1 E0.0000 F1800
G92 E0.0000
G1 X148.200 Y238.200 E6.4155 F2400
G1 X-148.200 Y238.200 E40.1309
G1 X-148.200 Y181.800 E46.5464
G1 X147.900 Y181.800 E80.2276
G1 X148.200 Y181.800 F2400
G92 E0.0000
G1 E-1.5000 F1800
G1 X148.920 Y181.080 F6000
G1 E0.0000 F1800
G92 E0.0000
G1 X148.920 Y238.920 E6.5793 F2400
G1 X-148.920 Y238.920 E40.4585
G1 X-148.920 Y181.080 E47.0378
G1 X148.620 Y181.080 E80.8828
G1 X148.920 Y181.080 F2400
G92 E0.0000
G1 E-1.5000 F1800
; feature outer perimeter
G1 X149.640 Y180.360 F6000
G1 E0.0000 F1800
G92 E0.0000
G1 X149.640 Y239.640 E6.7431 F2400
G1 X-149.640 Y239.640 E40.7861
G1 X-149.640 Y180.360 E47.5292
G1 X149.340 Y180.360 E81.5380
G1 X149.640 Y180.360 F2400
G92 E0.0000
G1 E-1.5000 F1800
; feature solid layer
G1 X147.440 Y182.304 F6000
G1 E0.0000 F1800
G92 E0.0000
G1 X147.696 Y182.560 E0.0411 F2400
G1 X147.696 Y183.578 E0.1570
G1 X146.422 Y182.304 E0.3619
G1 X145.404 Y182.304 E0.4777
G1 X147.696 Y184.596 E0.8465
G1 X147.696 Y185.614 E0.9623
G1 X144.385 Y182.304 E1.4948
G1 X143.367 Y182.304 E1.6107
G1 X147.696 Y186.633 E2.3070
G1 X147.696 Y187.651 E2.4228
G1 X142.349 Y182.304 E3.2830
G1 X141.331 Y182.304 E3.3988
G1 X147.696 Y188.669 E4.4227
G1 X147.696 Y189.687 E4.5386
G1 X140.312 Y182.304 E5.7263
G1 X139.294 Y182.304 E5.8421
G1 X147.696 Y190.706 E7.1937
G1 X147.696 Y191.724 E7.3095
G1 X138.276 Y182.304 E8.8248
G1 X137.258 Y182.304 E8.9407
G1 X147.696 Y192.742 E10.6198
G1 X147.696 Y193.760 E10.7356
G1 X136.240 Y182.304 E12.5786
G1 X135.221 Y182.304 E12.6944
G1 X147.696 Y194.779 E14.7011
G1 X147.696 Y195.797 E14.8170
G1 X134.203 Y182.304 E16.9875
G1 X133.185 Y182.304 E17.1033
G1 X147.696 Y196.815 E19.4377
G1 X147.696 Y197.833 E19.5535
G1 X132.167 Y182.304 E22.0516
G1 X131.148 Y182.304 E22.1674
G1 X147.696 Y198.852 E24.8294
G1 X147.696 Y199.870 E24.9452
G1 X130.130 Y182.304 E27.7709
G1 X129.112 Y182.304 E27.8868
G1 X147.696 Y200.888 E30.8763
G1 X147.696 Y201.906 E30.9921
G1 X128.094 Y182.304 E34.1455
G1 X127.075 Y182.304 E34.2613
G1 X147.696 Y202.924 E37.5784
G1 X147.696 Y203.943 E37.6942
G1 X126.057 Y182.304 E41.1752
G1 X125.039 Y182.304 E41.2910
G1 X147.696 Y204.961 E44.9357
G1 X147.696 Y205.979 E45.0516
G1 X124.021 Y182.304 E48.8601
G1 X123.003 Y182.304 E48.9759
G1 X147.696 Y206.997 E52.9483
G1 X147.696 Y208.016 E53.0641
G1 X121.984 Y182.304 E57.2002
G1 X120.966 Y182.304 E57.3160
G1 X147.696 Y209.034 E61.6160
G1 X147.696 Y210.052 E61.7318
G1 X119.948 Y182.304 E66.1955
G1 X118.930 Y182.304 E66.3113
G1 X147.696 Y211.070 E70.9389
G1 X147.696 Y212.089 E71.0547
G1 X117.911 Y182.304 E75.8460
G1 X116.893 Y182.304 E75.9619
G1 X147.696 Y213.107 E80.9170
G1 X147.696 Y214.125 E81.0328
G1 X115.875 Y182.304 E86.1517
G1 X114.857 Y182.304 E86.2676
G1 X147.696 Y215.143 E91.5503
G1 X147.696 Y216.161 E91.6661
G1 X113.838 Y182.304 E97.1126
G1 X112.820 Y182.304 E97.2285
G1 X147.696 Y217.180 E102.8388
G1 X147.696 Y218.198 E102.9546
G1 X111.802 Y182.304 E108.7287
G1 X110.784 Y182.304 E108.8446
G1 X147.696 Y219.216 E114.7825
G1 X147.696 Y220.234 E114.8983
G1 X109.765 Y182.304 E121.0000
G1 X108.747 Y182.304 E121.1159
G1 X147.696 Y221.253 E127.3814
G1 X147.696 Y222.271 E127.4972
G1 X107.729 Y182.304 E133.9265
G1 X106.711 Y182.304 E134.0424
G1 X147.696 Y223.289 E140.6355
G1 X147.696 Y224.307 E140.7513
G1 X105.693 Y182.304 E147.5082
G1 X104.674 Y182.304 E147.6241
G1 X147.696 Y225.326 E154.5448
G1 X147.696 Y226.344 E154.6606
G1 X103.656 Y182.304 E161.7451
G1 X102.638 Y182.304 E161.8610
G1 X147.696 Y227.362 E169.1093
G1 X147.696 Y228.380 E169.2251
G1 X101.620 Y182.304 E176.6372
G1 X100.601 Y182.304 E176.7531
G1 X147.696 Y229.399 E184.3290
G1 X147.696 Y230.417 E184.4448
G1 X99.583 Y182.304 E192.1845
G1 X98.565 Y182.304 E192.3004
G1 X147.696 Y231.435 E200.2039
G1 X147.696 Y232.453 E200.3197
G1 X97.547 Y182.304 E208.3870
G1 X96.528 Y182.304 E208.5028
G1 X147.696 Y233.471 E216.7340
G1 X147.696 Y234.490 E216.8498
G1 X95.510 Y182.304 E225.2447
G1 X94.492 Y182.304 E225.3605
G1 X147.696 Y235.508 E233.9193
G1 X147.696 Y236.526 E234.0351
G1 X93.474 Y182.304 E242.7576
G1 X92.456 Y182.304 E242.8734
G1 X147.696 Y237.544 E251.7597
G1 X147.696 Y237.696 E251.7770
G1 X146.829 Y237.696 E251.8756
G1 X91.437 Y182.304 E260.7863
G1 X90.419 Y182.304 E260.9021
G1 X145.811 Y237.696 E269.8128
G1 X144.793 Y237.696 E269.9286
G1 X89.401 Y182.304 E278.8393
G1 X88.383 Y182.304 E278.9552
G1 X143.775 Y237.696 E287.8659
G1 X142.756 Y237.696 E287.9817
G1 X87.364 Y182.304 E296.8924
G1 X86.346 Y182.304 E297.0082
G1 X141.738 Y237.696 E305.9189
G1 X140.720 Y237.696 E306.0347
G1 X85.328 Y182.304 E314.9455
G1 X84.310 Y182.304 E315.0613
G1 X139.702 Y237.696 E323.9720
G1 X138.683 Y237.696 E324.0878
G1 X83.291 Y182.304 E332.9985
G1 X82.273 Y182.304 E333.1143
G1 X137.665 Y237.696 E342.0250
G1 X136.647 Y237.696 E342.1409
G1 X81.255 Y182.304 E351.0516
G1 X80.237 Y182.304 E351.1674
G1 X135.629 Y237.696 E360.0781
G1 X134.610 Y237.696 E360.1939
G1 X79.218 Y182.304 E369.1046
G1 X78.200 Y182.304 E369.2205
G1 X133.592 Y237.696 E378.1312
G1 X132.574 Y237.696 E378.2470
G1 X77.182 Y182.304 E387.1577
G1 X76.164 Y182.304 E387.2735
G1 X131.556 Y237.696 E396.1842
G1 X130.538 Y237.696 E396.3001
G1 X75.146 Y182.304 E405.2108
G1 X74.127 Y182.304 E405.3266
G1 X129.519 Y237.696 E414.2373
G1 X128.501 Y237.696 E414.3531
G1 X73.109 Y182.304 E423.2638
G1 X72.091 Y182.304 E423.3796
G1 X127.483 Y237.696 E432.2904
G1 X126.465 Y237.696 E432.4062
G1 X71.073 Y182.304 E441.3169
G1 X70.054 Y182.304 E441.4327
G1 X125.446 Y237.696 E450.3434
G1 X124.428 Y237.696 E450.4592
G1 X69.036 Y182.304 E459.3699
G1 X68.018 Y182.304 E459.4858
G1 X123.410 Y237.696 E468.3965
G1 X122.392 Y237.696 E468.5123
G1 X67.000 Y182.304 E477.4230
G1 X65.981 Y182.304 E477.5388
G1 X121.373 Y237.696 E486.4495
G1 X120.355 Y237.696 E486.5654
G1 X64.963 Y182.304 E495.4761
G1 X63.945 Y182.304 E495.5919
G1 X119.337 Y237.696 E504.5026
G1 X118.319 Y237.696 E504.6184
G1 X62.927 Y182.304 E513.5291
G1 X61.908 Y182.304 E513.6450
G1 X117.300 Y237.696 E522.5557
G1 X116.282 Y237.696 E522.6715
G1 X60.890 Y182.304 E531.5822
G1 X59.872 Y182.304 E531.6980
G1 X115.264 Y237.696 E540.6087
G1 X114.246 Y237.696 E540.7245
G1 X58.854 Y182.304 E549.6353
G1 X57.836 Y182.304 E549.7511
G1 X113.228 Y237.696 E558.6618
G1 X112.209 Y237.696 E558.7776
G1 X56.817 Y182.304 E567.6883
G1 X55.799 Y182.304 E567.8041
G1 X111.191 Y237.696 E576.7148
G1 X110.173 Y237.696 E576.8307
G1 X54.781 Y182.304 E585.7414
G1 X53.763 Y182.304 E585.8572
G1 X109.155 Y237.696 E594.7679
G1 X108.136 Y237.696 E594.8837
G1 X52.744 Y182.304 E603.7944
G1 X51.726 Y182.304 E603.9103
G1 X107.118 Y237.696 E612.8210
G1 X106.100 Y237.696 E612.9368
G1 X50.708 Y182.304 E621.8475
G1 X49.690 Y182.304 E621.9633
G1 X105.082 Y237.696 E630.8740
G1 X104.063 Y237.696 E630.9899
G1 X48.671 Y182.304 E639.9006
G1 X47.653 Y182.304 E640.0164
G1 X103.045 Y237.696 E648.9271
G1 X102.027 Y237.696 E649.0429
G1 X46.635 Y182.304 E657.9536
G1 X45.617 Y182.304 E658.0694
G1 X101.009 Y237.696 E666.9802
G1 X99.991 Y237.696 E667.0960
G1 X44.599 Y182.304 E676.0067
G1 X43.580 Y182.304 E676.1225
G1 X98.972 Y237.696 E685.0332
G1 X97.954 Y237.696 E685.1490
G1 X42.562 Y182.304 E694.0597
G1 X41.544 Y182.304 E694.1756
G1 X96.936 Y237.696 E703.0863
G1 X95.918 Y237.696 E703.2021
G1 X40.526 Y182.304 E712.1128
G1 X39.507 Y182.304 E712.2286
G1 X94.899 Y237.696 E721.1393
G1 X93.881 Y237.696 E721.2552
G1 X38.489 Y182.304 E730.1659
G1 X37.471 Y182.304 E730.2817
G1 X92.863 Y237.696 E739.1924
G1 X91.845 Y237.696 E739.3082
G1 X36.453 Y182.304 E748.2189
G1 X35.434 Y182.304 E748.3348
G1 X90.826 Y237.696 E757.2455
G1 X89.808 Y237.696 E757.3613
G1 X34.416 Y182.304 E766.2720
G1 X33.398 Y182.304 E766.3878
G1 X88.790 Y237.696 E775.2985
G1 X87.772 Y237.696 E775.4143
G1 X32.380 Y182.304 E784.3251
G1 X31.361 Y182.304 E784.4409
G1 X86.753 Y237.696 E793.3516
G1 X85.735 Y237.696 E793.4674
G1 X30.343 Y182.304 E802.3781
G1 X29.325 Y182.304 E802.4939
G1 X84.717 Y237.696 E811.4046
G1 X83.699 Y237.696 E811.5205
G1 X28.307 Y182.304 E820.4312
G1 X27.289 Y182.304 E820.5470
G1 X82.681 Y237.696 E829.4577
G1 X81.662 Y237.696 E829.5735
G1 X26.270 Y182.304 E838.4842
G1 X25.252 Y182.304 E838.6001
G1 X80.644 Y237.696 E847.5108
G1 X79.626 Y237.696 E847.6266
G1 X24.234 Y182.304 E856.5373
G1 X23.216 Y182.304 E856.6531
G1 X78.608 Y237.696 E865.5638
G1 X77.589 Y237.696 E865.6797
G1 X22.197 Y182.304 E874.5904
G1 X21.179 Y182.304 E874.7062
G1 X76.571 Y237.696 E883.6169
G1 X75.553 Y237.696 E883.7327
G1 X20.161 Y182.304 E892.6434
G1 X19.143 Y182.304 E892.7592
G1 X74.535 Y237.696 E901.6700
G1 X73.516 Y237.696 E901.7858
G1 X18.124 Y182.304 E910.6965
G1 X17.106 Y182.304 E910.8123
G1 X72.498 Y237.696 E919.7230
G1 X71.480 Y237.696 E919.8388
G1 X16.088 Y182.304 E928.7495
G1 X15.070 Y182.304 E928.8654
G1 X70.462 Y237.696 E937.7761
G1 X69.444 Y237.696 E937.8919
G1 X14.052 Y182.304 E946.8026
G1 X13.033 Y182.304 E946.9184
G1 X68.425 Y237.696 E955.8291
G1 X67.407 Y237.696 E955.9450
G1 X12.015 Y182.304 E964.8557
G1 X10.997 Y182.304 E964.9715
G1 X66.389 Y237.696 E973.8822
G1 X65.371 Y237.696 E973.9980
G1 X9.979 Y182.304 E982.9087
G1 X8.960 Y182.304 E983.0246
G1 X64.352 Y237.696 E991.9353
G1 X63.334 Y237.696 E992.0511
G1 X7.942 Y182.304 E1000.9618
G1 X6.924 Y182.304 E1001.0776
G1 X62.316 Y237.696 E1009.9883
G1 X61.298 Y237.696 E1010.1041
G1 X5.906 Y182.304 E1019.0149
G1 X4.887 Y182.304 E1019.1307
G1 X60.279 Y237.696 E1028.0414
G1 X59.261 Y237.696 E1028.1572
G1 X3.869 Y182.304 E1037.0679
G1 X2.851 Y182.304 E1037.1837
G1 X58.243 Y237.696 E1046.0944
G1 X57.225 Y237.696 E1046.2103
G1 X1.833 Y182.304 E1055.1210
G1 X0.814 Y182.304 E1055.2368
G1 X56.206 Y237.696 E1064.1475
G1 X55.188 Y237.696 E1064.2633
